waxal-templates/luts/waxal-night-market.cube
TITLE "Waxal Night Market"
# Original Waxal look — generated color math, no third-party data
LUT_3D_SIZE 33
0.000000 0.005054 0.030759
0.000000 0.004766 0.030253
0.022376 0.004446 0.029692
0.047118 0.004099 0.029079
0.073813 0.003725 0.028418
0.102310 0.003328 0.027714
0.132459 0.002909 0.026971
0.164112 0.002472 0.026191
0.197118 0.002018 0.025379
0.231326 0.001550 0.024540
0.266588 0.001071 0.023676
0.302752 0.000581 0.022791
0.339670 0.000085 0.021890
0.377191 0.000000 0.020976
0.415165 0.000000 0.020052
0.453441 0.000000 0.019123
0.491870 0.000000 0.018192
0.530302 0.000000 0.017263
0.568585 0.000000 0.016339
0.606571 0.000000 0.015425
0.644108 0.000000 0.014523
0.681047 0.000000 0.013637
0.717236 0.000000 0.012770
0.752526 0.000000 0.011927
0.786766 0.000000 0.011110
0.819806 0.000000 0.010323
0.851494 0.000000 0.009570
0.881681 0.000000 0.008854
0.910216 0.000000 0.008178
0.936949 0.000000 0.007545
0.961728 0.000000 0.006960
0.984404 0.000000 0.006425
1.000000 0.000000 0.005943
0.000000 0.024546 0.029058
0.000000 0.024260 0.028554
0.022145 0.023944 0.027994
0.046889 0.023600 0.027384
0.073587 0.023230 0.026725
0.102087 0.022837 0.026024
0.132240 0.022422 0.025282
0.163896 0.021990 0.024506
0.196906 0.021541 0.023697
0.231118 0.021078 0.022860
0.266384 0.020603 0.021999
0.302553 0.020119 0.021117
0.339474 0.019628 0.020219
0.376999 0.019132 0.019308
0.414977 0.018633 0.018388
0.453258 0.018132 0.017462
0.491692 0.017633 0.016534
0.530127 0.017137 0.015608
0.568416 0.016647 0.014688
0.606406 0.016163 0.013776
0.643947 0.015687 0.012877
0.680890 0.015222 0.011994
0.717083 0.014770 0.011131
0.752377 0.014331 0.010290
0.786621 0.013908 0.009476
0.819664 0.013502 0.008692
0.851356 0.013115 0.007942
0.881547 0.012748 0.007228
0.910085 0.012403 0.006554
0.936821 0.012081 0.005924
0.961603 0.011785 0.005340
0.984281 0.011514 0.004807
1.000000 0.011271 0.004327
0.000000 0.046201 0.027176
0.000000 0.045919 0.026674
0.021896 0.045606 0.026116
0.046644 0.045266 0.025508
0.073345 0.044900 0.024852
0.101849 0.044512 0.024153
0.132006 0.044102 0.023415
0.163666 0.043675 0.022641
0.196680 0.043231 0.021835
0.230896 0.042773 0.021001
0.266166 0.042305 0.020143
0.302340 0.041826 0.019265
0.339266 0.041341 0.018370
0.376796 0.040851 0.017463
0.414779 0.040358 0.016546
0.453064 0.039863 0.015623
0.491503 0.039371 0.014699
0.529943 0.038881 0.013777
0.568236 0.038396 0.012860
0.606231 0.037918 0.011952
0.643777 0.037449 0.011056
0.680725 0.036990 0.010177
0.716923 0.036543 0.009317
0.752221 0.036110 0.008480
0.786469 0.035692 0.007669
0.819517 0.035292 0.006888
0.851213 0.034909 0.006140
0.881407 0.034547 0.005429
0.909949 0.034207 0.004758
0.936688 0.033890 0.004130
0.961473 0.033597 0.003549
0.984154 0.033330 0.003018
1.000000 0.033090 0.002540
0.000000 0.069880 0.025128
0.000000 0.069602 0.024627
0.021636 0.069293 0.024072
0.046387 0.068957 0.023466
0.073092 0.068596 0.022813
0.101600 0.068212 0.022117
0.131761 0.067808 0.021381
0.163425 0.067386 0.020611
0.196443 0.066948 0.019808
0.230665 0.066497 0.018978
0.265940 0.066034 0.018124
0.302118 0.065562 0.017249
0.339050 0.065083 0.016358
0.376585 0.064599 0.015454
0.414572 0.064113 0.014541
0.452863 0.063626 0.013623
0.491307 0.063139 0.012702
0.529753 0.062656 0.011784
0.568051 0.062178 0.010871
0.606051 0.061707 0.009966
0.643602 0.061244 0.009075
0.680555 0.060792 0.008199
0.716758 0.060351 0.007342
0.752061 0.059924 0.006509
0.786314 0.059512 0.005702
0.819366 0.059118 0.004924
0.851067 0.058741 0.004180
0.881265 0.058384 0.003471
0.909811 0.058049 0.002803
0.936553 0.057736 0.002178
0.961342 0.057447 0.001599
0.984026 0.057184 0.001071
1.000000 0.056949 0.000595
0.000000 0.095444 0.022927
0.000000 0.095169 0.022429
0.021368 0.094864 0.021876
0.046123 0.094533 0.021273
0.072832 0.094177 0.020623
0.101344 0.093799 0.019929
0.131509 0.093400 0.019197
0.163178 0.092984 0.018430
0.196201 0.092552 0.017631
0.230428 0.092107 0.016805
0.265708 0.091651 0.015954
0.301892 0.091186 0.015083
0.338829 0.090714 0.014196
0.376369 0.090237 0.013297
0.414363 0.089758 0.012388
0.452659 0.089278 0.011473
0.491109 0.088799 0.010557
0.529560 0.088323 0.009643
0.567864 0.087852 0.008734
0.605870 0.087388 0.007834
0.643427 0.086932 0.006946
0.680385 0.086487 0.006074
0.716593 0.086053 0.005222
0.751902 0.085633 0.004392
0.786160 0.085228 0.003589
0.819216 0.084839 0.002815
0.850922 0.084468 0.002074
0.881125 0.084117 0.001369
0.909675 0.083787 0.000704
0.936421 0.083479 0.000081
0.961214 0.083195 0.000000
0.983901 0.082937 0.000000
1.000000 0.082705 0.000000
0.000000 0.122750 0.020589
0.000000 0.122480 0.020093
0.021097 0.122180 0.019543
0.045856 0.121853 0.018942
0.072569 0.121503 0.018295
0.101085 0.121130 0.017605
0.131255 0.120738 0.016877
0.162930 0.120328 0.016113
0.195958 0.119903 0.015318
0.230190 0.119465 0.014495
0.265475 0.119016 0.013649
0.301665 0.118558 0.012783
0.338608 0.118093 0.011900
0.376154 0.117624 0.011004
0.414154 0.117152 0.010100
0.452457 0.116680 0.009190
0.490912 0.116209 0.008278
0.529370 0.115741 0.007368
0.567680 0.115277 0.006464
0.605691 0.114821 0.005568
0.643254 0.114373 0.004685
0.680218 0.113934 0.003817
0.716432 0.113508 0.002969
0.751746 0.113095 0.002143
0.786010 0.112696 0.001344
0.819072 0.112314 0.000574
0.850782 0.111950 0.000000
0.880989 0.111605 0.000000
0.909544 0.111281 0.000000
0.936295 0.110978 0.000000
0.961091 0.110699 0.000000
0.983782 0.110445 0.000000
1.000000 0.110217 0.000000
0.000000 0.151660 0.018127
0.000000 0.151394 0.017633
0.020827 0.151099 0.017086
0.045590 0.150778 0.016488
0.072307 0.150433 0.015845
0.100828 0.150066 0.015158
0.131003 0.149680 0.014434
0.162683 0.149277 0.013674
0.195717 0.148859 0.012883
0.229954 0.148428 0.012064
0.265246 0.147987 0.011222
0.301441 0.147537 0.010360
0.338391 0.147080 0.009482
0.375943 0.146619 0.008591
0.413949 0.146155 0.007691
0.452258 0.145691 0.006786
0.490720 0.145228 0.005879
0.529184 0.144768 0.004974
0.567501 0.144313 0.004074
0.605519 0.143864 0.003183
0.643088 0.143424 0.002305
0.680058 0.142994 0.001442
0.716278 0.142575 0.000598
0.751598 0.142169 0.000000
0.785867 0.141778 0.000000
0.818935 0.141403 0.000000
0.850650 0.141045 0.000000
0.880863 0.140707 0.000000
0.909422 0.140389 0.000000
0.936178 0.140092 0.000000
0.960978 0.139818 0.000000
0.983673 0.139569 0.000000
1.000000 0.139345 0.000000
0.000000 0.182033 0.015556
0.000000 0.181771 0.015065
0.020561 0.181481 0.014520
0.045328 0.181166 0.013926
0.072050 0.180827 0.013286
0.100576 0.180467 0.012603
0.130757 0.180087 0.011882
0.162442 0.179691 0.011126
0.195482 0.179281 0.010340
0.229726 0.178857 0.009526
0.265023 0.178424 0.008688
0.301225 0.177982 0.007831
0.338181 0.177533 0.006958
0.375740 0.177080 0.006071
0.413753 0.176625 0.005177
0.452069 0.176169 0.004276
0.490537 0.175715 0.003374
0.529008 0.175263 0.002474
0.567331 0.174817 0.001579
0.605356 0.174377 0.000693
0.642932 0.173945 0.000000
0.679908 0.173523 0.000000
0.716135 0.173112 0.000000
0.751461 0.172714 0.000000
0.785736 0.172331 0.000000
0.818810 0.171963 0.000000
0.850531 0.171613 0.000000
0.880749 0.171281 0.000000
0.909313 0.170969 0.000000
0.936073 0.170678 0.000000
0.960878 0.170410 0.000000
0.983577 0.170166 0.000000
1.000000 0.169947 0.000000
0.000000 0.213728 0.012889
0.000000 0.213471 0.012401
0.020304 0.213186 0.011860
0.045076 0.212876 0.011269
0.071803 0.212543 0.010632
0.100334 0.212190 0.009954
0.130520 0.211818 0.009237
0.162211 0.211429 0.008485
0.195257 0.211026 0.007703
0.229507 0.210611 0.006893
0.264811 0.210185 0.006061
0.301020 0.209751 0.005208
0.337982 0.209312 0.004340
0.375548 0.208867 0.003459
0.413568 0.208421 0.002569
0.451891 0.207974 0.001674
0.490366 0.207529 0.000777
0.528844 0.207086 0.000000
0.567175 0.206649 0.000000
0.605206 0.206217 0.000000
0.642789 0.205794 0.000000
0.679772 0.205381 0.000000
0.716005 0.204979 0.000000
0.751338 0.204589 0.000000
0.785619 0.204213 0.000000
0.818699 0.203853 0.000000
0.850426 0.203510 0.000000
0.880649 0.203185 0.000000
0.909219 0.202880 0.000000
0.935984 0.202596 0.000000
0.960793 0.202333 0.000000
0.983496 0.202094 0.000000
1.000000 0.201880 0.000000
0.000000 0.246603 0.010142
0.000000 0.246351 0.009657
0.020059 0.246072 0.009119
0.044836 0.245768 0.008531
0.071568 0.245441 0.007898
0.100105 0.245095 0.007223
0.130297 0.244730 0.006511
0.161994 0.244349 0.005763
0.195045 0.243954 0.004986
0.229302 0.243547 0.004181
0.264613 0.243130 0.003353
0.300828 0.242705 0.002506
0.337798 0.242274 0.001643
0.375371 0.241839 0.000767
0.413398 0.241401 0.000000
0.451728 0.240964 0.000000
0.490211 0.240528 0.000000
0.528696 0.240094 0.000000
0.567034 0.239666 0.000000
0.605072 0.239244 0.000000
0.642662 0.238830 0.000000
0.679653 0.238425 0.000000
0.715893 0.238032 0.000000
0.751232 0.237651 0.000000
0.785520 0.237283 0.000000
0.818606 0.236931 0.000000
0.850339 0.236596 0.000000
0.880568 0.236278 0.000000
0.909143 0.235980 0.000000
0.935913 0.235702 0.000000
0.960727 0.235445 0.000000
0.983434 0.235212 0.000000
1.000000 0.235002 0.000000
0.000000 0.280517 0.007327
0.000000 0.280270 0.006845
0.019830 0.279997 0.006310
0.044611 0.279699 0.005726
0.071348 0.279379 0.005097
0.099891 0.279040 0.004426
0.130089 0.278682 0.003717
0.161792 0.278309 0.002975
0.194850 0.277922 0.002202
0.229113 0.277524 0.001402
0.264431 0.277115 0.000579
0.300654 0.276699 0.000000
0.337630 0.276278 0.000000
0.375211 0.275852 0.000000
0.413245 0.275424 0.000000
0.451583 0.274996 0.000000
0.490073 0.274569 0.000000
0.528566 0.274146 0.000000
0.566911 0.273727 0.000000
0.604958 0.273314 0.000000
0.642555 0.272909 0.000000
0.679552 0.272514 0.000000
0.715799 0.272129 0.000000
0.751146 0.271757 0.000000
0.785440 0.271398 0.000000
0.818533 0.271054 0.000000
0.850272 0.270727 0.000000
0.880507 0.270417 0.000000
0.909088 0.270125 0.000000
0.935863 0.269854 0.000000
0.960682 0.269604 0.000000
0.983393 0.269376 0.000000
1.000000 0.269172 0.000000
0.000000 0.315329 0.004458
0.000000 0.315087 0.003978
0.019619 0.314819 0.003447
0.044405 0.314528 0.002866
0.071147 0.314215 0.002241
0.099696 0.313883 0.001575
0.129900 0.313533 0.000871
0.161609 0.313168 0.000133
0.194674 0.312789 0.000000
0.228944 0.312399 0.000000
0.264269 0.312000 0.000000
0.300499 0.311593 0.000000
0.337483 0.311181 0.000000
0.375071 0.310765 0.000000
0.413113 0.310347 0.000000
0.451459 0.309928 0.000000
0.489957 0.309511 0.000000
0.528457 0.309098 0.000000
0.566810 0.308688 0.000000
0.604864 0.308285 0.000000
0.642469 0.307890 0.000000
0.679474 0.307504 0.000000
0.715728 0.307129 0.000000
0.751081 0.306766 0.000000
0.785383 0.306416 0.000000
0.818482 0.306080 0.000000
0.850227 0.305761 0.000000
0.880469 0.305458 0.000000
0.909055 0.305174 0.000000
0.935835 0.304909 0.000000
0.960659 0.304666 0.000000
0.983376 0.304443 0.000000
1.000000 0.304244 0.000000
0.000000 0.350895 0.001547
0.000000 0.350658 0.001071
0.019428 0.350397 0.000543
0.044220 0.350112 0.000000
0.070968 0.349806 0.000000
0.099522 0.349481 0.000000
0.129732 0.349139 0.000000
0.161448 0.348782 0.000000
0.194520 0.348412 0.000000
0.228797 0.348031 0.000000
0.264129 0.347641 0.000000
0.300366 0.347244 0.000000
0.337358 0.346841 0.000000
0.374954 0.346435 0.000000
0.413004 0.346026 0.000000
0.451357 0.345618 0.000000
0.489863 0.345211 0.000000
0.528371 0.344807 0.000000
0.566732 0.344408 0.000000
0.604793 0.344015 0.000000
0.642406 0.343629 0.000000
0.679418 0.343253 0.000000
0.715680 0.342887 0.000000
0.751041 0.342533 0.000000
0.785349 0.342192 0.000000
0.818455 0.341865 0.000000
0.850207 0.341554 0.000000
0.880455 0.341259 0.000000
0.909047 0.340982 0.000000
0.935833 0.340725 0.000000
0.960662 0.340487 0.000000
0.983383 0.340271 0.000000
1.000000 0.340077 0.000000
0.000000 0.387073 0.000000
0.000000 0.386842 0.000000
0.019261 0.386586 0.000000
0.044058 0.386308 0.000000
0.070811 0.386009 0.000000
0.099371 0.385691 0.000000
0.129588 0.385357 0.000000
0.161310 0.385009 0.000000
0.194389 0.384648 0.000000
0.228673 0.384276 0.000000
0.264013 0.383895 0.000000
0.300258 0.383507 0.000000
0.337257 0.383114 0.000000
0.374861 0.382718 0.000000
0.412918 0.382320 0.000000
0.451279 0.381921 0.000000
0.489793 0.381525 0.000000
0.528310 0.381131 0.000000
0.566678 0.380742 0.000000
0.604748 0.380359 0.000000
0.642368 0.379983 0.000000
0.679389 0.379617 0.000000
0.715658 0.379260 0.000000
0.751026 0.378915 0.000000
0.785342 0.378583 0.000000
0.818454 0.378265 0.000000
0.850213 0.377962 0.000000
0.880466 0.377676 0.000000
0.909065 0.377406 0.000000
0.935856 0.377156 0.000000
0.960690 0.376925 0.000000
0.983416 0.376715 0.000000
1.000000 0.376526 0.000000
0.000000 0.423720 0.000000
0.000000 0.423494 0.000000
0.019119 0.423244 0.000000
0.043920 0.422972 0.000000
0.070680 0.422681 0.000000
0.099246 0.422371 0.000000
0.129468 0.422045 0.000000
0.161198 0.421705 0.000000
0.194283 0.421353 0.000000
0.228575 0.420990 0.000000
0.263922 0.420618 0.000000
0.300174 0.420240 0.000000
0.337181 0.419857 0.000000
0.374793 0.419471 0.000000
0.412859 0.419083 0.000000
0.451228 0.418695 0.000000
0.489750 0.418308 0.000000
0.528275 0.417925 0.000000
0.566651 0.417546 0.000000
0.604729 0.417173 0.000000
0.642357 0.416808 0.000000
0.679385 0.416451 0.000000
0.715662 0.416104 0.000000
0.751038 0.415769 0.000000
0.785360 0.415446 0.000000
0.818480 0.415136 0.000000
0.850245 0.414842 0.000000
0.880505 0.414563 0.000000
0.909109 0.414302 0.000000
0.935907 0.414058 0.000000
0.960746 0.413834 0.000000
0.983476 0.413630 0.000000
1.000000 0.413447 0.000000
0.000000 0.460691 0.000000
0.000000 0.460470 0.000000
0.019002 0.460227 0.000000
0.043809 0.459961 0.000000
0.070574 0.459677 0.000000
0.099146 0.459375 0.000000
0.129376 0.459057 0.000000
0.161112 0.458726 0.000000
0.194204 0.458382 0.000000
0.228503 0.458029 0.000000
0.263858 0.457667 0.000000
0.300118 0.457299 0.000000
0.337133 0.456925 0.000000
0.374752 0.456549 0.000000
0.412826 0.456171 0.000000
0.451203 0.455793 0.000000
0.489734 0.455417 0.000000
0.528266 0.455044 0.000000
0.566651 0.454676 0.000000
0.604737 0.454313 0.000000
0.642373 0.453958 0.000000
0.679409 0.453611 0.000000
0.715694 0.453274 0.000000
0.751077 0.452948 0.000000
0.785407 0.452634 0.000000
0.818533 0.452334 0.000000
0.850305 0.452048 0.000000
0.880572 0.451778 0.000000
0.909182 0.451524 0.000000
0.935985 0.451288 0.000000
0.960829 0.451070 0.000000
0.983565 0.450872 0.000000
1.000000 0.450694 0.000000
0.000000 0.497841 0.000000
0.000000 0.497627 0.000000
0.018913 0.497389 0.000000
0.043725 0.497131 0.000000
0.070496 0.496853 0.000000
0.099074 0.496559 0.000000
0.129310 0.496249 0.000000
0.161053 0.495927 0.000000
0.194152 0.495592 0.000000
0.228458 0.495248 0.000000
0.263820 0.494896 0.000000
0.300088 0.494537 0.000000
0.337111 0.494174 0.000000
0.374739 0.493808 0.000000
0.412821 0.493440 0.000000
0.451206 0.493073 0.000000
0.489745 0.492707 0.000000
0.528286 0.492344 0.000000
0.566678 0.491986 0.000000
0.604772 0.491634 0.000000
0.642417 0.491289 0.000000
0.679460 0.490952 0.000000
0.715753 0.490625 0.000000
0.751143 0.490308 0.000000
0.785481 0.490004 0.000000
0.818614 0.489712 0.000000
0.850393 0.489435 0.000000
0.880666 0.489173 0.000000
0.909282 0.488927 0.000000
0.936091 0.488698 0.000000
0.960941 0.488487 0.000000
0.983681 0.488295 0.000000
1.000000 0.488123 0.000000
0.000000 0.535027 0.000000
0.000000 0.534818 0.000000
0.018851 0.534587 0.000000
0.043669 0.534335 0.000000
0.070445 0.534065 0.000000
0.099030 0.533778 0.000000
0.129272 0.533477 0.000000
0.161021 0.533162 0.000000
0.194128 0.532837 0.000000
0.228441 0.532502 0.000000
0.263811 0.532159 0.000000
0.300086 0.531810 0.000000
0.337117 0.531457 0.000000
0.374753 0.531101 0.000000
0.412843 0.530744 0.000000
0.451237 0.530387 0.000000
0.489783 0.530032 0.000000
0.528333 0.529679 0.000000
0.566734 0.529332 0.000000
0.604835 0.528990 0.000000
0.642488 0.528654 0.000000
0.679539 0.528328 0.000000
0.715840 0.528010 0.000000
0.751238 0.527704 0.000000
0.785582 0.527408 0.000000
0.818723 0.527126 0.000000
0.850508 0.526857 0.000000
0.880788 0.526603 0.000000
0.909410 0.526365 0.000000
0.936225 0.526143 0.000000
0.961080 0.525938 0.000000
0.983825 0.525753 0.000000
1.000000 0.525586 0.000000
0.000000 0.572103 0.000000
0.000000 0.571899 0.000000
0.018817 0.571674 0.000000
0.043640 0.571429 0.000000
0.070422 0.571166 0.000000
0.099013 0.570887 0.000000
0.129261 0.570593 0.000000
0.161018 0.570288 0.000000
0.194131 0.569971 0.000000
0.228452 0.569645 0.000000
0.263829 0.569312 0.000000
0.300112 0.568973 0.000000
0.337151 0.568630 0.000000
0.374795 0.568284 0.000000
0.412893 0.567937 0.000000
0.451294 0.567590 0.000000
0.489849 0.567245 0.000000
0.528407 0.566903 0.000000
0.566816 0.566566 0.000000
0.604926 0.566234 0.000000
0.642586 0.565909 0.000000
0.679646 0.565592 0.000000
0.715953 0.565285 0.000000
0.751359 0.564987 0.000000
0.785711 0.564701 0.000000
0.818859 0.564428 0.000000
0.850651 0.564168 0.000000
0.880937 0.563922 0.000000
0.909565 0.563691 0.000000
0.936385 0.563476 0.000000
0.961246 0.563279 0.000000
0.983995 0.563099 0.000000
1.000000 0.562938 0.000000
0.000000 0.608921 0.000000
0.000000 0.608723 0.000000
0.018811 0.608504 0.000000
0.043639 0.608265 0.000000
0.070427 0.608010 0.000000
0.099023 0.607738 0.000000
0.129278 0.607453 0.000000
0.161041 0.607156 0.000000
0.194162 0.606848 0.000000
0.228489 0.606531 0.000000
0.263874 0.606208 0.000000
0.300165 0.605878 0.000000
0.337211 0.605545 0.000000
0.374863 0.605209 0.000000
0.412969 0.604872 0.000000
0.451379 0.604536 0.000000
0.489942 0.604201 0.000000
0.528507 0.603869 0.000000
0.566924 0.603542 0.000000
0.605043 0.603220 0.000000
0.642711 0.602906 0.000000
0.679778 0.602599 0.000000
0.716093 0.602301 0.000000
0.751506 0.602013 0.000000
0.785866 0.601736 0.000000
0.819020 0.601471 0.000000
0.850819 0.601219 0.000000
0.881111 0.600982 0.000000
0.909746 0.600759 0.000000
0.936572 0.600551 0.000000
0.961437 0.600360 0.000000
0.984192 0.600186 0.000000
1.000000 0.600031 0.000000
0.000000 0.645337 0.000000
0.000000 0.645144 0.000000
0.018831 0.644930 0.000000
0.043664 0.644699 0.000000
0.070457 0.644450 0.000000
0.099060 0.644186 0.000000
0.129321 0.643909 0.000000
0.161090 0.643620 0.000000
0.194218 0.643321 0.000000
0.228553 0.643013 0.000000
0.263945 0.642699 0.000000
0.300243 0.642379 0.000000
0.337297 0.642056 0.000000
0.374957 0.641730 0.000000
0.413071 0.641403 0.000000
0.451489 0.641076 0.000000
0.490060 0.640752 0.000000
0.528633 0.640430 0.000000
0.567058 0.640113 0.000000
0.605184 0.639802 0.000000
0.642860 0.639497 0.000000
0.679935 0.639200 0.000000
0.716258 0.638911 0.000000
0.751679 0.638633 0.000000
0.786045 0.638365 0.000000
0.819206 0.638109 0.000000
0.851012 0.637865 0.000000
0.881311 0.637635 0.000000
0.909951 0.637420 0.000000
0.936782 0.637220 0.000000
0.961653 0.637035 0.000000
0.984412 0.636867 0.000000
1.000000 0.636717 0.000000
0.000000 0.681202 0.000000
0.000000 0.681014 0.000000
0.018876 0.680807 0.000000
0.043715 0.680581 0.000000
0.070513 0.680339 0.000000
0.099121 0.680083 0.000000
0.129389 0.679814 0.000000
0.161165 0.679533 0.000000
0.194299 0.679242 0.000000
0.228641 0.678944 0.000000
0.264040 0.678639 0.000000
0.300346 0.678328 0.000000
0.337408 0.678014 0.000000
0.375075 0.677698 0.000000
0.413197 0.677381 0.000000
0.451622 0.677065 0.000000
0.490201 0.676750 0.000000
0.528783 0.676439 0.000000
0.567216 0.676131 0.000000
0.605350 0.675830 0.000000
0.643033 0.675535 0.000000
0.680116 0.675247 0.000000
0.716446 0.674968 0.000000
0.751874 0.674699 0.000000
0.786247 0.674440 0.000000
0.819415 0.674192 0.000000
0.851227 0.673957 0.000000
0.881532 0.673735 0.000000
0.910178 0.673527 0.000000
0.937015 0.673333 0.000000
0.961891 0.673156 0.000000
0.984655 0.672994 0.000000
1.000000 0.672849 0.000000
0.000000 0.716368 0.000000
0.000000 0.716186 0.000000
0.018945 0.715984 0.000000
0.043789 0.715765 0.000000
0.070593 0.715530 0.000000
0.099207 0.715281 0.000000
0.129480 0.715020 0.000000
0.161262 0.714747 0.000000
0.194403 0.714465 0.000000
0.228752 0.714175 0.000000
0.264159 0.713879 0.000000
0.300472 0.713577 0.000000
0.337541 0.713273 0.000000
0.375215 0.712966 0.000000
0.413345 0.712659 0.000000
0.451778 0.712352 0.000000
0.490365 0.712048 0.000000
0.528954 0.711746 0.000000
0.567395 0.711448 0.000000
0.605536 0.711156 0.000000
0.643227 0.710871 0.000000
0.680317 0.710593 0.000000
0.716655 0.710323 0.000000
0.752090 0.710062 0.000000
0.786470 0.709812 0.000000
0.819645 0.709573 0.000000
0.851463 0.709346 0.000000
0.881774 0.709132 0.000000
0.910426 0.708931 0.000000
0.937268 0.708744 0.000000
0.962149 0.708573 0.000000
0.984917 0.708417 0.000000
1.000000 0.708277 0.000000
0.000000 0.750689 0.000000
0.000000 0.750511 0.000000
0.019036 0.750316 0.000000
0.043884 0.750103 0.000000
0.070694 0.749874 0.000000
0.099313 0.749632 0.000000
0.129593 0.749378 0.000000
0.161381 0.749113 0.000000
0.194529 0.748839 0.000000
0.228884 0.748558 0.000000
0.264297 0.748270 0.000000
0.300618 0.747978 0.000000
0.337694 0.747683 0.000000
0.375376 0.747386 0.000000
0.413513 0.747088 0.000000
0.451954 0.746791 0.000000
0.490548 0.746495 0.000000
0.529145 0.746203 0.000000
0.567593 0.745915 0.000000
0.605742 0.745633 0.000000
0.643440 0.745356 0.000000
0.680537 0.745087 0.000000
0.716882 0.744827 0.000000
0.752324 0.744575 0.000000
0.786711 0.744333 0.000000
0.819892 0.744103 0.000000
0.851717 0.743883 0.000000
0.882033 0.743676 0.000000
0.910691 0.743483 0.000000
0.937538 0.743303 0.000000
0.962424 0.743137 0.000000
0.985197 0.742987 0.000000
1.000000 0.742852 0.000000
0.000000 0.784014 0.000000
0.000000 0.783842 0.000000
0.019147 0.783652 0.000000
0.044000 0.783445 0.000000
0.070814 0.783223 0.000000
0.099439 0.782988 0.000000
0.129724 0.782741 0.000000
0.161519 0.782483 0.000000
0.194672 0.782218 0.000000
0.229034 0.781944 0.000000
0.264454 0.781665 0.000000
0.300781 0.781382 0.000000
0.337865 0.781095 0.000000
0.375554 0.780807 0.000000
0.413698 0.780519 0.000000
0.452146 0.780231 0.000000
0.490748 0.779945 0.000000
0.529352 0.779662 0.000000
0.567807 0.779383 0.000000
0.605963 0.779110 0.000000
0.643669 0.778842 0.000000
0.680773 0.778582 0.000000
0.717125 0.778330 0.000000
0.752573 0.778087 0.000000
0.786967 0.777854 0.000000
0.820154 0.777631 0.000000
0.851985 0.777419 0.000000
0.882307 0.777220 0.000000
0.910970 0.777033 0.000000
0.937823 0.776859 0.000000
0.962713 0.776700 0.000000
0.985490 0.776555 0.000000
1.000000 0.776425 0.000000
0.000000 0.816196 0.000000
0.000000 0.816029 0.000000
0.019274 0.815843 0.000000
0.044131 0.815642 0.000000
0.070951 0.815426 0.000000
0.099581 0.815198 0.000000
0.129871 0.814958 0.000000
0.161672 0.814708 0.000000
0.194832 0.814450 0.000000
0.229200 0.814185 0.000000
0.264627 0.813914 0.000000
0.300960 0.813639 0.000000
0.338050 0.813361 0.000000
0.375746 0.813082 0.000000
0.413897 0.812802 0.000000
0.452353 0.812523 0.000000
0.490961 0.812246 0.000000
0.529572 0.811972 0.000000
0.568035 0.811702 0.000000
0.606198 0.811437 0.000000
0.643910 0.811179 0.000000
0.681021 0.810927 0.000000
0.717380 0.810684 0.000000
0.752834 0.810449 0.000000
0.787234 0.810223 0.000000
0.820428 0.810008 0.000000
0.852264 0.809804 0.000000
0.882592 0.809611 0.000000
0.911261 0.809431 0.000000
0.938118 0.809264 0.000000
0.963013 0.809110 0.000000
0.985794 0.808970 0.000000
1.000000 0.808845 0.000000
0.000000 0.847085 0.000000
0.000000 0.846922 0.000000
0.019415 0.846741 0.000000
0.044277 0.846546 0.000000
0.071101 0.846336 0.000000
0.099736 0.846114 0.000000
0.130032 0.845881 0.000000
0.161838 0.845638 0.000000
0.195004 0.845387 0.000000
0.229378 0.845130 0.000000
0.264811 0.844867 0.000000
0.301151 0.844600 0.000000
0.338247 0.844330 0.000000
0.375950 0.844059 0.000000
0.414108 0.843787 0.000000
0.452570 0.843517 0.000000
0.491185 0.843249 0.000000
0.529803 0.842983 0.000000
0.568272 0.842722 0.000000
0.606442 0.842466 0.000000
0.644161 0.842216 0.000000
0.681279 0.841972 0.000000
0.717643 0.841737 0.000000
0.753104 0.841510 0.000000
0.787510 0.841292 0.000000
0.820709 0.841084 0.000000
