waxal-templates/luts/waxal-nooy.cube
TITLE "Waxal Nooy"
# Original Waxal look — generated color math, no third-party data
LUT_3D_SIZE 9
0.106477 0.103099 0.103063
0.214646 0.103919 0.103864
0.318784 0.104721 0.104644
0.423206 0.105537 0.105433
0.532231 0.106402 0.106266
0.647867 0.107333 0.107160
0.764180 0.108284 0.108068
0.880517 0.109250 0.108986
0.996878 0.110231 0.109915
0.108788 0.211294 0.105740
0.217027 0.212157 0.106570
0.321232 0.213000 0.107378
0.425720 0.213857 0.108195
0.534816 0.214764 0.109058
0.650526 0.215741 0.109982
0.766914 0.216737 0.110921
0.883326 0.217749 0.111871
0.999762 0.218776 0.112831
0.111229 0.315567 0.108407
0.219536 0.316471 0.109266
0.323805 0.317353 0.110100
0.428358 0.318249 0.110944
0.537521 0.319198 0.111835
0.653303 0.320218 0.112789
0.769763 0.321259 0.113758
0.886246 0.322315 0.114738
1.000000 0.323386 0.115728
0.113886 0.420063 0.111166
0.222259 0.421008 0.112052
0.326593 0.421930 0.112913
0.431211 0.422866 0.113785
0.540442 0.423856 0.114703
0.656295 0.424920 0.115687
0.772827 0.426005 0.116686
0.889383 0.427105 0.117696
1.000000 0.428219 0.118716
0.116877 0.528950 0.114131
0.225321 0.529938 0.115046
0.329721 0.530900 0.115935
0.434407 0.531878 0.116835
0.543708 0.532910 0.117783
0.659636 0.534020 0.118797
0.776243 0.535151 0.119828
0.892874 0.536296 0.120869
1.000000 0.537457 0.121920
0.120307 0.644736 0.117385
0.228824 0.645769 0.118331
0.333296 0.646776 0.119250
0.438054 0.647797 0.120179
0.547429 0.648875 0.121158
0.663437 0.650033 0.122206
0.780123 0.651213 0.123270
0.896833 0.652407 0.124344
1.000000 0.653616 0.125428
0.124029 0.761662 0.120776
0.232621 0.762741 0.121753
0.337165 0.763791 0.122702
0.441995 0.764856 0.123661
0.551446 0.765980 0.124672
0.667533 0.767187 0.125753
0.784299 0.768416 0.126850
0.901090 0.769659 0.127957
1.000000 0.770917 0.129075
0.128016 0.878749 0.124278
0.236683 0.879874 0.125286
0.341299 0.880968 0.126265
0.446201 0.882077 0.127254
0.555727 0.883247 0.128296
0.671894 0.884503 0.129410
0.788741 0.885780 0.130541
0.905612 0.887073 0.131681
1.000000 0.888380 0.132832
0.132268 0.995998 0.127889
0.241010 0.997168 0.128929
0.345698 0.998307 0.129937
0.450672 0.999460 0.130957
0.560273 1.000000 0.132030
0.676520 1.000000 0.133177
0.793447 1.000000 0.134342
0.910399 1.000000 0.135516
1.000000 1.000000 0.136700
0.106697 0.103368 0.207737
0.214874 0.104193 0.208541
0.319018 0.104999 0.209323
0.423447 0.105819 0.210116
0.532479 0.106688 0.210952
0.648122 0.107623 0.211848
0.764443 0.108579 0.212760
0.880787 0.109550 0.213681
0.997156 0.110535 0.214613
0.109031 0.211577 0.210424
0.217278 0.212444 0.211257
0.321489 0.213291 0.212067
0.425984 0.214152 0.212888
0.535087 0.215064 0.213753
0.650805 0.216045 0.214680
0.767200 0.217047 0.215623
0.883619 0.218063 0.216575
1.000000 0.219094 0.217538
0.111495 0.315863 0.213100
0.219808 0.316772 0.213961
0.324084 0.317658 0.214798
0.428644 0.318559 0.215646
0.537814 0.319512 0.216539
0.653604 0.320536 0.217496
0.770071 0.321582 0.218469
0.886562 0.322642 0.219451
1.000000 0.323717 0.220444
0.114174 0.420374 0.215868
0.222554 0.421323 0.216757
0.326895 0.422249 0.217621
0.431520 0.423189 0.218495
0.540757 0.424183 0.219417
0.656618 0.425252 0.220404
0.773157 0.426341 0.221406
0.889721 0.427445 0.222419
1.000000 0.428564 0.223442
0.117188 0.529274 0.218843
0.225638 0.530266 0.219761
0.330046 0.531233 0.220653
0.434738 0.532214 0.221555
0.544046 0.533252 0.222506
0.659982 0.534366 0.223524
0.776596 0.535501 0.224557
0.893234 0.536651 0.225601
1.000000 0.537816 0.226655
0.120642 0.645076 0.222107
0.229167 0.646113 0.223056
0.333645 0.647123 0.223977
0.438409 0.648148 0.224909
0.547792 0.649231 0.225891
0.663807 0.650394 0.226942
0.780500 0.651578 0.228009
0.897218 0.652776 0.229086
1.000000 0.653990 0.230173
0.124389 0.762016 0.225508
0.232988 0.763099 0.226488
0.337539 0.764154 0.227440
0.442375 0.765223 0.228402
0.551833 0.766351 0.229415
0.667928 0.767563 0.230499
0.784702 0.768796 0.231600
0.901500 0.770044 0.232710
1.000000 0.771306 0.233831
0.128401 0.879119 0.229020
0.237075 0.880247 0.230031
0.341698 0.881346 0.231013
0.446606 0.882459 0.232005
0.556139 0.883634 0.233049
0.672314 0.884894 0.234167
0.789168 0.886176 0.235301
0.906047 0.887473 0.236445
1.000000 0.888784 0.237599
0.132677 0.996383 0.232642
0.241426 0.997557 0.233684
0.346121 0.998699 0.234696
0.451101 0.999857 0.235718
0.560710 1.000000 0.236794
0.676964 1.000000 0.237945
0.793899 1.000000 0.239112
0.910858 1.000000 0.240289
1.000000 1.000000 0.241477
0.106912 0.103628 0.308489
0.215095 0.104457 0.309296
0.319246 0.105267 0.310081
0.423681 0.106091 0.310877
0.532720 0.106964 0.311715
0.648371 0.107904 0.312615
0.764698 0.108864 0.313529
0.881050 0.109839 0.314454
0.997426 0.110829 0.315388
0.109268 0.211851 0.311186
0.217521 0.212722 0.312022
0.321739 0.213573 0.312834
0.426241 0.214438 0.313658
0.535350 0.215354 0.314526
0.651075 0.216340 0.315456
0.767477 0.217345 0.316401
0.883904 0.218366 0.317357
1.000000 0.219402 0.318323
0.111753 0.316150 0.313871
0.220073 0.317063 0.314735
0.324355 0.317953 0.315575
0.428922 0.318858 0.316425
0.538099 0.319815 0.317321
0.653895 0.320844 0.318281
0.770369 0.321894 0.319256
0.886868 0.322958 0.320242
1.000000 0.324038 0.321238
0.114453 0.420673 0.316648
0.222840 0.421627 0.317539
0.327187 0.422557 0.318406
0.431818 0.423501 0.319283
0.541063 0.424499 0.320207
0.656931 0.425572 0.321197
0.773477 0.426666 0.322203
0.890048 0.427775 0.323218
1.000000 0.428898 0.324244
0.117489 0.529588 0.319631
0.225947 0.530584 0.320552
0.330361 0.531555 0.321447
0.435059 0.532540 0.322352
0.544374 0.533581 0.323305
0.660317 0.534700 0.324326
0.776938 0.535839 0.325363
0.893584 0.536994 0.326410
1.000000 0.538163 0.327467
0.120967 0.645404 0.322905
0.229498 0.646445 0.323857
0.333984 0.647459 0.324781
0.438754 0.648488 0.325716
0.548143 0.649575 0.326701
0.664165 0.650742 0.327755
0.780866 0.651930 0.328825
0.897591 0.653134 0.329905
1.000000 0.654352 0.330995
0.124738 0.762359 0.326317
0.233344 0.763446 0.327299
0.337901 0.764504 0.328254
0.442743 0.765577 0.329219
0.552208 0.766710 0.330235
0.668310 0.767926 0.331322
0.785091 0.769163 0.332425
0.901897 0.770415 0.333539
1.000000 0.771682 0.334662
0.128773 0.879476 0.329838
0.237454 0.880608 0.330852
0.342083 0.881710 0.331837
0.446998 0.882828 0.332831
0.556538 0.884007 0.333879
0.672720 0.885271 0.334999
0.789581 0.886557 0.336136
0.906467 0.887859 0.337283
1.000000 0.889175 0.338440
0.133074 0.996754 0.333470
0.241829 0.997933 0.334515
0.346530 0.999079 0.335530
0.451517 1.000000 0.336555
0.561133 1.000000 0.337633
0.677394 1.000000 0.338787
0.794336 1.000000 0.339957
0.911302 1.000000 0.341137
1.000000 1.000000 0.342328
0.107129 0.103890 0.409253
0.215319 0.104723 0.410063
0.319476 0.105537 0.410850
0.423917 0.106365 0.411648
0.532963 0.107242 0.412490
0.648621 0.108186 0.413392
0.764955 0.109151 0.414309
0.881314 0.110130 0.415237
0.997698 0.111125 0.416175
0.109507 0.212126 0.411958
0.217767 0.213002 0.412797
0.321991 0.213857 0.413612
0.426499 0.214726 0.414438
0.535615 0.215646 0.415309
0.651347 0.216635 0.416242
0.767757 0.217646 0.417191
0.884190 0.218671 0.418150
1.000000 0.219711 0.419118
0.112013 0.316439 0.414652
0.220340 0.317355 0.415519
0.324628 0.318249 0.416362
0.429202 0.319158 0.417214
0.538385 0.320119 0.418113
0.654189 0.321153 0.419076
0.770670 0.322207 0.420055
0.887176 0.323276 0.421043
1.000000 0.324360 0.422042
0.114734 0.420975 0.417438
0.223128 0.421932 0.418332
0.327482 0.422866 0.419202
0.432119 0.423814 0.420081
0.541371 0.424816 0.421009
0.657246 0.425894 0.422001
0.773799 0.426992 0.423010
0.890377 0.428105 0.424029
1.000000 0.429233 0.425057
0.117793 0.529903 0.420431
0.226257 0.530903 0.421354
0.330677 0.531877 0.422252
0.435383 0.532867 0.423160
0.544704 0.533912 0.424116
0.660654 0.535035 0.425140
0.777282 0.536179 0.426180
0.893935 0.537338 0.427229
1.000000 0.538512 0.428289
0.121294 0.645733 0.423715
0.229832 0.646778 0.424669
0.334324 0.647797 0.425596
0.439101 0.648830 0.426534
0.548497 0.649921 0.427521
0.664526 0.651092 0.428578
0.781234 0.652285 0.429651
0.897966 0.653492 0.430734
1.000000 0.654715 0.431827
0.125088 0.762702 0.427136
0.233701 0.763793 0.428121
0.338265 0.764856 0.429078
0.443114 0.765933 0.430046
0.552585 0.767070 0.431065
0.668694 0.768290 0.432155
0.785483 0.769532 0.433261
0.902295 0.770788 0.434378
1.000000 0.772060 0.435504
0.129148 0.879834 0.430667
0.237835 0.880971 0.431684
0.342471 0.882077 0.432671
0.447392 0.883198 0.433669
0.556939 0.884381 0.434719
0.673128 0.885650 0.435842
0.789996 0.886941 0.436982
0.906889 0.888246 0.438132
1.000000 0.889567 0.439292
0.133472 0.997127 0.434309
0.242234 0.998309 0.435357
0.346942 0.999460 0.436374
0.451935 1.000000 0.437402
0.561557 1.000000 0.438483
0.677826 1.000000 0.439640
0.794775 1.000000 0.440813
0.911748 1.000000 0.441996
1.000000 1.000000 0.443190
0.107356 0.104163 0.513959
0.215553 0.105001 0.514772
0.319717 0.105819 0.515562
0.424165 0.106651 0.516363
0.533218 0.107532 0.517208
0.648883 0.108481 0.518113
0.765225 0.109450 0.519033
0.881592 0.110434 0.519964
0.997982 0.111433 0.520905
0.109757 0.212414 0.516674
0.218024 0.213293 0.517516
0.322255 0.214152 0.518334
0.426770 0.215025 0.519163
0.535893 0.215950 0.520036
0.651633 0.216944 0.520973
0.768049 0.217959 0.521924
0.884491 0.218989 0.522886
1.000000 0.220033 0.523858
0.112285 0.316740 0.519378
0.220619 0.317660 0.520247
0.324915 0.318559 0.521092
0.429495 0.319471 0.521948
0.538685 0.320437 0.522850
0.654496 0.321475 0.523816
0.770985 0.322534 0.524797
0.887498 0.323607 0.525789
1.000000 0.324696 0.526791
0.115029 0.421289 0.522172
0.223430 0.422251 0.523070
0.327790 0.423189 0.523942
0.432435 0.424141 0.524824
0.541693 0.425148 0.525754
0.657575 0.426229 0.526750
0.774136 0.427332 0.527762
0.890722 0.428450 0.528784
1.000000 0.429583 0.529816
0.118111 0.530231 0.525175
0.226582 0.531236 0.526101
0.331009 0.532214 0.527001
0.435721 0.533208 0.527912
0.545049 0.534257 0.528871
0.661006 0.535385 0.529898
0.777642 0.536533 0.530941
0.894303 0.537697 0.531994
1.000000 0.538875 0.533057
0.121636 0.646076 0.528469
0.230181 0.647126 0.529426
0.334680 0.648148 0.530356
0.439463 0.649185 0.531296
0.548866 0.650281 0.532287
0.664903 0.651457 0.533347
0.781618 0.652654 0.534423
0.898358 0.653866 0.535509
1.000000 0.655093 0.536605
0.125455 0.763061 0.531900
0.234075 0.764156 0.532889
0.338646 0.765223 0.533849
0.443501 0.766304 0.534819
0.552980 0.767445 0.535841
0.669096 0.768670 0.536934
0.785892 0.769916 0.538043
0.902712 0.771177 0.539163
1.000000 0.772453 0.540293
0.129539 0.880207 0.535442
0.238234 0.881348 0.536462
0.342876 0.882459 0.537451
0.447804 0.883584 0.538452
0.557358 0.884771 0.539505
0.673554 0.886045 0.540631
0.790430 0.887340 0.541774
0.907331 0.888650 0.542927
1.000000 0.889975 0.544090
0.133888 0.997516 0.539094
0.242657 0.998702 0.540145
0.347372 0.999857 0.541165
0.452372 1.000000 0.542195
0.562001 1.000000 0.543279
0.678277 1.000000 0.544439
0.795233 1.000000 0.545615
0.912214 1.000000 0.546802
1.000000 1.000000 0.547999
0.107600 0.104456 0.625201
0.215805 0.105297 0.626017
0.319976 0.106120 0.626810
0.424431 0.106956 0.627614
0.533491 0.107842 0.628462
0.649164 0.108796 0.629370
0.765514 0.109770 0.630294
0.881889 0.110758 0.631228
0.998287 0.111762 0.632172
0.110026 0.212721 0.627926
0.218300 0.213605 0.628771
0.322538 0.214468 0.629592
0.427060 0.215346 0.630424
0.536191 0.216274 0.631301
0.651938 0.217274 0.632240
0.768363 0.218293 0.633195
0.884812 0.219328 0.634160
1.000000 0.220377 0.635136
0.112577 0.317061 0.630639
0.220919 0.317986 0.631512
0.325221 0.318889 0.632360
0.429808 0.319806 0.633219
0.539006 0.320776 0.634124
0.654825 0.321819 0.635093
0.771322 0.322882 0.636078
0.887843 0.323961 0.637073
1.000000 0.325054 0.638078
0.115345 0.421625 0.633444
0.223753 0.422591 0.634344
0.328120 0.423533 0.635220
0.432772 0.424490 0.636105
0.542037 0.425501 0.637038
0.657928 0.426588 0.638037
0.774497 0.427695 0.639052
0.891090 0.428818 0.640077
1.000000 0.429955 0.641113
0.118451 0.530582 0.636457
0.226929 0.531591 0.637386
0.331363 0.532574 0.638289
0.436082 0.533571 0.639203
0.545418 0.534626 0.640165
0.661384 0.535758 0.641196
0.778027 0.536912 0.642242
0.894696 0.538080 0.643298
1.000000 0.539263 0.644364
0.122002 0.646443 0.639761
0.230555 0.647497 0.640722
0.335060 0.648524 0.641655
0.439851 0.649565 0.642598
0.549262 0.650665 0.643591
0.665306 0.651846 0.644655
0.782030 0.653048 0.645734
0.898777 0.654265 0.646823
1.000000 0.655497 0.647923
0.125848 0.763443 0.643204
0.234475 0.764543 0.644195
0.339052 0.765614 0.645158
0.443915 0.766699 0.646132
0.553401 0.767845 0.647156
0.669525 0.769075 0.648253
0.786329 0.770326 0.649366
0.903157 0.771592 0.650489
1.000000 0.772873 0.651622
0.129958 0.880606 0.646757
0.238660 0.881751 0.647779
0.343309 0.882866 0.648772
0.448244 0.883996 0.649775
0.557805 0.885188 0.650832
0.674010 0.886466 0.651961
0.790894 0.887766 0.653107
0.907802 0.889081 0.654264
1.000000 0.890411 0.655430
0.134333 0.997930 0.650420
0.243110 0.999121 0.651473
0.347831 1.000000 0.652496
0.452838 1.000000 0.653529
0.562475 1.000000 0.654617
0.678759 1.000000 0.655780
0.795723 1.000000 0.656960
0.912712 1.000000 0.658149
1.000000 1.000000 0.659349
0.107849 0.104752 0.737565
0.216062 0.105598 0.738384
0.320240 0.106425 0.739180
0.424702 0.107266 0.739987
0.533770 0.108156 0.740838
0.649451 0.109115 0.741750
0.765809 0.110094 0.742677
0.882191 0.111088 0.743614
0.998598 0.112096 0.744561
0.110300 0.213032 0.740300
0.218581 0.213921 0.741148
0.322827 0.214789 0.741972
0.427356 0.215671 0.742807
0.536494 0.216604 0.743687
0.652250 0.217608 0.744630
0.768682 0.218633 0.745588
0.885140 0.219672 0.746557
1.000000 0.220726 0.747535
0.112875 0.317387 0.743023
0.221224 0.318317 0.743899
0.325534 0.319224 0.744750
0.430128 0.320145 0.745612
0.539333 0.321120 0.746520
0.655160 0.322168 0.747493
0.771665 0.323236 0.748481
0.888194 0.324320 0.749479
1.000000 0.325418 0.750488
0.115666 0.421966 0.745838
0.224082 0.422936 0.746741
0.328456 0.423883 0.747619
0.433115 0.424844 0.748508
0.542388 0.425860 0.749444
0.658287 0.426951 0.750447
0.774864 0.428064 0.751465
0.891465 0.429191 0.752493
1.000000 0.430334 0.753532
0.118797 0.530938 0.748861
0.227283 0.531951 0.749793
0.331724 0.532938 0.750700
0.436450 0.533941 0.751616
0.545794 0.534999 0.752582
0.661767 0.536137 0.753615
0.778419 0.537295 0.754665
0.895095 0.538468 0.755724
1.000000 0.539656 0.756794
0.122375 0.646815 0.752176
0.230935 0.647873 0.753140
0.335447 0.648904 0.754076
0.440245 0.649950 0.755022
0.549663 0.651055 0.756019
0.665716 0.652240 0.757085
0.782447 0.653447 0.758168
0.899203 0.654669 0.759261
1.000000 0.655906 0.760364
0.126246 0.763831 0.755630
0.234881 0.764936 0.756625
0.339466 0.766011 0.757590
0.444336 0.767101 0.758567
0.553829 0.768251 0.759595
0.669962 0.769486 0.760694
0.786773 0.770742 0.761811
0.903610 0.772013 0.762937
1.000000 0.773298 0.764073
0.130383 0.881010 0.759194
0.239092 0.882160 0.760219
0.343749 0.883279 0.761215
0.448691 0.884413 0.762222
0.558260 0.885610 0.763281
0.674472 0.886893 0.764414
0.791364 0.888198 0.765563
0.908281 0.889518 0.766723
1.000000 0.890853 0.767893
0.134785 0.998350 0.762868
0.243569 0.999546 0.763925
0.348297 1.000000 0.764950
0.453312 1.000000 0.765987
0.562956 1.000000 0.767077
0.679248 1.000000 0.768244
0.796220 1.000000 0.769427
0.913217 1.000000 0.770620
1.000000 1.000000 0.771823
0.108101 0.105050 0.849930
0.216321 0.105901 0.850752
0.320506 0.106732 0.851551
0.424976 0.107577 0.852361
0.534051 0.108473 0.853215
0.649740 0.109436 0.854130
0.766106 0.110420 0.855060
0.882497 0.111418 0.856001
0.998911 0.112432 0.856952
0.110576 0.213346 0.852675
0.218866 0.214239 0.853526
0.323118 0.215111 0.854354
0.427655 0.215997 0.855191
0.536800 0.216935 0.856074
0.652564 0.217944 0.857021
0.769004 0.218974 0.857982
0.885470 0.220018 0.858954
1.000000 0.221077 0.859936
0.113175 0.317715 0.855408
0.221532 0.318649 0.856287
0.325849 0.319561 0.857141
0.430450 0.320486 0.858006
0.539663 0.321466 0.858917
0.655498 0.322518 0.859893
0.772011 0.323592 0.860885
0.888548 0.324680 0.861887
1.000000 0.325783 0.862898
0.115990 0.422308 0.858233
0.224413 0.423283 0.859139
0.328795 0.424234 0.860020
0.433461 0.425199 0.860912
0.542742 0.426220 0.861851
0.658648 0.427316 0.862857
0.775233 0.428434 0.863879
0.891843 0.429566 0.864911
1.000000 0.430713 0.865952
0.119146 0.531295 0.861266
0.227639 0.532313 0.862202
0.332088 0.533305 0.863111
0.436821 0.534311 0.864030
0.546172 0.535375 0.864999
0.662153 0.536517 0.866036
0.778813 0.537680 0.867089
0.895497 0.538858 0.868152
1.000000 0.540051 0.869225
0.122750 0.647188 0.864592
0.231317 0.648251 0.865559
0.335837 0.649287 0.866498
0.440642 0.650337 0.867447
0.550068 0.651446 0.868447
0.666128 0.652636 0.869517
0.782868 0.653848 0.870603
0.899632 0.655075 0.871699
1.000000 0.656317 0.872805
0.126648 0.764221 0.868057
0.235290 0.765330 0.869055
0.339882 0.766409 0.870024
0.444759 0.767504 0.871003
0.554260 0.768659 0.872034
0.670400 0.769898 0.873137
0.787220 0.771159 0.874257
0.904065 0.772435 0.875386
1.000000 0.773726 0.876526
0.130811 0.881416 0.871632
0.239528 0.882570 0.872661
0.344192 0.883694 0.873659
0.449141 0.884832 0.874669
0.558718 0.886033 0.875731
0.674938 0.887321 0.876868
0.791838 0.888631 0.878020
0.908762 0.889956 0.879184
1.000000 0.891296 0.880357
0.135239 0.998772 0.875317
0.244031 0.999973 0.876377
0.348767 1.000000 0.877406
0.453788 1.000000 0.878445
0.563440 1.000000 0.879539
0.679740 1.000000 0.880708
0.796720 1.000000 0.881895
0.913725 1.000000 0.883091
1.000000 1.000000 0.884298
0.108356 0.105350 0.962296
0.216583 0.106205 0.963121
0.320776 0.107041 0.963923
0.425252 0.107891 0.964736
0.534335 0.108790 0.965593
0.650032 0.109759 0.966511
0.766406 0.110747 0.967445
0.882805 0.111751 0.968389
0.999227 0.112769 0.969343
0.110855 0.213660 0.965052
0.219152 0.214558 0.965906
0.323412 0.215435 0.966736
0.427956 0.216325 0.967577
0.537109 0.217268 0.968463
0.652880 0.218282 0.969412
0.769329 0.219316 0.970377
0.885802 0.220365 0.971352
1.000000 0.221430 0.972338
0.113478 0.318044 0.967794
0.221842 0.318983 0.968676
0.326166 0.319899 0.969534
0.430775 0.320829 0.970401
0.539995 0.321813 0.971315
0.655838 0.322870 0.972295
0.772359 0.323949 0.973290
0.888904 0.325042 0.974295
1.000000 0.326150 0.975310
0.116317 0.422652 0.970629
0.224748 0.423631 0.971538
0.329136 0.424587 0.972422
0.433810 0.425557 0.973317
0.543098 0.426582 0.974259
0.659012 0.427683 0.975269
0.775605 0.428805 0.976294
0.892223 0.429943 0.977329
1.000000 0.431095 0.978374
0.119497 0.531654 0.973672
0.227998 0.532676 0.974611
0.332454 0.533673 0.975523
0.437194 0.534684 0.976446
0.546553 0.535752 0.977418
0.662542 0.536899 0.978458
0.779210 0.538067 0.979514
0.895902 0.539250 0.980580
1.000000 0.540448 0.981657
0.123127 0.647563 0.977010
0.231702 0.648631 0.977980
0.336229 0.649671 0.978921
0.441042 0.650725 0.979874
0.550475 0.651839 0.980876
0.666543 0.653034 0.981950
0.783291 0.654251 0.983039
0.900063 0.655483 0.984139
1.000000 0.656729 0.985248
0.127052 0.764612 0.980485
0.235702 0.765726 0.981486
0.340301 0.766810 0.982458
0.445185 0.767908 0.983440
0.554694 0.769068 0.984474
0.670842 0.770312 0.985581
0.787670 0.771578 0.986704
0.904522 0.772859 0.987837
1.000000 0.774154 0.988980
0.131242 0.881823 0.984071
0.239966 0.882982 0.985103
0.344637 0.884110 0.986105
0.449594 0.885253 0.987117
0.559178 0.886459 0.988183
0.675406 0.887751 0.989322
0.792314 0.889066 0.990479
0.909246 0.890396 0.991645
1.000000 0.891741 0.992821
0.135696 0.999196 0.987767
0.244495 1.000000 0.988830
0.349238 1.000000 0.989862
0.454267 1.000000 0.990904
0.563926 1.000000 0.992001
0.680234 1.000000 0.993174
0.797223 1.000000 0.994364
0.914236 1.000000 0.995564
1.000000 1.000000 0.996774
