waxal-templates/luts/waxal-nooy.cube
TITLE "Waxal Nooy"
# Original Waxal look — generated color math, no third-party data
LUT_3D_SIZE 33
0.106477 0.103099 0.103063
0.134133 0.103307 0.103267
0.161335 0.103513 0.103468
0.188151 0.103717 0.103667
0.214646 0.103919 0.103864
0.240890 0.104120 0.104060
0.266950 0.104320 0.104255
0.292892 0.104521 0.104449
0.318784 0.104721 0.104644
0.344694 0.104922 0.104839
0.370689 0.105125 0.105035
0.396837 0.105330 0.105233
0.423206 0.105537 0.105433
0.449861 0.105747 0.105636
0.476873 0.105961 0.105842
0.504307 0.106179 0.106052
0.532231 0.106402 0.106266
0.560713 0.106630 0.106485
0.589720 0.106863 0.106709
0.618793 0.107097 0.106934
0.647867 0.107333 0.107160
0.676943 0.107569 0.107386
0.706020 0.107806 0.107612
0.735099 0.108045 0.107840
0.764180 0.108284 0.108068
0.793262 0.108524 0.108296
0.822345 0.108765 0.108526
0.851430 0.109007 0.108756
0.880517 0.109250 0.108986
0.909605 0.109494 0.109217
0.938694 0.109738 0.109449
0.967785 0.109984 0.109682
0.996878 0.110231 0.109915
0.107045 0.130741 0.103738
0.134706 0.130952 0.103944
0.161913 0.131161 0.104147
0.188733 0.131368 0.104348
0.215233 0.131572 0.104547
0.241481 0.131776 0.104744
0.267545 0.131979 0.104941
0.293491 0.132182 0.105137
0.319388 0.132385 0.105333
0.345302 0.132589 0.105530
0.371302 0.132794 0.105728
0.397454 0.133001 0.105928
0.423827 0.133211 0.106130
0.450487 0.133424 0.106335
0.477502 0.133641 0.106543
0.504941 0.133861 0.106755
0.532870 0.134087 0.106971
0.561357 0.134318 0.107192
0.590368 0.134554 0.107418
0.619446 0.134791 0.107644
0.648525 0.135029 0.107872
0.677605 0.135269 0.108100
0.706688 0.135509 0.108329
0.735771 0.135750 0.108558
0.764857 0.135992 0.108788
0.793943 0.136235 0.109019
0.823032 0.136479 0.109250
0.852121 0.136724 0.109482
0.881213 0.136970 0.109715
0.910306 0.137217 0.109948
0.939400 0.137465 0.110182
0.968496 0.137713 0.110416
0.997593 0.137963 0.110651
0.107620 0.157945 0.104408
0.135285 0.158159 0.104616
0.162496 0.158370 0.104821
0.189320 0.158579 0.105024
0.215825 0.158787 0.105224
0.242077 0.158993 0.105424
0.268145 0.159199 0.105622
0.294096 0.159404 0.105820
0.319996 0.159609 0.106018
0.345915 0.159816 0.106217
0.371919 0.160024 0.106417
0.398075 0.160234 0.106618
0.424452 0.160446 0.106822
0.451117 0.160662 0.107028
0.478137 0.160881 0.107238
0.505580 0.161104 0.107452
0.533513 0.161333 0.107670
0.562005 0.161566 0.107893
0.591021 0.161805 0.108120
0.620103 0.162045 0.108349
0.649187 0.162287 0.108579
0.678272 0.162529 0.108809
0.707359 0.162772 0.109040
0.736447 0.163016 0.109271
0.765537 0.163261 0.109503
0.794629 0.163507 0.109735
0.823722 0.163754 0.109969
0.852816 0.164002 0.110203
0.881912 0.164250 0.110437
0.911010 0.164500 0.110672
0.940109 0.164750 0.110908
0.969210 0.165002 0.111144
0.998312 0.165254 0.111381
0.108200 0.184774 0.105075
0.135870 0.184991 0.105285
0.163085 0.185205 0.105492
0.189914 0.185417 0.105696
0.216423 0.185627 0.105898
0.242679 0.185836 0.106099
0.268751 0.186044 0.106300
0.294706 0.186251 0.106499
0.320611 0.186460 0.106699
0.346533 0.186669 0.106900
0.372541 0.186879 0.107101
0.398702 0.187092 0.107304
0.425083 0.187307 0.107510
0.451752 0.187525 0.107718
0.478776 0.187746 0.107930
0.506224 0.187973 0.108145
0.534161 0.188203 0.108365
0.562658 0.188440 0.108590
0.591678 0.188682 0.108819
0.620765 0.188925 0.109050
0.649854 0.189169 0.109282
0.678944 0.189414 0.109514
0.708035 0.189660 0.109746
0.737128 0.189907 0.109980
0.766223 0.190155 0.110213
0.795319 0.190403 0.110448
0.824416 0.190653 0.110683
0.853516 0.190904 0.110919
0.882616 0.191155 0.111155
0.911718 0.191408 0.111392
0.940822 0.191661 0.111630
0.969927 0.191915 0.111868
0.999034 0.192171 0.112107
0.108788 0.211294 0.105740
0.136462 0.211513 0.105952
0.163682 0.211730 0.106160
0.190514 0.211944 0.106366
0.217027 0.212157 0.106570
0.243288 0.212368 0.106773
0.269364 0.212579 0.106975
0.295323 0.212789 0.107176
0.321232 0.213000 0.107378
0.347158 0.213211 0.107580
0.373170 0.213424 0.107783
0.399335 0.213639 0.107988
0.425720 0.213857 0.108195
0.452394 0.214077 0.108405
0.479422 0.214302 0.108619
0.506874 0.214530 0.108836
0.534816 0.214764 0.109058
0.563317 0.215003 0.109284
0.592342 0.215248 0.109516
0.621433 0.215494 0.109749
0.650526 0.215741 0.109982
0.679621 0.215988 0.110216
0.708717 0.216237 0.110450
0.737815 0.216487 0.110686
0.766914 0.216737 0.110921
0.796014 0.216989 0.111158
0.825117 0.217242 0.111395
0.854220 0.217495 0.111633
0.883326 0.217749 0.111871
0.912432 0.218005 0.112110
0.941541 0.218261 0.112350
0.970650 0.218518 0.112590
0.999762 0.218776 0.112831
0.109383 0.237568 0.106404
0.137062 0.237790 0.106617
0.164285 0.238009 0.106828
0.191122 0.238226 0.107036
0.217639 0.238441 0.107241
0.243904 0.238655 0.107446
0.269984 0.238868 0.107649
0.295947 0.239081 0.107852
0.321860 0.239294 0.108056
0.347791 0.239508 0.108259
0.373807 0.239724 0.108464
0.399976 0.239941 0.108671
0.426365 0.240161 0.108880
0.453043 0.240384 0.109092
0.480075 0.240611 0.109307
0.507531 0.240843 0.109526
0.535478 0.241079 0.109750
0.563983 0.241321 0.109978
0.593013 0.241568 0.110211
0.622109 0.241817 0.110446
0.651206 0.242067 0.110681
0.680305 0.242317 0.110917
0.709406 0.242569 0.111153
0.738508 0.242821 0.111390
0.767612 0.243075 0.111628
0.796717 0.243329 0.111866
0.825824 0.243584 0.112105
0.854932 0.243840 0.112345
0.884042 0.244097 0.112585
0.913153 0.244355 0.112826
0.942266 0.244614 0.113068
0.971380 0.244874 0.113310
1.000000 0.245135 0.113553
0.109987 0.263662 0.107069
0.137670 0.263887 0.107284
0.164899 0.264108 0.107496
0.191739 0.264328 0.107706
0.218261 0.264546 0.107913
0.244530 0.264762 0.108119
0.270614 0.264977 0.108325
0.296581 0.265193 0.108529
0.322498 0.265408 0.108734
0.348432 0.265625 0.108940
0.374453 0.265843 0.109146
0.400626 0.266062 0.109355
0.427019 0.266285 0.109565
0.453700 0.266511 0.109779
0.480737 0.266740 0.109996
0.508197 0.266974 0.110217
0.536148 0.267213 0.110442
0.564658 0.267458 0.110672
0.593692 0.267708 0.110907
0.622793 0.267959 0.111144
0.651895 0.268212 0.111381
0.680998 0.268465 0.111619
0.710103 0.268719 0.111857
0.739210 0.268975 0.112096
0.768318 0.269231 0.112335
0.797428 0.269488 0.112576
0.826539 0.269746 0.112817
0.855652 0.270005 0.113058
0.884766 0.270264 0.113300
0.913882 0.270525 0.113543
0.942999 0.270787 0.113786
0.972118 0.271050 0.114030
1.000000 0.271313 0.114275
0.110602 0.289640 0.107736
0.138289 0.289867 0.107953
0.165522 0.290092 0.108167
0.192367 0.290314 0.108378
0.218892 0.290534 0.108587
0.245165 0.290752 0.108795
0.271253 0.290970 0.109002
0.297224 0.291188 0.109209
0.323145 0.291406 0.109415
0.349084 0.291625 0.109622
0.375108 0.291845 0.109831
0.401285 0.292068 0.110041
0.427683 0.292293 0.110253
0.454368 0.292521 0.110468
0.481409 0.292753 0.110687
0.508874 0.292990 0.110909
0.536829 0.293231 0.111136
0.565343 0.293478 0.111369
0.594381 0.293731 0.111606
0.623486 0.293985 0.111844
0.652593 0.294241 0.112083
0.681701 0.294497 0.112322
0.710811 0.294754 0.112563
0.739922 0.295012 0.112803
0.769035 0.295271 0.113045
0.798149 0.295530 0.113287
0.827265 0.295791 0.113530
0.856382 0.296053 0.113773
0.885501 0.296315 0.114017
0.914621 0.296579 0.114262
0.943743 0.296843 0.114507
0.972866 0.297109 0.114753
1.000000 0.297375 0.114999
0.111229 0.315567 0.108407
0.138920 0.315797 0.108626
0.166157 0.316024 0.108842
0.193006 0.316248 0.109055
0.219536 0.316471 0.109266
0.245813 0.316692 0.109475
0.271905 0.316912 0.109684
0.297880 0.317133 0.109892
0.323805 0.317353 0.110100
0.349747 0.317574 0.110309
0.375776 0.317797 0.110519
0.401957 0.318022 0.110730
0.428358 0.318249 0.110944
0.455048 0.318480 0.111161
0.482093 0.318715 0.111382
0.509562 0.318954 0.111606
0.537521 0.319198 0.111835
0.566039 0.319448 0.112069
0.595082 0.319704 0.112308
0.624192 0.319961 0.112548
0.653303 0.320218 0.112789
0.682416 0.320477 0.113030
0.711530 0.320737 0.113272
0.740645 0.320998 0.113515
0.769763 0.321259 0.113758
0.798881 0.321522 0.114002
0.828001 0.321785 0.114247
0.857123 0.322050 0.114492
0.886246 0.322315 0.114738
0.915371 0.322581 0.114984
0.944497 0.322848 0.115231
0.973625 0.323117 0.115479
1.000000 0.323386 0.115728
0.111869 0.341507 0.109084
0.139565 0.341740 0.109305
0.166805 0.341970 0.109522
0.193659 0.342197 0.109737
0.220192 0.342422 0.109949
0.246473 0.342645 0.110161
0.272569 0.342868 0.110371
0.298548 0.343091 0.110580
0.324477 0.343314 0.110790
0.350424 0.343538 0.111001
0.376456 0.343763 0.111212
0.402641 0.343990 0.111426
0.429047 0.344220 0.111642
0.455741 0.344453 0.111860
0.482790 0.344690 0.112082
0.510263 0.344932 0.112308
0.538227 0.345179 0.112539
0.566749 0.345432 0.112775
0.595797 0.345690 0.113016
0.624911 0.345949 0.113258
0.654026 0.346210 0.113500
0.683143 0.346472 0.113744
0.712262 0.346734 0.113988
0.741382 0.346998 0.114232
0.770504 0.347262 0.114477
0.799627 0.347527 0.114723
0.828752 0.347793 0.114969
0.857878 0.348061 0.115217
0.887005 0.348329 0.115464
0.916135 0.348598 0.115713
0.945265 0.348867 0.115962
0.974398 0.349138 0.116211
1.000000 0.349410 0.116461
0.112524 0.367527 0.109768
0.140224 0.367762 0.109991
0.167469 0.367994 0.110210
0.194326 0.368224 0.110426
0.220864 0.368451 0.110640
0.247149 0.368678 0.110853
0.273249 0.368903 0.111065
0.299232 0.369128 0.111277
0.325165 0.369353 0.111488
0.351116 0.369580 0.111700
0.377152 0.369807 0.111914
0.403341 0.370037 0.112129
0.429751 0.370270 0.112346
0.456448 0.370505 0.112566
0.483502 0.370745 0.112790
0.510979 0.370989 0.113018
0.538947 0.371239 0.113251
0.567474 0.371494 0.113488
0.596526 0.371755 0.113731
0.625645 0.372017 0.113975
0.654765 0.372281 0.114219
0.683886 0.372545 0.114464
0.713009 0.372810 0.114710
0.742134 0.373076 0.114957
0.771260 0.373344 0.115204
0.800388 0.373612 0.115451
0.829517 0.373880 0.115700
0.858648 0.374150 0.115949
0.887780 0.374421 0.116198
0.916914 0.374693 0.116448
0.946049 0.374966 0.116699
0.975186 0.375239 0.116951
1.000000 0.375514 0.117203
0.113195 0.393691 0.110462
0.140900 0.393928 0.110686
0.168149 0.394163 0.110906
0.195011 0.394395 0.111125
0.221552 0.394625 0.111341
0.247841 0.394854 0.111555
0.273946 0.395082 0.111769
0.299932 0.395309 0.111982
0.325870 0.395537 0.112195
0.351824 0.395766 0.112409
0.377865 0.395996 0.112624
0.404058 0.396228 0.112841
0.430471 0.396463 0.113060
0.457173 0.396701 0.113282
0.484231 0.396944 0.113507
0.511712 0.397191 0.113737
0.539685 0.397443 0.113971
0.568216 0.397701 0.114211
0.597273 0.397964 0.114455
0.626396 0.398230 0.114701
0.655520 0.398496 0.114948
0.684647 0.398763 0.115195
0.713774 0.399031 0.115442
0.742903 0.399300 0.115690
0.772034 0.399569 0.115939
0.801166 0.399840 0.116189
0.830300 0.400112 0.116439
0.859435 0.400385 0.116690
0.888572 0.400658 0.116941
0.917710 0.400933 0.117193
0.946850 0.401208 0.117446
0.975991 0.401484 0.117700
1.000000 0.401762 0.117954
0.113886 0.420063 0.111166
0.141594 0.420304 0.111392
0.168848 0.420541 0.111614
0.195714 0.420776 0.111834
0.222259 0.421008 0.112052
0.248553 0.421239 0.112268
0.274661 0.421470 0.112484
0.300652 0.421700 0.112698
0.326593 0.421930 0.112913
0.352552 0.422161 0.113129
0.378596 0.422394 0.113345
0.404793 0.422628 0.113564
0.431211 0.422866 0.113785
0.457917 0.423107 0.114008
0.484979 0.423352 0.114236
0.512465 0.423601 0.114467
0.540442 0.423856 0.114703
0.568978 0.424117 0.114945
0.598039 0.424383 0.115191
0.627166 0.424651 0.115439
0.656295 0.424920 0.115687
0.685426 0.425190 0.115936
0.714558 0.425461 0.116185
0.743692 0.425732 0.116436
0.772827 0.426005 0.116686
0.801964 0.426278 0.116938
0.831102 0.426553 0.117190
0.860242 0.426828 0.117443
0.889383 0.427105 0.117696
0.918526 0.427382 0.117950
0.947670 0.427660 0.118205
0.976816 0.427939 0.118460
1.000000 0.428219 0.118716
0.114597 0.446710 0.111883
0.142310 0.446953 0.112111
0.169567 0.447193 0.112335
0.196438 0.447430 0.112557
0.222988 0.447665 0.112776
0.249285 0.447899 0.112994
0.275397 0.448132 0.113211
0.301392 0.448364 0.113428
0.327338 0.448597 0.113644
0.353301 0.448831 0.113861
0.379349 0.449066 0.114080
0.405550 0.449303 0.114300
0.431972 0.449543 0.114523
0.458683 0.449787 0.114748
0.485749 0.450034 0.114977
0.513239 0.450286 0.115210
0.541220 0.450544 0.115448
0.569761 0.450807 0.115692
0.598826 0.451077 0.115940
0.627958 0.451347 0.116190
0.657092 0.451619 0.116440
0.686227 0.451892 0.116691
0.715364 0.452165 0.116942
0.744502 0.452440 0.117194
0.773642 0.452715 0.117447
0.802783 0.452992 0.117700
0.831926 0.453269 0.117954
0.861070 0.453547 0.118209
0.890216 0.453826 0.118464
0.919364 0.454106 0.118720
0.948512 0.454387 0.118976
0.977663 0.454669 0.119234
1.000000 0.454952 0.119491
0.115331 0.473697 0.112615
0.143048 0.473942 0.112844
0.170310 0.474185 0.113070
0.197185 0.474425 0.113294
0.223739 0.474663 0.113515
0.250040 0.474899 0.113735
0.276157 0.475134 0.113954
0.302156 0.475369 0.114172
0.328106 0.475604 0.114390
0.354073 0.475841 0.114609
0.380125 0.476078 0.114829
0.406331 0.476318 0.115051
0.432757 0.476561 0.115276
0.459472 0.476807 0.115503
0.486542 0.477057 0.115734
0.514037 0.477312 0.115969
0.542022 0.477572 0.116209
0.570567 0.477838 0.116454
0.599637 0.478110 0.116704
0.628774 0.478384 0.116955
0.657913 0.478658 0.117208
0.687052 0.478934 0.117460
0.716194 0.479210 0.117714
0.745337 0.479488 0.117968
0.774481 0.479766 0.118222
0.803627 0.480045 0.118478
0.832774 0.480325 0.118734
0.861923 0.480606 0.118990
0.891074 0.480888 0.119247
0.920226 0.481171 0.119505
0.949380 0.481455 0.119764
0.978535 0.481740 0.120023
1.000000 0.482025 0.120282
0.116090 0.501088 0.113363
0.143812 0.501337 0.113595
0.171078 0.501582 0.113823
0.197957 0.501824 0.114048
0.224516 0.502065 0.114271
0.250822 0.502304 0.114493
0.276942 0.502542 0.114713
0.302946 0.502779 0.114933
0.328899 0.503017 0.115153
0.354871 0.503256 0.115374
0.380927 0.503496 0.115596
0.407137 0.503738 0.115819
0.433568 0.503984 0.116046
0.460287 0.504232 0.116275
0.487362 0.504485 0.116507
0.514860 0.504743 0.116744
0.542851 0.505006 0.116986
0.571400 0.505275 0.117233
0.600475 0.505550 0.117485
0.629617 0.505826 0.117739
0.658760 0.506104 0.117993
0.687904 0.506382 0.118247
0.717050 0.506661 0.118503
0.746198 0.506941 0.118759
0.775347 0.507223 0.119015
0.804498 0.507505 0.119273
0.833650 0.507788 0.119531
0.862804 0.508072 0.119789
0.891959 0.508356 0.120048
0.921116 0.508642 0.120308
0.950274 0.508929 0.120568
0.979434 0.509217 0.120829
1.000000 0.509505 0.121091
0.116877 0.528950 0.114131
0.144603 0.529201 0.114364
0.171874 0.529449 0.114594
0.198758 0.529694 0.114821
0.225321 0.529938 0.115046
0.251631 0.530179 0.115269
0.277756 0.530420 0.115492
0.303764 0.530660 0.115713
0.329721 0.530900 0.115935
0.355697 0.531142 0.116158
0.381758 0.531385 0.116381
0.407972 0.531630 0.116607
0.434407 0.531878 0.116835
0.461130 0.532129 0.117066
0.488210 0.532384 0.117300
0.515713 0.532645 0.117539
0.543708 0.532910 0.117783
0.572262 0.533182 0.118032
0.601342 0.533460 0.118286
0.630488 0.533740 0.118541
0.659636 0.534020 0.118797
0.688785 0.534301 0.119054
0.717936 0.534584 0.119311
0.747089 0.534867 0.119569
0.776243 0.535151 0.119828
0.805398 0.535436 0.120087
0.834555 0.535722 0.120347
0.863714 0.536009 0.120608
0.892874 0.536296 0.120869
0.922035 0.536585 0.121131
0.951198 0.536875 0.121393
0.980363 0.537165 0.121656
1.000000 0.537457 0.121920
0.117695 0.557348 0.114919
0.145426 0.557602 0.115154
0.172701 0.557853 0.115386
0.199589 0.558101 0.115615
0.226156 0.558347 0.115842
0.252471 0.558591 0.116067
0.278600 0.558834 0.116291
0.304612 0.559077 0.116515
0.330575 0.559320 0.116739
0.356555 0.559564 0.116963
0.382620 0.559810 0.117188
0.408838 0.560057 0.117416
0.435278 0.560308 0.117645
0.462005 0.560562 0.117878
0.489089 0.560820 0.118115
0.516597 0.561084 0.118355
0.544597 0.561352 0.118601
0.573156 0.561627 0.118852
0.602241 0.561908 0.119108
0.631392 0.562190 0.119366
0.660545 0.562474 0.119624
0.689699 0.562758 0.119883
0.718855 0.563043 0.120142
0.748012 0.563329 0.120402
0.777171 0.563616 0.120663
0.806331 0.563904 0.120924
0.835493 0.564193 0.121186
0.864656 0.564483 0.121448
0.893821 0.564774 0.121711
0.922988 0.565065 0.121975
0.952155 0.565358 0.122240
0.981325 0.565652 0.122505
1.000000 0.565946 0.122771
0.118545 0.586334 0.115731
0.146281 0.586591 0.115968
0.173561 0.586845 0.116201
0.200453 0.587096 0.116432
0.227025 0.587344 0.116661
0.253344 0.587591 0.116888
0.279478 0.587837 0.117114
0.305495 0.588083 0.117339
0.331461 0.588329 0.117565
0.357446 0.588576 0.117791
0.383516 0.588824 0.118018
0.409738 0.589074 0.118248
0.436182 0.589328 0.118479
0.462915 0.589585 0.118714
0.490003 0.589846 0.118952
0.517516 0.590112 0.119195
0.545520 0.590383 0.119442
0.574084 0.590661 0.119696
0.603174 0.590945 0.119954
0.632330 0.591230 0.120213
0.661488 0.591517 0.120474
0.690647 0.591804 0.120734
0.719808 0.592092 0.120996
0.748970 0.592382 0.121258
0.778134 0.592672 0.121521
0.807299 0.592963 0.121784
0.836466 0.593255 0.122048
0.865634 0.593548 0.122313
0.894804 0.593841 0.122578
0.923976 0.594136 0.122844
0.953148 0.594432 0.123110
0.982323 0.594728 0.123378
1.000000 0.595026 0.123645
0.119417 0.615530 0.116554
0.147158 0.615790 0.116793
0.174443 0.616047 0.117029
0.201340 0.616301 0.117262
0.227916 0.616552 0.117492
0.254240 0.616802 0.117721
0.280379 0.617050 0.117949
0.306399 0.617299 0.118177
0.332371 0.617547 0.118404
0.358359 0.617797 0.118632
0.384434 0.618048 0.118861
0.410661 0.618301 0.119092
0.437110 0.618557 0.119326
0.463847 0.618817 0.119562
0.490940 0.619081 0.119803
0.518457 0.619350 0.120047
0.546466 0.619624 0.120297
0.575035 0.619905 0.120552
0.604130 0.620192 0.120812
0.633291 0.620481 0.121074
0.662454 0.620770 0.121336
0.691618 0.621060 0.121599
0.720784 0.621352 0.121863
0.749951 0.621644 0.122127
0.779120 0.621937 0.122392
0.808290 0.622231 0.122657
0.837462 0.622526 0.122923
0.866636 0.622822 0.123190
0.895810 0.623119 0.123457
0.924987 0.623417 0.123725
0.954165 0.623716 0.123994
0.983344 0.624015 0.124263
1.000000 0.624316 0.124533
0.120307 0.644736 0.117385
0.148052 0.644999 0.117626
0.175342 0.645259 0.117864
0.202243 0.645515 0.118098
0.228824 0.645769 0.118331
0.255152 0.646022 0.118562
0.281295 0.646273 0.118791
0.307321 0.646524 0.119021
0.333296 0.646776 0.119250
0.359290 0.647028 0.119480
0.385369 0.647282 0.119711
0.411601 0.647538 0.119944
0.438054 0.647797 0.120179
0.464795 0.648059 0.120418
0.491893 0.648326 0.120660
0.519415 0.648598 0.120906
0.547429 0.648875 0.121158
0.576003 0.649159 0.121415
0.605103 0.649449 0.121678
0.634269 0.649741 0.121941
0.663437 0.650033 0.122206
0.692606 0.650327 0.122471
0.721777 0.650621 0.122736
0.750949 0.650916 0.123003
0.780123 0.651213 0.123270
0.809298 0.651510 0.123537
0.838475 0.651808 0.123805
0.867653 0.652107 0.124074
0.896833 0.652407 0.124344
0.926015 0.652708 0.124614
0.955198 0.653009 0.124884
0.984382 0.653312 0.125156
1.000000 0.653616 0.125428
0.121212 0.673953 0.118222
0.148962 0.674218 0.118465
0.176257 0.674481 0.118705
0.203163 0.674740 0.118942
0.229749 0.674997 0.119176
0.256081 0.675252 0.119409
0.282229 0.675507 0.119640
0.308259 0.675760 0.119871
0.334239 0.676014 0.120102
0.360237 0.676269 0.120334
0.386320 0.676526 0.120567
0.412557 0.676785 0.120802
0.439014 0.677046 0.121039
0.465760 0.677312 0.121280
0.492863 0.677581 0.121524
0.520390 0.677856 0.121773
0.548408 0.678136 0.122026
0.576987 0.678423 0.122285
0.606092 0.678716 0.122550
0.635263 0.679011 0.122816
0.664436 0.679306 0.123082
0.693610 0.679603 0.123349
0.722786 0.679900 0.123617
0.751963 0.680199 0.123885
0.781142 0.680498 0.124154
0.810322 0.680798 0.124424
0.839504 0.681099 0.124694
0.868688 0.681402 0.124965
0.897873 0.681705 0.125237
0.927059 0.682009 0.125509
0.956247 0.682313 0.125782
0.985437 0.682619 0.126055
1.000000 0.682926 0.126329
0.122135 0.703179 0.119067
0.149890 0.703448 0.119312
0.177189 0.703713 0.119553
0.204099 0.703975 0.119792
0.230690 0.704235 0.120028
0.257027 0.704493 0.120263
0.283179 0.704750 0.120496
0.309213 0.705006 0.120729
0.335198 0.705263 0.120962
0.361200 0.705521 0.121196
0.387288 0.705780 0.121431
0.413529 0.706042 0.121667
0.439991 0.706306 0.121906
0.466742 0.706574 0.122149
0.493849 0.706847 0.122395
0.521381 0.707124 0.122645
0.549404 0.707408 0.122901
0.577988 0.707697 0.123162
0.607098 0.707994 0.123429
0.636274 0.708291 0.123697
0.665452 0.708590 0.123965
0.694631 0.708890 0.124235
0.723812 0.709190 0.124504
0.752994 0.709491 0.124775
0.782178 0.709794 0.125046
0.811363 0.710097 0.125318
0.840550 0.710401 0.125590
0.869739 0.710706 0.125863
0.898929 0.711013 0.126137
0.928120 0.711320 0.126411
0.957313 0.711628 0.126686
0.986508 0.711936 0.126961
1.000000 0.712246 0.127237
0.123073 0.732415 0.119918
0.150833 0.732687 0.120165
0.178137 0.732955 0.120408
0.205052 0.733220 0.120649
0.231647 0.733483 0.120887
0.257989 0.733743 0.121124
0.284145 0.734003 0.121359
0.310184 0.734262 0.121594
0.336173 0.734522 0.121829
0.362180 0.734782 0.122064
0.388272 0.735044 0.122301
0.414518 0.735309 0.122539
0.440985 0.735576 0.122781
0.467740 0.735847 0.123025
0.494852 0.736122 0.123273
0.522388 0.736403 0.123525
0.550417 0.736689 0.123783
0.579005 0.736982 0.124046
0.608120 0.737281 0.124315
0.637301 0.737582 0.124585
0.666484 0.737883 0.124856
0.695668 0.738186 0.125127
0.724854 0.738490 0.125399
0.754041 0.738794 0.125671
0.783230 0.739100 0.125945
0.812421 0.739406 0.126218
0.841613 0.739713 0.126493
0.870806 0.740022 0.126768
0.900001 0.740331 0.127044
0.929198 0.740641 0.127320
0.958396 0.740952 0.127597
0.987595 0.741264 0.127874
1.000000 0.741577 0.128153
0.124029 0.761662 0.120776
0.151793 0.761937 0.121025
0.179102 0.762207 0.121271
0.206022 0.762475 0.121513
0.232621 0.762741 0.121753
0.258968 0.763004 0.121992
0.285129 0.763267 0.122229
0.311172 0.763529 0.122465
0.337165 0.763791 0.122702
0.363177 0.764054 0.122939
0.389273 0.764319 0.123178
0.415524 0.764586 0.123418
0.441995 0.764856 0.123661
0.468755 0.765130 0.123908
0.495871 0.765408 0.124158
0.523412 0.765691 0.124412
0.551446 0.765980 0.124672
0.580039 0.766276 0.124937
0.609159 0.766579 0.125208
0.638345 0.766882 0.125480
0.667533 0.767187 0.125753
0.696722 0.767493 0.126026
0.725913 0.767799 0.126300
0.755105 0.768107 0.126575
0.784299 0.768416 0.126850
0.813495 0.768725 0.127126
0.842692 0.769035 0.127402
0.871890 0.769347 0.127680
0.901090 0.769659 0.127957
0.930292 0.769972 0.128236
0.959495 0.770286 0.128515
0.988699 0.770601 0.128795
1.000000 0.770917 0.129075
0.125001 0.790919 0.121641
0.152770 0.791196 0.121892
0.180083 0.791470 0.122140
0.207008 0.791740 0.122384
0.233612 0.792009 0.122626
0.259963 0.792275 0.122866
0.286128 0.792540 0.123105
0.312176 0.792805 0.123344
0.338174 0.793070 0.123582
0.364190 0.793336 0.123822
0.390291 0.793603 0.124062
0.416546 0.793873 0.124304
0.443021 0.794146 0.124549
0.469786 0.794423 0.124797
0.496907 0.794704 0.125049
0.524453 0.794990 0.125306
0.552491 0.795282 0.125567
0.581089 0.795581 0.125835
0.610214 0.795886 0.126108
0.639405 0.796193 0.126382
0.668598 0.796501 0.126657
0.697793 0.796810 0.126932
0.726989 0.797119 0.127208
0.756186 0.797430 0.127485
0.785385 0.797742 0.127762
0.814585 0.798054 0.128040
0.843787 0.798368 0.128319
0.872991 0.798682 0.128598
0.902196 0.798997 0.128878
0.931402 0.799313 0.129159
0.960610 0.799631 0.129440
0.989820 0.799949 0.129721
1.000000 0.800268 0.130004
0.125989 0.820185 0.122513
0.153763 0.820466 0.122766
0.181081 0.820742 0.123015
0.208011 0.821016 0.123262
0.234619 0.821287 0.123506
0.260975 0.821556 0.123748
0.287145 0.821824 0.123989
0.313197 0.822091 0.124229
0.339199 0.822359 0.124470
0.365219 0.822628 0.124711
0.391325 0.822898 0.124953
0.417584 0.823171 0.125197
0.444065 0.823446 0.125444
0.470834 0.823726 0.125694
0.497960 0.824009 0.125948
0.525510 0.824299 0.126206
0.553553 0.824594 0.126470
0.582156 0.824896 0.126739
0.611286 0.825204 0.127014
0.640482 0.825514 0.127291
0.669680 0.825825 0.127568
0.698880 0.826137 0.127845
0.728081 0.826449 0.128123
0.757283 0.826763 0.128402
0.786487 0.827078 0.128682
0.815692 0.827393 0.128962
0.844899 0.827710 0.129242
