waxal-templates/luts/waxal-night-market.cube
TITLE "Waxal Night Market"
# Original Waxal look — generated color math, no third-party data
LUT_3D_SIZE 9
0.000000 0.005054 0.030759
0.073813 0.003725 0.028418
0.197118 0.002018 0.025379
0.339670 0.000085 0.021890
0.491870 0.000000 0.018192
0.644108 0.000000 0.014523
0.786766 0.000000 0.011110
0.910216 0.000000 0.008178
1.000000 0.000000 0.005943
0.000000 0.095444 0.022927
0.072832 0.094177 0.020623
0.196201 0.092552 0.017631
0.338829 0.090714 0.014196
0.491109 0.088799 0.010557
0.643427 0.086932 0.006946
0.786160 0.085228 0.003589
0.909675 0.083787 0.000704
1.000000 0.082705 0.000000
0.000000 0.213728 0.012889
0.071803 0.212543 0.010632
0.195257 0.211026 0.007703
0.337982 0.209312 0.004340
0.490366 0.207529 0.000777
0.642789 0.205794 0.000000
0.785619 0.204213 0.000000
0.909219 0.202880 0.000000
1.000000 0.201880 0.000000
0.000000 0.350895 0.001547
0.070968 0.349806 0.000000
0.194520 0.348412 0.000000
0.337358 0.346841 0.000000
0.489863 0.345211 0.000000
0.642406 0.343629 0.000000
0.785349 0.342192 0.000000
0.909047 0.340982 0.000000
1.000000 0.340077 0.000000
0.000000 0.497841 0.000000
0.070496 0.496853 0.000000
0.194152 0.495592 0.000000
0.337111 0.494174 0.000000
0.489745 0.492707 0.000000
0.642417 0.491289 0.000000
0.785481 0.490004 0.000000
0.909282 0.488927 0.000000
1.000000 0.488123 0.000000
0.000000 0.645337 0.000000
0.070457 0.644450 0.000000
0.194218 0.643321 0.000000
0.337297 0.642056 0.000000
0.490060 0.640752 0.000000
0.642860 0.639497 0.000000
0.786045 0.638365 0.000000
0.909951 0.637420 0.000000
1.000000 0.636717 0.000000
0.000000 0.784014 0.000000
0.070814 0.783223 0.000000
0.194672 0.782218 0.000000
0.337865 0.781095 0.000000
0.490748 0.779945 0.000000
0.643669 0.778842 0.000000
0.786967 0.777854 0.000000
0.910970 0.777033 0.000000
1.000000 0.776425 0.000000
0.000000 0.904383 0.000000
0.071429 0.903673 0.000000
0.195372 0.902775 0.000000
0.338662 0.901777 0.000000
0.491650 0.900759 0.000000
0.644675 0.899789 0.000000
0.788071 0.898924 0.000000
0.912159 0.898210 0.000000
1.000000 0.897685 0.000000
0.000000 0.996857 0.000000
0.072093 0.996211 0.000000
0.196101 0.995395 0.000000
0.339466 0.994492 0.000000
0.492533 0.993574 0.000000
0.645639 0.992706 0.000000
0.789109 0.991936 0.000000
0.913262 0.991304 0.000000
1.000000 0.990842 0.000000
0.000000 0.004590 0.126954
0.073704 0.003267 0.124617
0.197015 0.001569 0.121583
0.339575 0.000000 0.118099
0.491784 0.000000 0.114408
0.644030 0.000000 0.110744
0.786696 0.000000 0.107337
0.910153 0.000000 0.104410
1.000000 0.000000 0.102179
0.000000 0.095001 0.119135
0.072740 0.093741 0.116834
0.196116 0.092125 0.113848
0.338751 0.090297 0.110418
0.491040 0.088392 0.106785
0.643366 0.086536 0.103180
0.786107 0.084841 0.099829
0.909628 0.083409 0.096948
1.000000 0.082333 0.094754
0.000000 0.213314 0.109114
0.071733 0.212136 0.106860
0.195194 0.210627 0.103936
0.337927 0.208923 0.100578
0.490320 0.207150 0.097022
0.642751 0.205426 0.093493
0.785589 0.203855 0.090213
0.909195 0.202530 0.087395
1.000000 0.201537 0.085248
0.000000 0.350514 0.097791
0.070924 0.349432 0.095592
0.194483 0.348046 0.092739
0.337329 0.346485 0.089464
0.489842 0.344866 0.085996
0.642394 0.343294 0.082556
0.785345 0.341867 0.079358
0.909049 0.340666 0.076612
1.000000 0.339767 0.074520
0.000000 0.497496 0.086011
0.070480 0.496514 0.083871
0.194144 0.495262 0.081095
0.337110 0.493853 0.077908
0.489752 0.492397 0.074534
0.642432 0.490989 0.071188
0.785504 0.489714 0.068079
0.909312 0.488645 0.065409
1.000000 0.487848 0.063375
0.000000 0.645026 0.074549
0.070470 0.644146 0.072467
0.194237 0.643026 0.069767
0.337324 0.641770 0.066669
0.490095 0.640477 0.063390
0.642904 0.639232 0.060138
0.786096 0.638110 0.057117
0.910009 0.637174 0.054523
1.000000 0.636478 0.052548
0.000000 0.783737 0.064098
0.070852 0.782952 0.062072
0.194717 0.781955 0.059443
0.337918 0.780843 0.056428
0.490809 0.779703 0.053237
0.643738 0.778611 0.050073
0.787044 0.777632 0.047135
0.911054 0.776819 0.044613
1.000000 0.776218 0.042693
0.000000 0.904134 0.055282
0.071490 0.903431 0.053302
0.195440 0.902542 0.050736
0.338738 0.901553 0.047792
0.491733 0.900545 0.044677
0.644767 0.899586 0.041590
0.788170 0.898731 0.038724
0.912265 0.898025 0.036264
1.000000 0.897506 0.034391
0.000000 0.996630 0.048667
0.072171 0.995990 0.046724
0.196186 0.995183 0.044205
0.339559 0.994289 0.041316
0.492634 0.993383 0.038260
0.645748 0.992524 0.035231
0.789226 0.991764 0.032420
0.913386 0.991141 0.030007
1.000000 0.990685 0.028171
0.000000 0.003986 0.252786
0.073564 0.002672 0.250454
0.196884 0.000985 0.247426
0.339454 0.000000 0.243950
0.491673 0.000000 0.240266
0.643931 0.000000 0.236611
0.786606 0.000000 0.233211
0.910072 0.000000 0.230290
1.000000 0.000000 0.228064
0.000000 0.094426 0.244983
0.072622 0.093175 0.242687
0.196008 0.091569 0.239707
0.338653 0.089754 0.236286
0.490952 0.087863 0.232661
0.643289 0.086020 0.229063
0.786040 0.084338 0.225719
0.909570 0.082917 0.222845
1.000000 0.081850 0.220656
0.000000 0.212776 0.234984
0.071645 0.211607 0.232735
0.195115 0.210109 0.229817
0.337858 0.208417 0.226467
0.490261 0.206658 0.222918
0.642703 0.204948 0.219398
0.785551 0.203390 0.216125
0.909166 0.202076 0.213313
1.000000 0.201091 0.211171
0.000000 0.350020 0.223685
0.070871 0.348945 0.221492
0.194438 0.347571 0.218645
0.337294 0.346023 0.215378
0.489818 0.344417 0.211918
0.642380 0.342860 0.208485
0.785342 0.341445 0.205295
0.909054 0.340255 0.202555
1.000000 0.339365 0.200468
0.000000 0.497047 0.211933
0.070463 0.496074 0.209798
0.194135 0.494833 0.207028
0.337111 0.493437 0.203849
0.489764 0.491994 0.200482
0.642455 0.490600 0.197144
0.785537 0.489338 0.194043
0.909354 0.488280 0.191379
1.000000 0.487492 0.189350
0.000000 0.644624 0.200497
0.070488 0.643752 0.198421
0.194264 0.642643 0.195727
0.337362 0.641400 0.192636
0.490143 0.640120 0.189364
0.642963 0.638889 0.186121
0.786165 0.637780 0.183107
0.910087 0.636855 0.180520
1.000000 0.636167 0.178550
0.000000 0.783378 0.190072
0.070905 0.782601 0.188050
0.194779 0.781616 0.185428
0.337989 0.780516 0.182420
0.490891 0.779389 0.179236
0.643831 0.778311 0.176081
0.787147 0.777345 0.173150
0.911166 0.776544 0.170635
1.000000 0.775951 0.168719
0.000000 0.903812 0.181276
0.071572 0.903118 0.179302
0.195531 0.902239 0.176742
0.338839 0.901264 0.173806
0.491845 0.900269 0.170699
0.644890 0.899323 0.167620
0.788303 0.898481 0.164760
0.912407 0.897787 0.162307
1.000000 0.897277 0.160439
0.000000 0.996337 0.174678
0.072276 0.995705 0.172740
0.196299 0.994909 0.170227
0.339682 0.994028 0.167346
0.492769 0.993135 0.164298
0.645893 0.992291 0.161277
0.789381 0.991544 0.158473
0.913550 0.990932 0.156067
1.000000 0.990484 0.154235
0.000000 0.003294 0.398113
0.073406 0.001989 0.395786
0.196736 0.000315 0.392766
0.339318 0.000000 0.389298
0.491550 0.000000 0.385623
0.643819 0.000000 0.381977
0.786507 0.000000 0.378586
0.909983 0.000000 0.375672
1.000000 0.000000 0.373452
0.000000 0.093767 0.390329
0.072491 0.092525 0.388039
0.195886 0.090933 0.385066
0.338543 0.089132 0.381653
0.490854 0.087257 0.378037
0.643204 0.085430 0.374449
0.785966 0.083763 0.371113
0.909507 0.082355 0.368247
1.000000 0.081297 0.366063
0.000000 0.212160 0.380354
0.071548 0.211000 0.378111
0.195027 0.209515 0.375201
0.337782 0.207838 0.371859
0.490198 0.206095 0.368320
0.642652 0.204401 0.364808
0.785512 0.202858 0.361544
0.909137 0.201557 0.358739
1.000000 0.200581 0.356603
0.000000 0.349453 0.369085
0.070812 0.348389 0.366897
0.194390 0.347028 0.364058
0.337257 0.345494 0.360799
0.489794 0.343904 0.357348
0.642368 0.342362 0.353924
0.785342 0.340962 0.350743
0.909064 0.339785 0.348010
1.000000 0.338905 0.345929
0.000000 0.496534 0.357363
0.070446 0.495571 0.355233
0.194128 0.494342 0.352471
0.337117 0.492961 0.349300
0.489782 0.491534 0.345943
0.642485 0.490156 0.342614
0.785579 0.488909 0.339521
0.909406 0.487864 0.336865
1.000000 0.487085 0.334842
0.000000 0.644164 0.345958
0.070514 0.643302 0.343887
0.194300 0.642205 0.341201
0.337409 0.640977 0.338119
0.490203 0.639714 0.334856
0.643035 0.638499 0.331621
0.786249 0.637404 0.328616
0.910181 0.636492 0.326036
1.000000 0.635814 0.324072
0.000000 0.782968 0.335561
0.070970 0.782201 0.333545
0.194854 0.781228 0.330930
0.338076 0.780143 0.327931
0.490990 0.779032 0.324757
0.643943 0.777970 0.321610
0.787270 0.777019 0.318688
0.911300 0.776230 0.316180
1.000000 0.775648 0.314270
0.000000 0.903445 0.326791
0.071671 0.902760 0.324822
0.195640 0.901895 0.322269
0.338959 0.900934 0.319342
0.491978 0.899955 0.316244
0.645035 0.899025 0.313174
0.788460 0.898198 0.310323
0.912574 0.897517 0.307877
1.000000 0.897016 0.306015
0.000000 0.996003 0.320212
0.072401 0.995381 0.318279
0.196434 0.994598 0.315774
0.339829 0.993732 0.312901
0.492928 0.992855 0.309862
0.646065 0.992026 0.306851
0.789565 0.991294 0.304055
0.913743 0.990694 0.301656
1.000000 0.990257 0.299830
0.000000 0.002562 0.552791
0.073242 0.001268 0.550470
0.196583 0.000000 0.547458
0.339178 0.000000 0.543999
0.491423 0.000000 0.540334
0.643706 0.000000 0.536697
0.786406 0.000000 0.533316
0.909892 0.000000 0.530410
1.000000 0.000000 0.528196
0.000000 0.093070 0.545027
0.072355 0.091839 0.542743
0.195761 0.090261 0.539778
0.338430 0.088476 0.536374
0.490755 0.086617 0.532768
0.643118 0.084807 0.529189
0.785893 0.083156 0.525863
0.909444 0.081761 0.523004
1.000000 0.080714 0.520826
0.000000 0.211510 0.535079
0.071448 0.210361 0.532842
0.194939 0.208889 0.529939
0.337706 0.207228 0.526607
0.490135 0.205502 0.523077
0.642602 0.203824 0.519575
0.785475 0.202297 0.516320
0.909111 0.201009 0.513524
1.000000 0.200045 0.511393
0.000000 0.348856 0.523840
0.070754 0.347802 0.521658
0.194343 0.346454 0.518827
0.337223 0.344937 0.515577
0.489773 0.343363 0.512136
0.642360 0.341839 0.508722
0.785346 0.340454 0.505550
0.909080 0.339291 0.502825
1.000000 0.338421 0.500750
0.000000 0.495993 0.512151
0.070433 0.495041 0.510027
0.194126 0.493825 0.507273
0.337127 0.492460 0.504111
0.489805 0.491050 0.500764
0.642522 0.489689 0.497445
0.785628 0.488457 0.494361
0.909466 0.487426 0.491712
1.000000 0.486658 0.489695
0.000000 0.643680 0.500779
0.070545 0.642828 0.498714
0.194342 0.641745 0.496035
0.337464 0.640533 0.492962
0.490271 0.639286 0.489710
0.643116 0.638088 0.486485
0.786343 0.637009 0.483489
0.910285 0.636111 0.480917
1.000000 0.635443 0.478958
0.000000 0.782537 0.490412
0.071043 0.781780 0.488403
0.194938 0.780821 0.485796
0.338173 0.779752 0.482806
0.491100 0.778658 0.479641
0.644066 0.777613 0.476504
0.787406 0.776677 0.473591
0.911446 0.775902 0.471091
1.000000 0.775330 0.469187
0.000000 0.903060 0.481669
0.071781 0.902386 0.479706
0.195760 0.901534 0.477161
0.339092 0.900589 0.474243
0.492124 0.899627 0.471155
0.645195 0.898714 0.468094
0.788632 0.897902 0.465253
0.912757 0.897235 0.462814
1.000000 0.896745 0.460958
0.000000 0.995653 0.475110
0.072538 0.995042 0.473184
0.196583 0.994272 0.470686
0.339990 0.993422 0.467823
0.493102 0.992562 0.464793
0.646252 0.991750 0.461791
0.789764 0.991033 0.459005
0.913954 0.990448 0.456614
1.000000 0.990020 0.454794
0.000000 0.001841 0.706676
0.073084 0.000557 0.704362
0.196436 0.000000 0.701357
0.339043 0.000000 0.697907
0.491301 0.000000 0.694252
0.643597 0.000000 0.690625
0.786309 0.000000 0.687252
0.909806 0.000000 0.684354
1.000000 0.000000 0.682146
0.000000 0.092384 0.698933
0.072224 0.091163 0.696655
0.195641 0.089598 0.693698
0.338323 0.087828 0.690303
0.490661 0.085987 0.686706
0.643037 0.084194 0.683138
0.785824 0.082558 0.679820
0.909386 0.081177 0.676969
1.000000 0.080140 0.674797
0.000000 0.210868 0.689011
0.071353 0.209730 0.686780
0.194855 0.208272 0.683885
0.337634 0.206626 0.680562
0.490077 0.204917 0.677042
0.642557 0.203256 0.673550
0.785442 0.201744 0.670304
0.909089 0.200471 0.667515
1.000000 0.199516 0.665391
0.000000 0.348268 0.677803
0.070701 0.347224 0.675627
0.194300 0.345890 0.672803
0.337193 0.344388 0.669563
0.489756 0.342831 0.666131
0.642357 0.341323 0.662727
0.785355 0.339955 0.659564
0.909099 0.338805 0.656847
1.000000 0.337945 0.654777
0.000000 0.495461 0.666146
0.070425 0.494519 0.664029
0.194128 0.493317 0.661282
0.337142 0.491968 0.658129
0.489833 0.490575 0.654792
0.642563 0.489230 0.651482
0.785681 0.488014 0.648407
0.909530 0.486997 0.645767
1.000000 0.486239 0.643756
0.000000 0.643204 0.654806
0.070581 0.642363 0.652748
0.194389 0.641294 0.650077
0.337523 0.640097 0.647013
0.490343 0.638867 0.643770
0.643202 0.637686 0.640555
0.786441 0.636623 0.637568
0.910394 0.635737 0.635004
1.000000 0.635081 0.633051
0.000000 0.782114 0.644471
0.071121 0.781368 0.642467
0.195026 0.780422 0.639868
0.338273 0.779369 0.636887
0.491214 0.778292 0.633732
0.644193 0.777263 0.630605
0.787546 0.776343 0.627701
0.911596 0.775582 0.625208
1.000000 0.775020 0.623311
0.000000 0.902683 0.635753
0.071894 0.902019 0.633797
0.195885 0.901181 0.631260
0.339229 0.900251 0.628350
0.492274 0.899306 0.625272
0.645358 0.898410 0.622221
0.788808 0.897614 0.619389
0.912943 0.896960 0.616958
1.000000 0.896480 0.615108
0.000000 0.995311 0.629215
0.072680 0.994710 0.627295
0.196735 0.993954 0.624805
0.340154 0.993119 0.621950
0.493279 0.992276 0.618930
0.646443 0.991481 0.615939
0.789967 0.990780 0.613161
0.914168 0.990208 0.610778
1.000000 0.989791 0.608964
0.000000 0.001175 0.849625
0.072941 0.000000 0.847316
0.196303 0.000000 0.844319
0.338921 0.000000 0.840877
0.491192 0.000000 0.837231
0.643500 0.000000 0.833613
0.786224 0.000000 0.830249
0.909731 0.000000 0.827358
1.000000 0.000000 0.825156
0.000000 0.091751 0.841900
0.072107 0.090540 0.839628
0.195534 0.088987 0.836678
0.338227 0.087232 0.833291
0.490577 0.085406 0.829704
0.642966 0.083629 0.826144
0.785764 0.082008 0.822835
0.909336 0.080639 0.819992
1.000000 0.079612 0.817826
0.000000 0.210278 0.832003
0.071270 0.209149 0.829778
0.194781 0.207704 0.826890
0.337572 0.206073 0.823575
0.490027 0.204379 0.820064
0.642519 0.202734 0.816581
0.785416 0.201237 0.813343
0.909072 0.199975 0.810562
1.000000 0.199031 0.808443
0.000000 0.347726 0.820823
0.070656 0.346692 0.818653
0.194265 0.345371 0.815837
0.337169 0.343883 0.812605
0.489745 0.342342 0.809182
0.642358 0.340850 0.805787
0.785367 0.339496 0.802632
0.909122 0.338359 0.799922
1.000000 0.337509 0.797858
0.000000 0.494972 0.809197
0.070421 0.494040 0.807085
0.194134 0.492851 0.804345
0.337159 0.491516 0.801201
0.489863 0.490138 0.797873
0.642605 0.488809 0.794572
0.785735 0.487608 0.791506
0.909594 0.486603 0.788872
1.000000 0.485854 0.786867
0.000000 0.642768 0.797887
0.070619 0.641936 0.795834
0.194437 0.640879 0.793171
0.337582 0.639697 0.790115
0.490415 0.638483 0.786881
0.643285 0.637317 0.783675
0.786536 0.636269 0.780696
0.910499 0.635396 0.778140
1.000000 0.634749 0.776193
0.000000 0.781726 0.787580
0.071197 0.780990 0.785582
0.195113 0.780057 0.782990
0.338371 0.779018 0.780017
0.491324 0.777957 0.776871
0.644316 0.776943 0.773753
0.787679 0.776038 0.770858
0.911740 0.775290 0.768373
1.000000 0.774737 0.766481
0.000000 0.902338 0.778887
0.072004 0.901683 0.776936
0.196004 0.900858 0.774406
0.339360 0.899943 0.771505
0.492418 0.899014 0.768436
0.645514 0.898133 0.765394
0.788975 0.897351 0.762570
0.913120 0.896710 0.760147
1.000000 0.896240 0.758303
0.000000 0.994998 0.772367
0.072815 0.994407 0.770453
0.196880 0.993663 0.767970
0.340311 0.992844 0.765124
0.493448 0.992016 0.762113
0.646624 0.991236 0.759130
0.790160 0.990550 0.756361
0.914370 0.989990 0.753985
1.000000 0.989583 0.752177
0.000000 0.000612 0.971491
0.072822 0.000000 0.969187
0.196193 0.000000 0.966196
0.338821 0.000000 0.962762
0.491102 0.000000 0.959123
0.643421 0.000000 0.955513
0.786154 0.000000 0.952156
0.909670 0.000000 0.949271
1.000000 0.000000 0.947074
0.000000 0.091215 0.963783
0.072010 0.090012 0.961515
0.195445 0.088471 0.958571
0.338149 0.086728 0.955192
0.490509 0.084916 0.951612
0.642908 0.083151 0.948060
0.785717 0.081542 0.944758
0.909297 0.080185 0.941921
1.000000 0.079166 0.939760
0.000000 0.209779 0.953906
0.071201 0.208658 0.951686
0.194721 0.207223 0.948804
0.337522 0.205605 0.945497
0.489987 0.203924 0.941993
0.642490 0.202292 0.938518
0.785397 0.200808 0.935287
0.909062 0.199557 0.932512
1.000000 0.198621 0.930398
0.000000 0.347269 0.942751
0.070621 0.346243 0.940585
0.194239 0.344932 0.937775
0.337152 0.343457 0.934550
0.489738 0.341930 0.931135
0.642362 0.340450 0.927748
0.785381 0.339109 0.924600
0.909144 0.337982 0.921896
1.000000 0.337141 0.919837
0.000000 0.494560 0.931150
0.070421 0.493635 0.929043
0.194143 0.492457 0.926309
0.337177 0.491134 0.923173
0.489892 0.489770 0.919852
0.642644 0.488454 0.916559
0.785784 0.487265 0.913499
0.909651 0.486271 0.910872
1.000000 0.485531 0.908872
0.000000 0.642399 0.919866
0.070654 0.641576 0.917818
0.194480 0.640530 0.915161
0.337635 0.639361 0.912112
0.490478 0.638159 0.908886
0.643360 0.637007 0.905687
0.786620 0.635971 0.902716
0.910592 0.635109 0.900165
1.000000 0.634470 0.898224
0.000000 0.781400 0.909583
0.071265 0.780672 0.907590
0.195189 0.779749 0.905004
0.338457 0.778723 0.902039
0.491421 0.777675 0.898900
0.644423 0.776675 0.895790
0.787796 0.775782 0.892902
0.911866 0.775044 0.890423
1.000000 0.774500 0.888535
0.000000 0.902047 0.900911
0.072101 0.901401 0.898965
0.196109 0.900586 0.896441
0.339475 0.899684 0.893548
0.492543 0.898768 0.890486
0.645649 0.897900 0.887452
0.789121 0.897131 0.884635
0.913274 0.896501 0.882218
1.000000 0.896039 0.880378
0.000000 0.994736 0.894407
0.072933 0.994153 0.892498
0.197007 0.993420 0.890021
0.340448 0.992612 0.887182
0.493596 0.991798 0.884179
0.646782 0.991031 0.881204
0.790328 0.990357 0.878442
0.914546 0.989809 0.876072
1.000000 0.989410 0.874269
0.000000 0.000193 1.000000
0.072736 0.000000 1.000000
0.196112 0.000000 1.000000
0.338748 0.000000 1.000000
0.491036 0.000000 1.000000
0.643363 0.000000 1.000000
0.786104 0.000000 1.000000
0.909626 0.000000 1.000000
1.000000 0.000000 1.000000
0.000000 0.090817 1.000000
0.071940 0.089620 1.000000
0.195381 0.088087 1.000000
0.338092 0.086354 1.000000
0.490460 0.084551 1.000000
0.642867 0.082797 1.000000
0.785683 0.081197 1.000000
0.909269 0.079847 1.000000
1.000000 0.078835 1.000000
0.000000 0.209408 1.000000
0.071152 0.208293 1.000000
0.194678 0.206867 1.000000
0.337487 0.205257 1.000000
0.489959 0.203587 1.000000
0.642470 0.201965 1.000000
0.785384 0.200489 1.000000
0.909055 0.199247 1.000000
1.000000 0.198316 1.000000
0.000000 0.346929 1.000000
0.070597 0.345909 1.000000
0.194220 0.344607 1.000000
0.337142 0.343141 1.000000
0.489735 0.341623 1.000000
0.642367 0.340154 1.000000
0.785393 0.338821 1.000000
0.909162 0.337703 1.000000
1.000000 0.336868 1.000000
0.000000 0.494253 1.000000
0.070423 0.493335 1.000000
0.194151 0.492164 1.000000
0.337193 0.490851 1.000000
0.489915 0.489497 1.000000
0.642675 0.488191 1.000000
0.785823 0.487011 1.000000
0.909696 0.486025 1.000000
1.000000 0.485291 1.000000
0.000000 0.642126 1.000000
0.070682 0.641309 1.000000
0.194515 0.640271 1.000000
0.337677 0.639111 1.000000
0.490528 0.637920 1.000000
0.643417 0.636777 0.996931
0.786685 0.635750 0.993965
0.910663 0.634896 0.991419
1.000000 0.634264 0.989481
0.000000 0.781158 1.000000
0.071318 0.780436 0.998830
0.195248 0.779522 0.996249
0.338524 0.778505 0.993289
0.491495 0.777466 0.990156
0.644505 0.776476 0.987052
0.787886 0.775593 0.984169
0.911961 0.774863 0.981694
1.000000 0.774325 0.979811
0.000000 0.901833 0.992163
0.072175 0.901193 0.990221
0.196190 0.900386 0.987702
0.339563 0.899493 0.984813
0.492639 0.898587 0.981757
0.645753 0.897729 0.978729
0.789231 0.896969 0.975918
0.913392 0.896346 0.973505
1.000000 0.895891 0.971669
0.000000 0.994542 0.985671
0.073024 0.993965 0.983765
0.197104 0.993240 0.981294
0.340552 0.992442 0.978460
0.493707 0.991637 0.975462
0.646902 0.990881 0.972493
0.790455 0.990216 0.969736
0.914680 0.989675 0.967371
1.000000 0.989249 0.965601
