waxal-templates/luts/waxal-sahel-gold.cube
TITLE "Waxal Sahel Gold"
# Original Waxal look — generated color math, no third-party data
LUT_3D_SIZE 9
0.022751 0.000000 0.000000
0.130663 0.000000 0.000000
0.278791 0.000000 0.000000
0.452368 0.000000 0.000000
0.636583 0.000000 0.000000
0.816572 0.000000 0.000000
0.977411 0.000000 0.000000
1.000000 0.000000 0.000000
1.000000 0.000000 0.000000
0.010108 0.091804 0.000000
0.118218 0.088608 0.000000
0.266618 0.084258 0.000000
0.440513 0.079215 0.000000
0.625066 0.073925 0.000000
0.805384 0.068820 0.000000
0.966517 0.064309 0.000000
1.000000 0.060791 0.000000
1.000000 0.058370 0.000000
0.000000 0.217504 0.000000
0.102278 0.214394 0.000000
0.251047 0.210162 0.000000
0.425375 0.205255 0.000000
0.610386 0.200112 0.000000
0.791152 0.195148 0.000000
0.952684 0.190765 0.000000
1.000000 0.187347 0.000000
1.000000 0.184995 0.000000
0.000000 0.365807 0.000000
0.084965 0.362798 0.000000
0.234169 0.358704 0.000000
0.409005 0.353959 0.000000
0.594556 0.348987 0.000000
0.775848 0.344191 0.000000
0.937850 0.339957 0.000000
1.000000 0.336656 0.000000
1.000000 0.334386 0.000000
0.000000 0.525768 0.000000
0.068087 0.522867 0.000000
0.217758 0.518921 0.000000
0.393141 0.514351 0.000000
0.579271 0.509563 0.000000
0.761129 0.504947 0.000000
0.923637 0.500874 0.000000
1.000000 0.497699 0.000000
1.000000 0.495517 0.000000
0.000000 0.686299 0.000000
0.053003 0.683507 0.000000
0.203141 0.679709 0.000000
0.379071 0.675313 0.000000
0.565781 0.670709 0.000000
0.748205 0.666273 0.000000
0.911218 0.662361 0.000000
1.000000 0.659312 0.000000
1.000000 0.657218 0.000000
0.000000 0.836158 0.000000
0.040581 0.833466 0.000000
0.191154 0.829806 0.000000
0.367592 0.825571 0.000000
0.554841 0.821139 0.000000
0.737792 0.816871 0.000000
0.901274 0.813108 0.000000
1.000000 0.810177 0.000000
1.000000 0.808164 0.000000
0.000000 0.963956 0.000000
0.031241 0.961350 0.000000
0.182183 0.957808 0.000000
0.359054 0.953711 0.000000
0.546762 0.949425 0.000000
0.730160 0.945298 0.000000
0.894042 0.941662 0.000000
1.000000 0.938832 0.000000
1.000000 0.936888 0.000000
0.000000 1.000000 0.000000
0.025086 1.000000 0.000000
0.176300 1.000000 0.000000
0.353489 1.000000 0.000000
0.541534 1.000000 0.000000
0.725261 1.000000 0.000000
0.889437 1.000000 0.000000
1.000000 1.000000 0.000000
1.000000 1.000000 0.000000
0.021631 0.000000 0.063472
0.129560 0.000000 0.061116
0.277712 0.000000 0.057799
0.451316 0.000000 0.053788
0.635561 0.000000 0.049386
0.815578 0.000000 0.044942
0.976443 0.000000 0.040851
1.000000 0.000000 0.037549
1.000000 0.000000 0.035219
0.009041 0.090952 0.056081
0.117168 0.087762 0.053562
0.265592 0.083420 0.050022
0.439514 0.078385 0.045751
0.624096 0.073105 0.041073
0.804443 0.068008 0.036359
0.965601 0.063506 0.032027
1.000000 0.059994 0.028535
1.000000 0.057578 0.026074
0.000000 0.216675 0.045236
0.101299 0.213571 0.042497
0.250092 0.209346 0.038654
0.424447 0.204449 0.034029
0.609488 0.199314 0.028976
0.790282 0.194360 0.023896
0.951840 0.189985 0.019237
1.000000 0.186573 0.015487
1.000000 0.184226 0.012848
0.000000 0.365005 0.031305
0.084071 0.362001 0.028307
0.233298 0.357915 0.024108
0.408162 0.353179 0.019066
0.593742 0.348216 0.013571
0.775062 0.343429 0.008060
0.937090 0.339204 0.003017
1.000000 0.335909 0.000000
1.000000 0.333643 0.000000
0.000000 0.524995 0.014912
0.067283 0.522099 0.011635
0.216978 0.518161 0.007055
0.392388 0.513599 0.001565
0.578548 0.508821 0.000000
0.760434 0.504214 0.000000
0.922967 0.500149 0.000000
1.000000 0.496981 0.000000
1.000000 0.494803 0.000000
0.000000 0.685555 0.000000
0.052290 0.682768 0.000000
0.202452 0.678978 0.000000
0.378409 0.674590 0.000000
0.565148 0.669996 0.000000
0.747600 0.665569 0.000000
0.910639 0.661664 0.000000
1.000000 0.658623 0.000000
1.000000 0.656532 0.000000
0.000000 0.835440 0.000000
0.039952 0.832754 0.000000
0.190548 0.829102 0.000000
0.367014 0.824876 0.000000
0.554293 0.820453 0.000000
0.737271 0.816193 0.000000
0.900780 0.812438 0.000000
1.000000 0.809514 0.000000
1.000000 0.807505 0.000000
0.000000 0.963262 0.000000
0.030684 0.960661 0.000000
0.181649 0.957127 0.000000
0.358547 0.953038 0.000000
0.546285 0.948761 0.000000
0.729711 0.944644 0.000000
0.893619 0.941016 0.000000
1.000000 0.938192 0.000000
1.000000 0.936252 0.000000
0.000000 1.000000 0.000000
0.024581 1.000000 0.000000
0.175819 1.000000 0.000000
0.353035 1.000000 0.000000
0.541109 1.000000 0.000000
0.724865 1.000000 0.000000
0.889067 1.000000 0.000000
1.000000 1.000000 0.000000
1.000000 1.000000 0.000000
0.020141 0.000000 0.179940
0.128093 0.000000 0.177565
0.276276 0.000000 0.174222
0.449917 0.000000 0.170181
0.634201 0.000000 0.165747
0.814257 0.000000 0.161272
0.975155 0.000000 0.157153
1.000000 0.000000 0.153828
1.000000 0.000000 0.151483
0.007621 0.089816 0.172491
0.115771 0.086634 0.169954
0.264227 0.082301 0.166387
0.438186 0.077278 0.162086
0.622807 0.072010 0.157376
0.803192 0.066926 0.152631
0.964384 0.062435 0.148272
1.000000 0.058931 0.144758
1.000000 0.056520 0.142281
0.000000 0.215570 0.161568
0.099998 0.212473 0.158810
0.248823 0.208258 0.154941
0.423214 0.203372 0.150286
0.608294 0.198250 0.145201
0.789127 0.193308 0.140089
0.950719 0.188944 0.135403
1.000000 0.185540 0.131631
1.000000 0.183199 0.128977
0.000000 0.363935 0.147544
0.082882 0.360939 0.144527
0.232141 0.356862 0.140303
0.407042 0.352138 0.135231
0.592661 0.347188 0.129704
0.774019 0.342413 0.124162
0.936081 0.338198 0.119090
1.000000 0.334912 0.115016
1.000000 0.332653 0.112151
0.000000 0.523964 0.131053
0.066216 0.521075 0.127757
0.215942 0.517147 0.123150
0.391389 0.512597 0.117631
0.577588 0.507831 0.111629
0.759512 0.503236 0.105624
0.922080 0.499182 0.100139
1.000000 0.496022 0.095739
1.000000 0.493850 0.092649
0.000000 0.684562 0.113093
0.051343 0.681782 0.109518
0.201537 0.678003 0.104529
0.377531 0.673626 0.098562
0.564309 0.669044 0.092086
0.746799 0.664630 0.085617
0.909872 0.660736 0.079718
1.000000 0.657703 0.074992
1.000000 0.655618 0.071677
0.000000 0.834483 0.095065
0.039118 0.831804 0.091231
0.189746 0.828162 0.085886
0.366248 0.823948 0.079502
0.553566 0.819537 0.072585
0.736583 0.815290 0.065685
0.900125 0.811546 0.059401
1.000000 0.808630 0.054373
1.000000 0.806627 0.050848
0.000000 0.962335 0.078738
0.029945 0.959742 0.074684
0.180942 0.956217 0.069036
0.357878 0.952140 0.062298
0.545654 0.947876 0.055005
0.729118 0.943771 0.047739
0.893060 0.940154 0.041128
1.000000 0.937338 0.035842
1.000000 0.935404 0.032139
0.000000 1.000000 0.066139
0.023913 1.000000 0.061922
0.175182 1.000000 0.056052
0.352435 1.000000 0.049054
0.540549 1.000000 0.041485
0.724343 1.000000 0.033949
0.888578 1.000000 0.027097
1.000000 1.000000 0.021622
1.000000 1.000000 0.017787
0.018391 0.000000 0.317471
0.126370 0.000000 0.315074
0.274591 0.000000 0.311700
0.448276 0.000000 0.307623
0.632606 0.000000 0.303152
0.812707 0.000000 0.298640
0.973645 0.000000 0.294488
1.000000 0.000000 0.291138
1.000000 0.000000 0.288775
0.005955 0.088478 0.309954
0.114132 0.085304 0.307394
0.262625 0.080984 0.303798
0.436628 0.075974 0.299461
0.621295 0.070721 0.294713
0.801725 0.065651 0.289931
0.962957 0.061173 0.285539
1.000000 0.057679 0.281999
1.000000 0.055275 0.279505
0.000000 0.214268 0.298938
0.098472 0.211179 0.296158
0.247334 0.206976 0.292259
0.421769 0.202104 0.287568
0.606895 0.196997 0.282445
0.787773 0.192069 0.277297
0.949405 0.187718 0.272577
1.000000 0.184324 0.268780
1.000000 0.181990 0.266107
0.000000 0.362676 0.284806
0.081489 0.359688 0.281767
0.230785 0.355623 0.277512
0.405729 0.350913 0.272404
0.591395 0.345977 0.266840
0.772798 0.341216 0.261260
0.934901 0.337015 0.256156
1.000000 0.333738 0.252056
1.000000 0.331486 0.249173
0.000000 0.522749 0.268198
0.064966 0.519870 0.264880
0.214729 0.515953 0.260243
0.390220 0.511417 0.254687
0.576465 0.506665 0.248648
0.758434 0.502085 0.242605
0.921042 0.498044 0.237087
1.000000 0.494894 0.232661
1.000000 0.492729 0.229554
0.000000 0.683393 0.250120
0.050236 0.680622 0.246524
0.200466 0.676854 0.241504
0.376504 0.672492 0.235501
0.563329 0.667924 0.228987
0.745864 0.663524 0.222481
0.908977 0.659643 0.216550
1.000000 0.656620 0.211798
1.000000 0.654542 0.208465
0.000000 0.833356 0.231984
0.038144 0.830686 0.228128
0.188809 0.827056 0.222753
0.365355 0.822855 0.216333
0.552719 0.818459 0.209378
0.735781 0.814226 0.202441
0.899363 0.810495 0.196124
1.000000 0.807589 0.191070
1.000000 0.805593 0.187527
0.000000 0.961244 0.215564
0.029084 0.958659 0.211488
0.180118 0.955147 0.205810
0.357097 0.951084 0.199036
0.544919 0.946834 0.191706
0.728429 0.942743 0.184402
0.892411 0.939139 0.177759
1.000000 0.936333 0.172447
1.000000 0.934406 0.168725
0.000000 1.000000 0.202897
0.023135 1.000000 0.198658
0.174441 1.000000 0.192758
0.351738 1.000000 0.185724
0.539898 1.000000 0.178117
0.723736 1.000000 0.170544
0.888012 1.000000 0.163660
1.000000 1.000000 0.158158
1.000000 1.000000 0.154306
0.016492 0.000000 0.467785
0.124501 0.000000 0.465363
0.272763 0.000000 0.461956
0.446495 0.000000 0.457840
0.630875 0.000000 0.453328
0.811025 0.000000 0.448775
0.972008 0.000000 0.444587
1.000000 0.000000 0.441209
1.000000 0.000000 0.438826
0.004147 0.087020 0.460193
0.112354 0.083855 0.457609
0.260887 0.079547 0.453979
0.434937 0.074553 0.449603
0.619655 0.069316 0.444814
0.800134 0.064262 0.439992
0.961411 0.059797 0.435564
1.000000 0.056315 0.431995
1.000000 0.053919 0.429482
0.000000 0.212848 0.449076
0.096817 0.209769 0.446272
0.245720 0.205579 0.442340
0.420203 0.200722 0.437609
0.605379 0.195631 0.432445
0.786306 0.190719 0.427257
0.947982 0.186382 0.422501
1.000000 0.182999 0.418675
1.000000 0.180672 0.415983
0.000000 0.361303 0.434825
0.079979 0.358324 0.431762
0.229316 0.354272 0.427473
0.404308 0.349577 0.422327
0.590024 0.344657 0.416721
0.771477 0.339913 0.411101
0.933623 0.335725 0.405961
1.000000 0.332460 0.401832
1.000000 0.330215 0.398930
0.000000 0.521426 0.418089
0.063612 0.518556 0.414747
0.213416 0.514652 0.410076
0.388955 0.510131 0.404482
0.575250 0.505396 0.398401
0.757269 0.500831 0.392318
0.919920 0.496803 0.386764
1.000000 0.493665 0.382310
1.000000 0.491507 0.379183
0.000000 0.682120 0.399884
0.049039 0.679358 0.396263
0.199310 0.675603 0.391210
0.375395 0.671255 0.385168
0.562270 0.666704 0.378613
0.744855 0.662319 0.372067
0.908011 0.658453 0.366099
1.000000 0.655440 0.361319
1.000000 0.653371 0.357966
0.000000 0.832129 0.381628
0.037092 0.829468 0.377748
0.187797 0.825851 0.372339
0.364391 0.821665 0.365881
0.551805 0.817285 0.358884
0.734917 0.813068 0.351907
0.898543 0.809351 0.345555
1.000000 0.806456 0.340472
1.000000 0.804468 0.336909
0.000000 0.960056 0.365107
0.028155 0.957480 0.361007
0.179230 0.953981 0.355296
0.356257 0.949933 0.348483
0.544129 0.945699 0.341111
0.727688 0.941624 0.333767
0.891714 0.938034 0.327088
1.000000 0.935239 0.321747
1.000000 0.933320 0.318006
0.000000 1.000000 0.352366
0.022297 1.000000 0.348103
0.173644 1.000000 0.342169
0.350989 1.000000 0.335096
0.539199 1.000000 0.327448
0.723087 1.000000 0.319835
0.887407 1.000000 0.312914
1.000000 1.000000 0.307385
1.000000 1.000000 0.303512
0.014551 0.000000 0.622601
0.122590 0.000000 0.620155
0.270893 0.000000 0.616713
0.444675 0.000000 0.612558
0.629107 0.000000 0.608002
0.809308 0.000000 0.603408
0.970336 0.000000 0.599183
1.000000 0.000000 0.595775
1.000000 0.000000 0.593373
0.002299 0.085522 0.614933
0.110536 0.082367 0.612324
0.259111 0.078073 0.608660
0.433211 0.073094 0.604244
0.617980 0.067874 0.599412
0.798510 0.062835 0.594549
0.959832 0.058385 0.590083
1.000000 0.054914 0.586486
1.000000 0.052526 0.583952
0.000000 0.211391 0.603712
0.095127 0.208322 0.600883
0.244071 0.204145 0.596916
0.418603 0.199304 0.592146
0.603831 0.194229 0.586939
0.784809 0.189333 0.581709
0.946530 0.185010 0.576916
1.000000 0.181639 0.573061
1.000000 0.179320 0.570349
0.000000 0.359893 0.589338
0.078439 0.356924 0.586250
0.227818 0.352885 0.581927
0.402858 0.348206 0.576741
0.588626 0.343303 0.571092
0.770130 0.338574 0.565431
0.932321 0.334401 0.560254
1.000000 0.331147 0.556096
1.000000 0.328910 0.553173
0.000000 0.520067 0.572470
0.062232 0.517207 0.569103
0.212078 0.513317 0.564398
0.387665 0.508811 0.558764
0.574013 0.504092 0.552641
0.756082 0.499543 0.546516
0.918779 0.495531 0.540925
1.000000 0.492403 0.536442
1.000000 0.490254 0.533294
0.000000 0.680812 0.554133
0.047820 0.678060 0.550488
0.198133 0.674318 0.545401
0.374267 0.669987 0.539318
0.561194 0.665452 0.532721
0.743829 0.661083 0.526133
0.907031 0.657231 0.520128
1.000000 0.654230 0.515319
1.000000 0.652168 0.511946
0.000000 0.830869 0.535755
0.036022 0.828217 0.531850
0.186770 0.824614 0.526407
0.363412 0.820444 0.519909
0.550879 0.816081 0.512870
0.734041 0.811879 0.505851
0.897712 0.808177 0.499461
1.000000 0.805293 0.494349
1.000000 0.803313 0.490766
0.000000 0.958837 0.519130
0.027213 0.956271 0.515005
0.178330 0.952785 0.509260
0.355405 0.948752 0.502407
0.543330 0.944535 0.494992
0.726940 0.940476 0.487607
0.891011 0.936900 0.480890
1.000000 0.934117 0.475521
1.000000 0.932206 0.471759
0.000000 1.000000 0.506312
0.021449 1.000000 0.502024
0.172837 1.000000 0.496057
0.350231 1.000000 0.488943
0.538493 1.000000 0.481253
0.722432 1.000000 0.473598
0.886797 1.000000 0.466640
1.000000 1.000000 0.461081
1.000000 1.000000 0.457189
0.012670 0.000000 0.773645
0.120739 0.000000 0.771174
0.269083 0.000000 0.767699
0.442912 0.000000 0.763504
0.627395 0.000000 0.758907
0.807646 0.000000 0.754272
0.968718 0.000000 0.750011
1.000000 0.000000 0.746575
1.000000 0.000000 0.744152
0.000509 0.084065 0.765901
0.108777 0.080920 0.763268
0.257392 0.076638 0.759571
0.431540 0.071675 0.755115
0.616360 0.066470 0.750242
0.796940 0.061448 0.745338
0.958306 0.057012 0.740836
1.000000 0.053552 0.737210
1.000000 0.051171 0.734657
0.000000 0.209974 0.754579
0.093491 0.206914 0.751725
0.242476 0.202750 0.747725
0.417056 0.197924 0.742916
0.602335 0.192865 0.737667
0.783362 0.187985 0.732397
0.945128 0.183676 0.727568
1.000000 0.180316 0.723684
1.000000 0.178005 0.720952
0.000000 0.358522 0.740085
0.076949 0.355563 0.736973
0.226369 0.351537 0.732617
0.401457 0.346873 0.727391
0.587276 0.341986 0.721701
0.768829 0.337273 0.715999
0.931065 0.333113 0.710786
1.000000 0.329871 0.706599
1.000000 0.327641 0.703657
0.000000 0.518746 0.723089
0.060900 0.515895 0.719697
0.210786 0.512018 0.714959
0.386422 0.507528 0.709286
0.572820 0.502825 0.703121
0.754939 0.498292 0.696956
0.917680 0.494293 0.691329
1.000000 0.491177 0.686817
1.000000 0.489035 0.683649
0.000000 0.679541 0.704624
0.046644 0.676798 0.700953
0.196998 0.673069 0.695833
0.373180 0.668753 0.689712
0.560158 0.664234 0.683072
0.742843 0.659881 0.676444
0.906089 0.656043 0.670403
1.000000 0.653053 0.665566
1.000000 0.650999 0.662173
0.000000 0.829644 0.686126
0.034993 0.827002 0.682197
0.185781 0.823411 0.676720
0.362472 0.819257 0.670182
0.549989 0.814910 0.663102
0.733200 0.810724 0.656043
0.896916 0.807035 0.649617
1.000000 0.804163 0.644476
1.000000 0.802190 0.640874
0.000000 0.957651 0.669400
0.026308 0.955095 0.665249
0.177465 0.951622 0.659471
0.354589 0.947605 0.652579
0.542564 0.943403 0.645123
0.726223 0.939360 0.637697
0.890339 0.935798 0.630944
1.000000 0.933026 0.625546
1.000000 0.931123 0.621765
0.000000 1.000000 0.656507
0.020635 1.000000 0.652194
0.172064 1.000000 0.646193
0.349505 1.000000 0.639041
0.537818 1.000000 0.631308
0.721807 1.000000 0.623613
0.886216 1.000000 0.616619
1.000000 1.000000 0.611032
1.000000 1.000000 0.607120
0.010951 0.000000 0.912640
0.119048 0.000000 0.910147
0.267430 0.000000 0.906641
0.441303 0.000000 0.902410
0.625832 0.000000 0.897775
0.806128 0.000000 0.893103
0.967241 0.000000 0.888809
1.000000 0.000000 0.885346
1.000000 0.000000 0.882905
0.000000 0.082728 0.904828
0.107169 0.079591 0.902172
0.255823 0.075322 0.898444
0.430014 0.070373 0.893953
0.614881 0.065183 0.889041
0.795506 0.060175 0.884100
0.956913 0.055752 0.879565
1.000000 0.052302 0.875913
1.000000 0.049928 0.873341
0.000000 0.208673 0.893412
0.091998 0.205622 0.890536
0.241021 0.201470 0.886505
0.415645 0.196658 0.881660
0.600971 0.191614 0.876373
0.782043 0.186748 0.871065
0.943849 0.182452 0.866203
1.000000 0.179102 0.862293
1.000000 0.176798 0.859543
0.000000 0.357264 0.878808
0.075591 0.354313 0.875673
0.225048 0.350300 0.871287
0.400180 0.345649 0.866025
0.586045 0.340777 0.860297
0.767644 0.336079 0.854558
0.929921 0.331932 0.849311
1.000000 0.328700 0.845098
1.000000 0.326477 0.842138
0.000000 0.517534 0.861694
0.059686 0.514692 0.858280
0.209610 0.510827 0.853511
0.385289 0.506350 0.847801
0.571734 0.501662 0.841598
0.753899 0.497144 0.835396
0.916680 0.493158 0.829736
1.000000 0.490052 0.825197
1.000000 0.487917 0.822012
0.000000 0.678375 0.843110
0.045574 0.675641 0.839418
0.195966 0.671924 0.834266
0.372192 0.667622 0.828109
0.559216 0.663118 0.821431
0.741947 0.658779 0.814766
0.905233 0.654954 0.808692
1.000000 0.651975 0.803828
1.000000 0.649927 0.800417
0.000000 0.828521 0.824503
0.034057 0.825887 0.820551
0.184883 0.822309 0.815044
0.361618 0.818168 0.808470
0.549182 0.813836 0.801351
0.732439 0.809665 0.794254
0.896195 0.805989 0.787795
1.000000 0.803127 0.782629
1.000000 0.801161 0.779008
0.000000 0.956564 0.807683
0.025487 0.954017 0.803510
0.176682 0.950555 0.797701
0.353849 0.946552 0.790773
0.541871 0.942366 0.783278
0.725576 0.938337 0.775815
0.889732 0.934788 0.769029
1.000000 0.932026 0.763605
1.000000 0.930130 0.759806
0.000000 1.000000 0.794721
0.019898 1.000000 0.790386
0.171365 1.000000 0.784354
0.348850 1.000000 0.777166
0.537210 1.000000 0.769395
0.721243 1.000000 0.761662
0.885694 1.000000 0.754636
1.000000 1.000000 0.749022
1.000000 1.000000 0.745091
0.009493 0.000000 1.000000
0.117613 0.000000 1.000000
0.266027 0.000000 1.000000
0.439938 0.000000 1.000000
0.624507 0.000000 1.000000
0.804842 0.000000 1.000000
0.965989 0.000000 1.000000
1.000000 0.000000 1.000000
1.000000 0.000000 1.000000
0.000000 0.081590 1.000000
0.105806 0.078460 1.000000
0.254492 0.074201 1.000000
0.428721 0.069263 1.000000
0.613628 0.064087 1.000000
0.794292 0.059091 1.000000
0.955733 0.054679 0.998013
1.000000 0.051237 0.994338
1.000000 0.048870 0.991751
0.000000 0.207565 1.000000
0.090733 0.204522 1.000000
0.239788 0.200380 1.000000
0.414449 0.195580 1.000000
0.599815 0.190549 0.994801
0.780926 0.185695 0.989461
0.942767 0.181411 0.984571
1.000000 0.178069 0.980639
1.000000 0.175771 0.977873
0.000000 0.356193 0.997252
0.074440 0.353250 0.994097
0.223929 0.349246 0.989684
0.399099 0.344608 0.984392
0.585004 0.339748 0.978631
0.766642 0.335062 0.972860
0.928953 0.330927 0.967585
1.000000 0.327703 0.963350
1.000000 0.325486 0.960374
0.000000 0.516502 0.980036
0.058658 0.513667 0.976603
0.208615 0.509812 0.971808
0.384331 0.505348 0.966067
0.570816 0.500673 0.959832
0.753020 0.496167 0.953598
0.915836 0.492192 0.947909
1.000000 0.489094 0.943348
1.000000 0.486965 0.940147
0.000000 0.677382 0.961351
0.044670 0.674656 0.957640
0.195094 0.670949 0.952462
0.371357 0.666658 0.946274
0.558422 0.662167 0.939564
0.741191 0.657841 0.932866
0.904512 0.654027 0.926764
1.000000 0.651056 0.921878
1.000000 0.649015 0.918451
0.000000 0.827564 0.942650
0.033268 0.824939 0.938679
0.184126 0.821370 0.933145
0.360898 0.817241 0.926541
0.548502 0.812922 0.919389
0.731798 0.808763 0.912261
0.895589 0.805098 0.905773
1.000000 0.802245 0.900584
1.000000 0.800285 0.896948
0.000000 0.955639 0.925750
0.024795 0.953099 0.921558
0.176022 0.949648 0.915722
0.353227 0.945657 0.908764
0.541289 0.941483 0.901237
0.725032 0.937466 0.893742
0.889223 0.933929 0.886927
1.000000 0.931175 0.881481
1.000000 0.929285 0.877666
0.000000 1.000000 0.912729
0.019278 1.000000 0.908376
0.170777 1.000000 0.902317
0.348300 1.000000 0.895098
0.536699 1.000000 0.887295
0.720772 1.000000 0.879530
0.885257 1.000000 0.872475
1.000000 1.000000 0.866839
1.000000 1.000000 0.863151
