waxal-templates/luts/waxal-harmattan.cube
TITLE "Waxal Harmattan"
# Original Waxal look — generated color math, no third-party data
LUT_3D_SIZE 9
0.158445 0.153576 0.147960
0.247196 0.155876 0.150443
0.330838 0.158059 0.152784
0.415577 0.160285 0.155158
0.507623 0.162720 0.157737
0.609505 0.165435 0.160594
0.712288 0.168196 0.163479
0.815109 0.170979 0.166366
0.917967 0.173786 0.169256
0.165501 0.245363 0.156088
0.254344 0.247719 0.158578
0.338073 0.249954 0.160926
0.422899 0.252233 0.163307
0.515041 0.254725 0.165894
0.617029 0.257504 0.168759
0.719918 0.260330 0.171651
0.822845 0.263178 0.174547
0.925810 0.266048 0.177445
0.172423 0.331986 0.163765
0.261353 0.334394 0.166262
0.345163 0.336678 0.168617
0.430072 0.339007 0.171004
0.522304 0.341554 0.173598
0.624391 0.344393 0.176471
0.727380 0.347279 0.179371
0.830408 0.350187 0.182274
0.933473 0.353119 0.185180
0.179672 0.419484 0.171527
0.268689 0.421945 0.174031
0.352582 0.424279 0.176392
0.437574 0.426658 0.178785
0.529896 0.429260 0.181386
0.632083 0.432159 0.184267
0.735174 0.435106 0.187175
0.838302 0.438076 0.190086
0.941468 0.441069 0.193000
0.187786 0.513943 0.179913
0.276897 0.516461 0.182425
0.360879 0.518849 0.184793
0.445961 0.521283 0.187193
0.538381 0.523943 0.189802
0.640676 0.526909 0.192691
0.743875 0.529921 0.195608
0.847112 0.532957 0.198527
0.950387 0.536015 0.201450
0.197172 0.619140 0.189262
0.286389 0.621721 0.191782
0.370469 0.624169 0.194157
0.455650 0.626663 0.196565
0.548179 0.629389 0.199183
0.650594 0.632427 0.202081
0.753914 0.635513 0.205007
0.857272 0.638621 0.207936
0.960668 0.641753 0.210868
0.207104 0.726217 0.198788
0.296426 0.728862 0.201316
0.380606 0.731370 0.203699
0.465889 0.733926 0.206115
0.558528 0.736719 0.208741
0.661065 0.739830 0.211649
0.764508 0.742990 0.214585
0.867989 0.746173 0.217523
0.971508 0.749379 0.220465
0.217436 0.833536 0.208345
0.306865 0.836246 0.210881
0.391145 0.838815 0.213272
0.476530 0.841432 0.215696
0.569278 0.844291 0.218331
0.671937 0.847476 0.221248
0.775503 0.850711 0.224194
0.879107 0.853968 0.227142
0.982748 0.857248 0.230093
0.228170 0.941099 0.217933
0.317705 0.943873 0.220478
0.402085 0.946502 0.222877
0.487571 0.949180 0.225309
0.580430 0.952106 0.227952
0.683210 0.955365 0.230879
0.786899 0.958674 0.233834
0.890626 0.962005 0.236791
0.994390 0.965360 0.239752
0.159117 0.154305 0.229713
0.247877 0.156610 0.232197
0.331527 0.158798 0.234539
0.416274 0.161029 0.236913
0.508330 0.163469 0.239493
0.610222 0.166190 0.242351
0.713016 0.168958 0.245236
0.815847 0.171748 0.248124
0.918715 0.174560 0.251015
0.166202 0.246109 0.237843
0.255054 0.248470 0.240334
0.338792 0.250710 0.242683
0.423626 0.252994 0.245064
0.515777 0.255492 0.247652
0.617775 0.258278 0.250518
0.720675 0.261109 0.253411
0.823612 0.263963 0.256307
0.926587 0.266840 0.259206
0.173151 0.332748 0.245523
0.262090 0.335162 0.248020
0.345909 0.337451 0.250376
0.430826 0.339785 0.252763
0.523067 0.342338 0.255358
0.625165 0.345183 0.258232
0.728165 0.348075 0.261133
0.831202 0.350990 0.264037
0.934277 0.353928 0.266944
0.180428 0.420263 0.253286
0.269454 0.422729 0.255791
0.353355 0.425069 0.258153
0.438356 0.427453 0.260547
0.530688 0.430060 0.263148
0.632885 0.432966 0.266030
0.735986 0.435919 0.268939
0.839125 0.438895 0.271851
0.942301 0.441894 0.274766
0.188572 0.514741 0.261675
0.277692 0.517264 0.264187
0.361682 0.519657 0.266556
0.446773 0.522096 0.268957
0.539202 0.524762 0.271566
0.641507 0.527733 0.274456
0.744717 0.530752 0.277374
0.847964 0.533794 0.280294
0.951250 0.536859 0.283218
0.197992 0.619957 0.271027
0.287217 0.622544 0.273547
0.371305 0.624997 0.275923
0.456496 0.627496 0.278332
0.549033 0.630228 0.280950
0.651458 0.633272 0.283849
0.754789 0.636364 0.286776
0.858158 0.639479 0.289706
0.961564 0.642617 0.292639
0.207957 0.727055 0.280555
0.297288 0.729706 0.283083
0.381477 0.732219 0.285468
0.466768 0.734780 0.287884
0.559416 0.737578 0.290511
0.661963 0.740695 0.293420
0.765417 0.743862 0.296356
0.868908 0.747051 0.299296
0.972437 0.750263 0.302238
0.218323 0.834395 0.290115
0.307760 0.837110 0.292651
0.392049 0.839684 0.295043
0.477442 0.842306 0.297468
0.570200 0.845171 0.300103
0.672869 0.848362 0.303022
0.776445 0.851603 0.305968
0.880060 0.854866 0.308917
0.983711 0.858153 0.311869
0.229090 0.941977 0.299706
0.318634 0.944757 0.302251
0.403023 0.947391 0.304650
0.488517 0.950075 0.307083
0.581385 0.953006 0.309727
0.684176 0.956271 0.312655
0.787875 0.959586 0.315610
0.891613 0.962924 0.318569
0.995387 0.966285 0.321531
0.159752 0.154992 0.306709
0.248521 0.157303 0.309193
0.332179 0.159495 0.311536
0.416934 0.161731 0.313911
0.508998 0.164177 0.316492
0.610900 0.166904 0.319350
0.713703 0.169677 0.322236
0.816544 0.172473 0.325125
0.919423 0.175291 0.328016
0.166865 0.246813 0.314841
0.255726 0.249179 0.317333
0.339471 0.251424 0.319683
0.424313 0.253713 0.322064
0.516473 0.256216 0.324653
0.618481 0.259008 0.327519
0.721390 0.261845 0.330413
0.824337 0.264705 0.333310
0.927322 0.267588 0.336210
0.173840 0.333468 0.322523
0.262787 0.335886 0.325021
0.346614 0.338181 0.327377
0.431539 0.340520 0.329765
0.523789 0.343077 0.332361
0.625896 0.345929 0.335235
0.728906 0.348827 0.338137
0.831953 0.351747 0.341042
0.935038 0.354691 0.343950
0.181143 0.420998 0.330289
0.270177 0.423470 0.332794
0.354087 0.425814 0.335156
0.439095 0.428204 0.337551
0.531435 0.430816 0.340153
0.633642 0.433728 0.343036
0.736753 0.436687 0.345945
0.839902 0.439669 0.348858
0.943088 0.442673 0.351774
0.189315 0.515493 0.338680
0.278444 0.518022 0.341192
0.362441 0.520420 0.343562
0.447540 0.522863 0.345963
0.539978 0.525535 0.348573
0.642293 0.528512 0.351464
0.745512 0.531537 0.354382
0.848770 0.534584 0.357304
0.952064 0.537655 0.360228
0.198766 0.620729 0.348034
0.287999 0.623321 0.350554
0.372096 0.625778 0.352931
0.457294 0.628282 0.355341
0.549840 0.631019 0.357959
0.652275 0.634069 0.360860
0.755616 0.637167 0.363787
0.858994 0.640288 0.366718
0.962410 0.643432 0.369652
0.208763 0.727845 0.357564
0.298102 0.730501 0.360094
0.382299 0.733019 0.362478
0.467599 0.735585 0.364896
0.560255 0.738389 0.367523
0.662812 0.741512 0.370433
0.766275 0.744684 0.373370
0.869776 0.747879 0.376310
0.973315 0.751097 0.379253
0.219161 0.835205 0.367127
0.308607 0.837925 0.369664
0.392903 0.840503 0.372057
0.478304 0.843130 0.374482
0.571071 0.846001 0.377118
0.673749 0.849198 0.380037
0.777336 0.852444 0.382984
0.880960 0.855714 0.385934
0.984621 0.859006 0.388886
0.229960 0.942807 0.376720
0.319512 0.945591 0.379266
0.403909 0.948230 0.381666
0.489411 0.950919 0.384099
0.582288 0.953855 0.386744
0.685088 0.957126 0.389672
0.788797 0.960447 0.392629
0.892544 0.963791 0.395588
0.996329 0.967157 0.398551
0.160391 0.155683 0.383899
0.249168 0.157998 0.386385
0.332835 0.160196 0.388728
0.417598 0.162436 0.391103
0.509671 0.164887 0.393685
0.611583 0.167620 0.396544
0.714395 0.170399 0.399431
0.817246 0.173201 0.402320
0.920134 0.176025 0.405213
0.167532 0.247520 0.392034
0.256401 0.249892 0.394526
0.340154 0.252141 0.396876
0.425005 0.254435 0.399259
0.517173 0.256944 0.401848
0.619191 0.259741 0.404715
0.722110 0.262584 0.407610
0.825067 0.265450 0.410508
0.928061 0.268339 0.413408
0.174533 0.334191 0.399718
0.263489 0.336615 0.402217
0.347323 0.338914 0.404573
0.432257 0.341258 0.406962
0.524515 0.343821 0.409558
0.626632 0.346678 0.412433
0.729651 0.349581 0.415336
0.832708 0.352508 0.418241
0.935803 0.355457 0.421150
0.181862 0.421737 0.407485
0.270905 0.424214 0.409991
0.354822 0.426563 0.412354
0.439839 0.428957 0.414749
0.532188 0.431575 0.417353
0.634404 0.434492 0.420236
0.737525 0.437457 0.423146
0.840683 0.440445 0.426060
0.943879 0.443456 0.428976
0.190062 0.516249 0.415879
0.279199 0.518783 0.418392
0.363205 0.521185 0.420762
0.448312 0.523634 0.423164
0.540758 0.526311 0.425775
0.643083 0.529294 0.428666
0.746312 0.532325 0.431585
0.849579 0.535378 0.434507
0.952884 0.538454 0.437432
0.199545 0.621504 0.425235
0.288787 0.624101 0.427757
0.372891 0.626563 0.430134
0.458097 0.629072 0.432544
0.550652 0.631814 0.435163
0.653097 0.634870 0.438064
0.756447 0.637974 0.440993
0.859835 0.641101 0.443924
0.963261 0.644250 0.446859
0.209573 0.728640 0.434768
0.298921 0.731301 0.437298
0.383126 0.733824 0.439683
0.468434 0.736394 0.442101
0.561099 0.739203 0.444729
0.663665 0.742332 0.447640
0.767138 0.745510 0.450578
0.870649 0.748711 0.453519
0.974198 0.751935 0.456463
0.220003 0.836018 0.444333
0.309457 0.838744 0.446871
0.393762 0.841327 0.449264
0.479171 0.843959 0.451690
0.571946 0.846834 0.454327
0.674635 0.850037 0.457247
0.778231 0.853290 0.460194
0.881864 0.856565 0.463145
0.985536 0.859863 0.466098
0.230834 0.943639 0.453929
0.320395 0.946429 0.456475
0.404799 0.949073 0.458876
0.490310 0.951766 0.461310
0.583195 0.954708 0.463955
0.686005 0.957985 0.466885
0.789724 0.961312 0.469842
0.893481 0.964661 0.472802
0.997275 0.968034 0.475765
0.161076 0.156421 0.466236
0.249862 0.158742 0.468721
0.333537 0.160945 0.471065
0.418308 0.163191 0.473441
0.510391 0.165647 0.476024
0.612313 0.168386 0.478884
0.715136 0.171172 0.481771
0.817997 0.173980 0.484662
0.920896 0.176810 0.487555
0.168246 0.248277 0.474372
0.257124 0.250653 0.476865
0.340886 0.252908 0.479216
0.425745 0.255207 0.481599
0.517923 0.257722 0.484189
0.619950 0.260525 0.487057
0.722880 0.263374 0.489953
0.825847 0.266247 0.492851
0.928852 0.269142 0.495753
0.175275 0.334964 0.482058
0.264240 0.337393 0.484558
0.348083 0.339697 0.486915
0.433025 0.342046 0.489304
0.525293 0.344615 0.491901
0.627419 0.347478 0.494777
0.730449 0.350388 0.497681
0.833517 0.353321 0.500587
0.936622 0.356277 0.503497
0.182632 0.422527 0.489828
0.271684 0.425009 0.492335
0.355609 0.427363 0.494698
0.440635 0.429763 0.497094
0.532993 0.432386 0.499698
0.635220 0.435310 0.502582
0.738351 0.438281 0.505493
0.841519 0.441275 0.508408
0.944726 0.444292 0.511325
0.190862 0.517057 0.498224
0.280008 0.519596 0.500738
0.364023 0.522004 0.503108
0.449138 0.524458 0.505511
0.541594 0.527140 0.508123
0.643929 0.530129 0.511015
0.747168 0.533167 0.513935
0.850446 0.536226 0.516858
0.953761 0.539309 0.519783
0.200378 0.622332 0.507583
0.289629 0.624935 0.510105
0.373742 0.627402 0.512483
0.458957 0.629916 0.514894
0.551521 0.632664 0.517514
0.653976 0.635726 0.520416
0.757337 0.638836 0.523345
0.860735 0.641969 0.526277
0.964171 0.645125 0.529212
0.210441 0.729489 0.517119
0.299798 0.732155 0.519649
0.384011 0.734683 0.522035
0.469327 0.737259 0.524454
0.562001 0.740073 0.527082
0.664578 0.743208 0.529994
0.768062 0.746393 0.532933
0.871583 0.749601 0.535874
0.975142 0.752831 0.538819
0.220904 0.836888 0.526686
0.310368 0.839618 0.529225
0.394681 0.842207 0.531619
0.480099 0.844844 0.534045
0.572883 0.847725 0.536682
0.675582 0.850934 0.539603
0.779188 0.854193 0.542552
0.882832 0.857475 0.545503
0.986514 0.860779 0.548457
0.231769 0.944529 0.536285
0.321339 0.947324 0.538832
0.405752 0.949973 0.541233
0.491271 0.952672 0.543668
0.584166 0.955619 0.546314
0.686986 0.958902 0.549244
0.790716 0.962235 0.552202
0.894483 0.965592 0.555163
0.998287 0.968970 0.558127
0.161842 0.157245 0.557849
0.250638 0.159572 0.560336
0.334322 0.161780 0.562681
0.419103 0.164032 0.565058
0.511196 0.166495 0.567641
0.613129 0.169241 0.570502
0.715964 0.172033 0.573390
0.818837 0.174848 0.576281
0.921747 0.177686 0.579175
0.169044 0.249120 0.565989
0.257932 0.251503 0.568483
0.341703 0.253763 0.570834
0.426572 0.256068 0.573218
0.518760 0.258589 0.575809
0.620799 0.261399 0.578678
0.723741 0.264255 0.581574
0.826719 0.267135 0.584474
0.929736 0.270037 0.587376
0.176104 0.335826 0.573677
0.265079 0.338261 0.576178
0.348931 0.340571 0.578536
0.433883 0.342926 0.580926
0.526161 0.345501 0.583523
0.628299 0.348371 0.586400
0.731341 0.351288 0.589305
0.834420 0.354228 0.592212
0.937536 0.357191 0.595122
0.183492 0.423408 0.581449
0.272554 0.425896 0.583957
0.356489 0.428256 0.586321
0.441524 0.430661 0.588718
0.533892 0.433291 0.591323
0.636131 0.436222 0.594207
0.739273 0.439200 0.597120
0.842453 0.442201 0.600035
0.945671 0.445225 0.602953
0.191756 0.517959 0.589848
0.280912 0.520504 0.592363
0.364936 0.522917 0.594734
0.450060 0.525377 0.597137
0.542526 0.528065 0.599750
0.644873 0.531061 0.602643
0.748124 0.534105 0.605564
0.851413 0.537172 0.608487
0.954740 0.540262 0.611414
0.201309 0.623256 0.599210
0.290570 0.625864 0.601733
0.374692 0.628337 0.604112
0.459916 0.630857 0.606523
0.552491 0.633611 0.609144
0.654958 0.636680 0.612046
0.758330 0.639797 0.614977
0.861740 0.642938 0.617910
0.965187 0.646100 0.620846
0.211409 0.730435 0.608749
0.300776 0.733108 0.611280
0.384999 0.735641 0.613667
0.470324 0.738223 0.616086
0.563009 0.741043 0.618715
0.665598 0.744186 0.621628
0.769093 0.747377 0.624567
0.872625 0.750592 0.627510
0.976196 0.753829 0.630456
0.221911 0.837857 0.618319
0.311384 0.840594 0.620858
0.395707 0.843188 0.623253
0.481134 0.845831 0.625680
0.573929 0.848718 0.628318
0.676639 0.851934 0.631240
0.780257 0.855200 0.634189
0.883912 0.858489 0.637142
0.987606 0.861800 0.640097
0.232814 0.945522 0.627920
0.322393 0.948323 0.630468
0.406816 0.950977 0.632871
0.492344 0.953682 0.635306
0.585249 0.956635 0.637952
0.688081 0.959925 0.640884
0.791822 0.963266 0.643843
0.895601 0.966629 0.646804
0.999417 0.970014 0.649769
0.162633 0.158094 0.652110
0.251439 0.160428 0.654597
0.335133 0.162642 0.656943
0.419924 0.164900 0.659320
0.512028 0.167369 0.661904
0.613973 0.170122 0.664766
0.716819 0.172922 0.667655
0.819704 0.175744 0.670547
0.922626 0.178589 0.673442
0.169869 0.249990 0.660252
0.258767 0.252379 0.662746
0.342548 0.254646 0.665099
0.427427 0.256956 0.667483
0.519626 0.259483 0.670075
0.621676 0.262301 0.672945
0.724630 0.265164 0.675842
0.827620 0.268051 0.678742
0.930649 0.270960 0.681646
0.176960 0.336715 0.667942
0.265945 0.339157 0.670444
0.349808 0.341473 0.672802
0.434769 0.343833 0.675193
0.527058 0.346415 0.677792
0.629208 0.349292 0.680670
0.732261 0.352216 0.683575
0.835352 0.355163 0.686483
0.938481 0.358133 0.689394
0.184380 0.424317 0.675717
0.273453 0.426811 0.678226
0.357397 0.429177 0.680591
0.442442 0.431588 0.682988
0.534821 0.434224 0.685594
0.637072 0.437162 0.688479
0.740226 0.440147 0.691392
0.843418 0.443156 0.694309
0.946648 0.446187 0.697228
0.192679 0.518888 0.684118
0.281845 0.521439 0.686634
0.365879 0.523859 0.689006
0.451013 0.526324 0.691410
0.543490 0.529019 0.694023
0.645848 0.532022 0.696918
0.749111 0.535074 0.699839
0.852412 0.538148 0.702764
0.955751 0.541245 0.705691
0.202270 0.624208 0.693483
0.291541 0.626823 0.696007
0.375673 0.629302 0.698387
0.460908 0.631828 0.700799
0.553493 0.634589 0.703420
0.655971 0.637664 0.706324
0.759355 0.640789 0.709255
0.862777 0.643936 0.712189
0.966237 0.647106 0.715126
0.212409 0.731411 0.703025
0.301787 0.734090 0.705557
0.386019 0.736630 0.707945
0.471354 0.739217 0.710365
0.564050 0.742044 0.712995
0.666650 0.745194 0.715908
0.770157 0.748392 0.718849
0.873702 0.751614 0.721792
0.977284 0.754858 0.724739
0.222950 0.838857 0.712598
0.312433 0.841600 0.715139
0.396766 0.844200 0.717534
0.482203 0.846848 0.719962
0.575008 0.849742 0.722601
0.677730 0.852965 0.725523
0.781360 0.856239 0.728474
0.885028 0.859535 0.731427
0.988733 0.862853 0.734383
0.233891 0.946545 0.722203
0.323481 0.949352 0.724752
0.407914 0.952013 0.727155
0.493452 0.954723 0.729591
0.586368 0.957683 0.732238
0.689212 0.960980 0.735170
0.792964 0.964328 0.738130
0.896755 0.967698 0.741093
1.000000 0.971091 0.744059
0.163428 0.158946 0.746370
0.252244 0.161286 0.748858
0.335948 0.163506 0.751205
0.420749 0.165770 0.753583
0.512863 0.168245 0.756168
0.614820 0.171006 0.759031
0.717679 0.173812 0.761921
0.820575 0.176642 0.764814
0.923509 0.179494 0.767710
0.170698 0.250863 0.754515
0.259606 0.253258 0.757010
0.343397 0.255530 0.759363
0.428285 0.257847 0.761748
0.520495 0.260380 0.764341
0.622557 0.263205 0.767212
0.725522 0.266076 0.770110
0.828525 0.268969 0.773012
0.931565 0.271886 0.775916
0.177821 0.337607 0.762208
0.266816 0.340054 0.764710
0.350688 0.342376 0.767070
0.435659 0.344743 0.769461
0.527959 0.347331 0.772061
0.630121 0.350215 0.774939
0.733186 0.353147 0.777846
0.836289 0.356101 0.780755
0.939429 0.359078 0.783667
0.185273 0.425228 0.769985
0.274355 0.427728 0.772494
0.358310 0.430100 0.774860
0.443364 0.432517 0.777258
0.535754 0.435159 0.779865
0.638016 0.438104 0.782752
0.741183 0.441097 0.785666
0.844386 0.444113 0.788583
0.947628 0.447151 0.791503
0.193605 0.519820 0.778389
0.282782 0.522377 0.780905
0.366825 0.524802 0.783278
0.451970 0.527274 0.785683
0.544457 0.529975 0.788297
0.646827 0.532986 0.791193
0.750102 0.536044 0.794115
0.853415 0.539126 0.797041
0.956766 0.542230 0.799969
0.203235 0.625163 0.787757
0.292517 0.627784 0.790281
0.376658 0.630269 0.792662
0.461902 0.632801 0.795075
0.554498 0.635568 0.797697
0.656988 0.638651 0.800602
0.760385 0.641783 0.803534
0.863818 0.644937 0.806469
0.967290 0.648114 0.809407
0.213413 0.732390 0.797302
0.302801 0.735075 0.799835
0.387043 0.737620 0.802223
0.472388 0.740213 0.804644
0.565094 0.743047 0.807275
0.667706 0.746204 0.810189
0.771225 0.749410 0.813131
0.874782 0.752638 0.816075
0.978376 0.755890 0.819023
0.223993 0.839859 0.806878
0.313487 0.842608 0.809419
0.397828 0.845214 0.811815
0.483275 0.847868 0.814244
0.576092 0.850769 0.816884
0.678825 0.853999 0.819807
0.782467 0.857279 0.822759
0.886147 0.860582 0.825713
0.989864 0.863908 0.828670
0.234973 0.947570 0.816486
0.324573 0.950384 0.819035
0.409015 0.953050 0.821439
0.494564 0.955766 0.823876
0.587490 0.958733 0.826524
0.690346 0.962037 0.829457
0.794110 0.965392 0.832418
0.897913 0.968769 0.835382
1.000000 0.972169 0.838348
0.164226 0.159801 0.840631
0.253053 0.162147 0.843120
0.336767 0.164372 0.845467
0.421577 0.166642 0.847846
0.513702 0.169124 0.850432
0.615671 0.171892 0.853296
0.718542 0.174706 0.856187
0.821450 0.177542 0.859080
0.924395 0.180401 0.861977
0.171530 0.251737 0.848778
0.260449 0.254139 0.851274
0.344249 0.256417 0.853628
0.429147 0.258740 0.856014
0.521368 0.261279 0.858607
0.623442 0.264111 0.861479
0.726419 0.266989 0.864379
0.829434 0.269890 0.867281
0.932486 0.272814 0.870186
0.178685 0.338501 0.856474
0.267690 0.340955 0.858977
0.351572 0.343282 0.861337
0.436553 0.345655 0.863729
0.528863 0.348249 0.866330
0.631037 0.351141 0.869209
0.734114 0.354079 0.872116
0.837229 0.357041 0.875026
0.940381 0.360025 0.877939
0.186169 0.426141 0.864254
0.275262 0.428648 0.866764
0.359226 0.431025 0.869130
0.444290 0.433448 0.871529
0.536691 0.436097 0.874136
0.638965 0.439049 0.877024
0.742143 0.442049 0.879939
0.845359 0.445072 0.882857
0.948612 0.448117 0.885778
0.194536 0.520754 0.872660
0.283723 0.523317 0.875177
0.367776 0.525748 0.877551
0.452930 0.528226 0.879957
0.545428 0.530934 0.882572
0.647810 0.533951 0.885468
0.751097 0.537017 0.888391
0.854422 0.540106 0.891318
0.957784 0.543217 0.894247
0.204204 0.626121 0.882031
0.293496 0.628748 0.884556
0.377647 0.631238 0.886938
0.462901 0.633776 0.889351
0.555508 0.636550 0.891975
0.658010 0.639640 0.894880
0.761418 0.642779 0.897813
0.864863 0.645940 0.900749
0.968347 0.649125 0.903688
0.214421 0.733370 0.891579
0.303819 0.736062 0.894113
0.388070 0.738613 0.896502
0.473426 0.741212 0.898923
0.566143 0.744052 0.901555
0.668766 0.747216 0.904470
0.772297 0.750429 0.907413
0.875866 0.753665 0.910358
0.979472 0.756924 0.913307
0.225039 0.840863 0.901158
0.314543 0.843618 0.903700
0.398895 0.846230 0.906097
0.484352 0.848891 0.908527
0.577179 0.851797 0.911167
0.679924 0.855035 0.914092
0.783578 0.858322 0.917044
0.887269 0.861633 0.919999
0.990998 0.864966 0.922957
0.236059 0.948598 0.910769
0.325669 0.951418 0.913319
0.410121 0.954090 0.915724
0.495679 0.956812 0.918161
0.588616 0.959785 0.920810
0.691483 0.963097 0.923744
0.795260 0.966458 0.926706
0.899074 0.969843 0.929671
1.000000 0.973250 0.932638
