waxal-templates/luts/waxal-dakar-84.cube
TITLE "Waxal Dakar 84"
# Original Waxal look — generated color math, no third-party data
LUT_3D_SIZE 9
0.124400 0.132269 0.130620
0.220034 0.135612 0.133903
0.304967 0.138603 0.136821
0.389871 0.141615 0.139741
0.485434 0.145030 0.143031
0.594949 0.148976 0.146805
0.705260 0.152987 0.150611
0.815611 0.157035 0.154422
0.926004 0.161121 0.158239
0.136924 0.231749 0.141286
0.232659 0.235183 0.144583
0.317680 0.238255 0.147514
0.402673 0.241347 0.150447
0.498335 0.244853 0.153750
0.607965 0.248904 0.157540
0.718390 0.253020 0.161362
0.828856 0.257173 0.165190
0.939363 0.261363 0.169023
0.148322 0.320367 0.150799
0.244145 0.323882 0.154109
0.329245 0.327026 0.157051
0.414316 0.330190 0.159994
0.510067 0.333777 0.163311
0.619797 0.337920 0.167115
0.730325 0.342130 0.170951
0.840893 0.346376 0.174793
0.951502 0.350659 0.178640
0.159858 0.408342 0.160254
0.255769 0.411937 0.163576
0.340947 0.415152 0.166529
0.426096 0.418387 0.169483
0.521934 0.422054 0.172812
0.631765 0.426289 0.176630
0.742393 0.430591 0.180480
0.853063 0.434929 0.184336
0.963773 0.439305 0.188198
0.172922 0.506001 0.170762
0.268930 0.509684 0.174098
0.354193 0.512978 0.177063
0.439428 0.516292 0.180029
0.535363 0.520047 0.183371
0.645306 0.524384 0.187205
0.756046 0.528788 0.191071
0.866827 0.533228 0.194943
0.977648 0.537706 0.198820
0.188435 0.619462 0.182987
0.284555 0.623248 0.186338
0.369919 0.626633 0.189317
0.455254 0.630038 0.192297
0.551301 0.633896 0.195655
0.661372 0.638350 0.199507
0.772241 0.642872 0.203391
0.883152 0.647431 0.207281
0.994103 0.652028 0.211176
0.204653 0.735370 0.195492
0.300888 0.739260 0.198859
0.386353 0.742739 0.201853
0.471789 0.746236 0.204847
0.567951 0.750199 0.208221
0.678152 0.754773 0.212091
0.789154 0.759415 0.215994
0.900196 0.764095 0.219902
1.000000 0.768811 0.223816
0.221297 0.851667 0.208057
0.317646 0.855663 0.211441
0.403213 0.859234 0.214448
0.488751 0.862825 0.217457
0.585027 0.866891 0.220847
0.695359 0.871585 0.224735
0.806493 0.876348 0.228657
0.917667 0.881148 0.232583
1.000000 0.885985 0.236516
0.238368 0.968355 0.220683
0.334831 0.972455 0.224082
0.420500 0.976119 0.227104
0.506139 0.979802 0.230127
0.602529 0.983974 0.233533
0.712993 0.988787 0.237440
0.824258 0.993670 0.241379
0.935564 0.998591 0.245324
1.000000 1.000000 0.249275
0.125614 0.133330 0.217731
0.221259 0.136682 0.221016
0.306200 0.139681 0.223935
0.391113 0.142701 0.226857
0.486686 0.146125 0.230148
0.596212 0.150081 0.233923
0.706534 0.154103 0.237731
0.816897 0.158161 0.241544
0.927300 0.162257 0.245362
0.138171 0.232839 0.228402
0.233915 0.236282 0.231701
0.318945 0.239362 0.234633
0.403946 0.242462 0.237566
0.499618 0.245977 0.240871
0.609259 0.250038 0.244663
0.719696 0.254164 0.248486
0.830173 0.258327 0.252316
0.940692 0.262528 0.256150
0.149597 0.321483 0.237919
0.245430 0.325007 0.241230
0.330538 0.328159 0.244174
0.415618 0.331331 0.247118
0.511378 0.334927 0.250436
0.621120 0.339080 0.254241
0.731659 0.343300 0.258079
0.842238 0.347556 0.261923
0.952859 0.351850 0.265772
0.161161 0.409484 0.247378
0.257082 0.413087 0.250702
0.342268 0.416311 0.253656
0.427426 0.419554 0.256611
0.523274 0.423229 0.259941
0.633116 0.427475 0.263761
0.743756 0.431786 0.267613
0.854436 0.436135 0.271470
0.965157 0.440521 0.275333
0.174255 0.507170 0.257890
0.270273 0.510863 0.261227
0.355545 0.514165 0.264193
0.440789 0.517487 0.267161
0.536734 0.521251 0.270505
0.646687 0.525598 0.274340
0.757439 0.530012 0.278207
0.868231 0.534463 0.282081
0.979064 0.538951 0.285960
0.189804 0.620664 0.270120
0.285935 0.624459 0.273472
0.371307 0.627852 0.276453
0.456650 0.631265 0.279434
0.552707 0.635132 0.282793
0.662789 0.639597 0.286647
0.773670 0.644129 0.290532
0.884592 0.648698 0.294424
0.995554 0.653305 0.298321
0.206059 0.736605 0.282630
0.302303 0.740505 0.285999
0.387777 0.743991 0.288993
0.473222 0.747497 0.291989
0.569393 0.751468 0.295364
0.679606 0.756052 0.299236
0.790619 0.760705 0.303140
0.901673 0.765395 0.307050
1.000000 0.770122 0.310966
0.222739 0.852936 0.295201
0.319098 0.856941 0.298586
0.404674 0.860520 0.301594
0.490220 0.864118 0.304604
0.586506 0.868194 0.307996
0.696850 0.872898 0.311886
0.807994 0.877671 0.315808
0.919180 0.882481 0.319737
1.000000 0.887329 0.323671
0.239846 0.969657 0.307831
0.336320 0.973766 0.311232
0.421997 0.977438 0.314255
0.507645 0.981129 0.317279
0.604045 0.985310 0.320686
0.714520 0.990133 0.324595
0.825796 0.995027 0.328536
0.937113 0.999957 0.332483
1.000000 1.000000 0.336435
0.126697 0.134276 0.295168
0.222350 0.137636 0.298453
0.307299 0.140642 0.301374
0.392220 0.143668 0.304297
0.487801 0.147100 0.307589
0.597338 0.151066 0.311366
0.707670 0.155097 0.315175
0.818042 0.159164 0.318989
0.928456 0.163269 0.322809
0.139282 0.233810 0.305843
0.235035 0.237261 0.309142
0.320072 0.240348 0.312076
0.405081 0.243456 0.315010
0.500762 0.246978 0.318317
0.610413 0.251048 0.322110
0.720859 0.255184 0.325934
0.831347 0.259356 0.329765
0.941875 0.263566 0.333601
0.150733 0.322478 0.315364
0.246574 0.326009 0.318676
0.331690 0.329168 0.321620
0.416778 0.332347 0.324566
0.512547 0.335951 0.327884
0.622299 0.340114 0.331692
0.732848 0.344342 0.335531
0.843437 0.348608 0.339375
0.954067 0.352911 0.343226
0.162322 0.410501 0.324826
0.258251 0.414112 0.328150
0.343445 0.417343 0.331105
0.428610 0.420593 0.334062
0.524467 0.424276 0.337393
0.634319 0.428531 0.341214
0.744969 0.432852 0.345068
0.855659 0.437210 0.348927
0.966391 0.441605 0.352791
0.175443 0.508213 0.335342
0.271470 0.511913 0.338680
0.356750 0.515222 0.341647
0.442001 0.518551 0.344616
0.537955 0.522323 0.347961
0.647918 0.526679 0.351797
0.758680 0.531102 0.355666
0.869482 0.535562 0.359541
0.980325 0.540060 0.363421
0.191024 0.621735 0.347576
0.287163 0.625538 0.350929
0.372543 0.628939 0.353911
0.457894 0.632359 0.356893
0.553960 0.636233 0.360254
0.664052 0.640707 0.364109
0.774943 0.645248 0.367996
0.885875 0.649827 0.371888
0.996847 0.654443 0.375787
0.207311 0.737706 0.360091
0.303564 0.741614 0.363461
0.389046 0.745107 0.366456
0.474499 0.748620 0.369453
0.570679 0.752599 0.372830
0.680901 0.757192 0.376703
0.791924 0.761854 0.380608
0.902988 0.766553 0.384520
1.000000 0.771289 0.388437
0.224024 0.854067 0.372666
0.320392 0.858079 0.376052
0.405975 0.861665 0.379062
0.491529 0.865271 0.382073
0.587824 0.869355 0.385465
0.698177 0.874067 0.389357
0.809332 0.878850 0.393281
0.920527 0.883669 0.397210
1.000000 0.888526 0.401146
0.241163 0.970817 0.385301
0.337646 0.974934 0.388703
0.423330 0.978613 0.391727
0.508986 0.982312 0.394752
0.605395 0.986500 0.398160
0.715880 0.991332 0.402070
0.827166 0.996235 0.406013
0.938493 1.000000 0.409961
1.000000 1.000000 0.413915
0.127764 0.135209 0.371346
0.223426 0.138576 0.374633
0.308383 0.141589 0.377554
0.393311 0.144623 0.380478
0.488901 0.148062 0.383771
0.598447 0.152037 0.387550
0.708789 0.156077 0.391360
0.819171 0.160153 0.395176
0.929595 0.164267 0.398997
0.140377 0.234768 0.382024
0.236138 0.238227 0.385325
0.321183 0.241321 0.388260
0.406200 0.244435 0.391196
0.501889 0.247966 0.394503
0.611550 0.252045 0.398297
0.722006 0.256189 0.402123
0.832504 0.260371 0.405955
0.943042 0.264589 0.409793
0.151852 0.323458 0.391549
0.247702 0.326998 0.394862
0.332826 0.330163 0.397807
0.417921 0.333350 0.400754
0.513699 0.336961 0.404074
0.623461 0.341133 0.407883
0.734019 0.345370 0.411723
0.844619 0.349645 0.415569
0.955259 0.353957 0.419421
0.163466 0.411503 0.401015
0.259404 0.415123 0.404340
0.344605 0.418360 0.407296
0.429778 0.421617 0.410254
0.525643 0.425309 0.413586
0.635506 0.429572 0.417409
0.746165 0.433902 0.421264
0.856865 0.438269 0.425124
0.967606 0.442673 0.428990
0.176615 0.509240 0.411534
0.272649 0.512948 0.414874
0.357937 0.516264 0.417842
0.443196 0.519600 0.420812
0.539158 0.523380 0.424158
0.649131 0.527745 0.427996
0.759903 0.532177 0.431866
0.870715 0.536646 0.435742
0.981568 0.541153 0.439624
0.192227 0.622791 0.423773
0.288374 0.626602 0.427128
0.373762 0.630009 0.430110
0.459120 0.633436 0.433094
0.555195 0.637319 0.436455
0.665297 0.641801 0.440311
0.776197 0.646352 0.444200
0.887139 0.650939 0.448094
0.998121 0.655564 0.451994
0.208545 0.738791 0.436292
0.304807 0.742707 0.439663
0.390296 0.746207 0.442660
0.475757 0.749727 0.445658
0.571945 0.753714 0.449035
0.682178 0.758316 0.452910
0.793210 0.762987 0.456817
0.904284 0.767695 0.460730
1.000000 0.772440 0.464648
0.225290 0.855181 0.448872
0.321666 0.859201 0.452259
0.407257 0.862794 0.455270
0.492819 0.866407 0.458282
0.589122 0.870498 0.461675
0.699486 0.875220 0.465568
0.810650 0.880011 0.469494
0.921855 0.884840 0.473425
1.000000 0.889706 0.477362
0.242461 0.971960 0.461511
0.338952 0.976085 0.464914
0.424644 0.979771 0.467939
0.510308 0.983477 0.470966
0.606725 0.987673 0.474375
0.717220 0.992514 0.478287
0.828516 0.997426 0.482230
0.939853 1.000000 0.486180
1.000000 1.000000 0.490135
0.128935 0.136231 0.454681
0.224606 0.139607 0.457970
0.309571 0.142628 0.460893
0.394507 0.145669 0.463817
0.490106 0.149117 0.467112
0.599664 0.153102 0.470892
0.710016 0.157151 0.474703
0.820409 0.161238 0.478521
0.930843 0.165361 0.482344
0.141578 0.235819 0.465364
0.237349 0.239286 0.468667
0.322402 0.242387 0.471602
0.407427 0.245509 0.474539
0.503125 0.249048 0.477848
0.612797 0.253137 0.481644
0.723264 0.257291 0.485471
0.833772 0.261483 0.489305
0.944321 0.265711 0.493144
0.153080 0.324533 0.474892
0.248939 0.328081 0.478207
0.334071 0.331255 0.481154
0.419175 0.334448 0.484102
0.514962 0.338068 0.487423
0.624734 0.342250 0.491233
0.735304 0.346497 0.495075
0.845914 0.350782 0.498923
0.956565 0.355104 0.502776
0.164720 0.412603 0.484362
0.260668 0.416231 0.487689
0.345877 0.419476 0.490646
0.431059 0.422740 0.493605
0.526933 0.426440 0.496939
0.636806 0.430713 0.500763
0.747476 0.435053 0.504619
0.858187 0.439430 0.508481
0.968939 0.443844 0.512348
0.177899 0.510366 0.494886
0.273943 0.514083 0.498227
0.359239 0.517407 0.501196
0.444506 0.520750 0.504167
0.540478 0.524539 0.507514
0.650461 0.528913 0.511354
0.761243 0.533355 0.515226
0.872066 0.537834 0.519103
0.982930 0.542351 0.522986
0.193545 0.623949 0.507129
0.289702 0.627769 0.510485
0.375097 0.631183 0.513469
0.460465 0.634618 0.516454
0.556548 0.638509 0.519816
0.666661 0.643001 0.523674
0.777572 0.647561 0.527564
0.888525 0.652159 0.531460
0.999518 0.656793 0.535361
0.209898 0.739981 0.519653
0.306170 0.743905 0.523026
0.391667 0.747413 0.526024
0.477136 0.750940 0.529023
0.573334 0.754936 0.532402
0.683577 0.759547 0.536278
0.794620 0.764228 0.540186
0.905704 0.768946 0.544100
1.000000 0.773701 0.548020
0.226678 0.856402 0.532238
0.323064 0.860431 0.535626
0.408663 0.864032 0.538638
0.494233 0.867652 0.541652
0.590545 0.871752 0.545047
0.700920 0.876484 0.548941
0.812095 0.881285 0.552868
0.923311 0.886123 0.556801
1.000000 0.890999 0.560739
0.243884 0.973214 0.544882
0.340384 0.977347 0.548286
0.426085 0.981041 0.551313
0.511757 0.984754 0.554340
0.608183 0.988958 0.557751
0.718689 0.993809 0.561664
0.829996 0.998731 0.565609
0.941343 1.000000 0.569561
1.000000 1.000000 0.573517
0.130298 0.137423 0.551529
0.225980 0.140809 0.554819
0.310955 0.143838 0.557744
0.395901 0.146888 0.560669
0.491511 0.150346 0.563966
0.601081 0.154342 0.567747
0.711446 0.158403 0.571561
0.821852 0.162501 0.575380
0.932298 0.166636 0.579205
0.142977 0.237043 0.562217
0.238758 0.240520 0.565521
0.323821 0.243630 0.568458
0.408856 0.246761 0.571396
0.504565 0.250310 0.574707
0.614249 0.254410 0.578504
0.724729 0.258576 0.582334
0.835250 0.262778 0.586169
0.945811 0.267019 0.590010
0.154510 0.325786 0.571750
0.250381 0.329344 0.575066
0.335522 0.332526 0.578014
0.420635 0.335728 0.580963
0.516433 0.339358 0.584286
0.626218 0.343551 0.588098
0.736800 0.347810 0.591942
0.847423 0.352106 0.595791
0.958086 0.356439 0.599646
0.166182 0.413884 0.581224
0.262140 0.417522 0.584552
0.347359 0.420775 0.587511
0.432550 0.424049 0.590471
0.528435 0.427759 0.593806
0.638321 0.432043 0.597632
0.749004 0.436394 0.601490
0.859727 0.440783 0.605354
0.970491 0.445208 0.609223
0.179394 0.511679 0.591753
0.275449 0.515406 0.595095
0.360755 0.518738 0.598065
0.446032 0.522090 0.601038
0.542014 0.525889 0.604386
0.652011 0.530274 0.608228
0.762805 0.534728 0.612101
0.873641 0.539218 0.615981
0.984517 0.543746 0.619866
0.195081 0.625298 0.604001
0.291248 0.629127 0.607359
0.376653 0.632551 0.610344
0.462030 0.635994 0.613330
0.558125 0.639895 0.616694
0.668250 0.644399 0.620554
0.779174 0.648970 0.624446
0.890139 0.653579 0.628343
1.000000 0.658225 0.632246
0.211474 0.741367 0.616531
0.307756 0.745301 0.619905
0.393263 0.748817 0.622904
0.478742 0.752353 0.625905
0.574951 0.756359 0.629285
0.685206 0.760982 0.633163
0.796262 0.765674 0.637073
0.907359 0.770404 0.640989
1.000000 0.775170 0.644911
0.228295 0.857825 0.629121
0.324691 0.861864 0.632511
0.410300 0.865473 0.635525
0.495880 0.869102 0.638539
0.592203 0.873212 0.641936
0.702590 0.877955 0.645832
0.813777 0.882768 0.649761
0.925006 0.887618 0.653695
1.000000 0.892505 0.657635
0.245541 0.974674 0.641771
0.342052 0.978817 0.645177
0.427763 0.982519 0.648205
0.513444 0.986241 0.651234
0.609881 0.990456 0.654646
0.720399 0.995318 0.658561
0.831719 1.000000 0.662508
0.943079 1.000000 0.666461
1.000000 1.000000 0.670419
0.131708 0.138655 0.651340
0.227401 0.142051 0.654631
0.312385 0.145090 0.657557
0.397342 0.148148 0.660485
0.492963 0.151617 0.663782
0.602545 0.155625 0.667566
0.712923 0.159697 0.671381
0.823342 0.163807 0.675202
0.933801 0.167954 0.679028
0.144422 0.238308 0.662033
0.240215 0.241795 0.665339
0.325288 0.244914 0.668277
0.410333 0.248054 0.671216
0.506053 0.251613 0.674528
0.615750 0.255725 0.678328
0.726243 0.259903 0.682159
0.836776 0.264117 0.685996
0.947351 0.268369 0.689839
0.155988 0.327080 0.671570
0.251870 0.330648 0.674888
0.337021 0.333840 0.677837
0.422145 0.337051 0.680788
0.517954 0.340692 0.684112
0.627751 0.344896 0.687926
0.738346 0.349167 0.691771
0.848982 0.353475 0.695623
0.959658 0.357820 0.699480
0.167692 0.415208 0.681049
0.263661 0.418856 0.684379
0.348890 0.422118 0.687339
0.434091 0.425401 0.690300
0.529988 0.429121 0.693637
0.639886 0.433417 0.697465
0.750582 0.437780 0.701324
0.861318 0.442181 0.705190
0.972095 0.446618 0.709061
0.180940 0.513035 0.691582
0.277006 0.516772 0.694926
0.362322 0.520113 0.697898
0.447609 0.523475 0.700872
0.543602 0.527283 0.704222
0.653611 0.531681 0.708065
0.764419 0.536146 0.711941
0.875267 0.540648 0.715822
0.986156 0.545188 0.719709
0.196667 0.626691 0.703837
0.292846 0.630531 0.707196
0.378261 0.633964 0.710182
0.463648 0.637416 0.713170
0.559754 0.641327 0.716536
0.669891 0.645843 0.720397
0.780828 0.650426 0.724291
0.891806 0.655047 0.728190
1.000000 0.659705 0.732095
0.213103 0.742798 0.716373
0.309396 0.746743 0.719748
0.394913 0.750268 0.722749
0.480401 0.753814 0.725751
0.576621 0.757829 0.729133
0.686890 0.762464 0.733012
0.797959 0.767168 0.736924
0.909068 0.771909 0.740842
1.000000 0.776688 0.744765
0.229965 0.859295 0.728969
0.326372 0.863344 0.732360
0.411991 0.866963 0.735375
0.497581 0.870601 0.738391
0.593915 0.874721 0.741789
0.704315 0.879476 0.745687
0.815515 0.884300 0.749617
0.926757 0.889162 0.753554
1.000000 0.894060 0.757496
0.247253 0.976182 0.741624
0.343775 0.980335 0.745032
0.429495 0.984047 0.748061
0.515187 0.987778 0.751091
0.611635 0.992002 0.754505
0.722166 0.996877 0.758422
0.833498 1.000000 0.762371
0.944872 1.000000 0.766325
1.000000 1.000000 0.770286
0.133121 0.139890 0.751151
0.228826 0.143297 0.754444
0.313820 0.146344 0.757371
0.398786 0.149412 0.760300
0.494419 0.152891 0.763600
0.604014 0.156910 0.767385
0.714405 0.160995 0.771202
0.824836 0.165116 0.775024
0.935309 0.169275 0.778853
0.145872 0.239576 0.761850
0.241676 0.243074 0.765156
0.326759 0.246203 0.768096
0.411814 0.249351 0.771037
0.507546 0.252921 0.774351
0.617255 0.257045 0.778152
0.727761 0.261234 0.781985
0.838307 0.265460 0.785824
0.948894 0.269724 0.789668
0.157471 0.328379 0.771391
0.253363 0.331957 0.774710
0.338525 0.335158 0.777661
0.423658 0.338378 0.780613
0.519478 0.342029 0.783939
0.629289 0.346245 0.787754
0.739896 0.350527 0.791602
0.850545 0.354847 0.795455
0.961234 0.359204 0.799314
0.169206 0.416535 0.780874
0.265186 0.420194 0.784206
0.350426 0.423465 0.787167
0.435637 0.426757 0.790130
0.531544 0.430487 0.793468
0.641455 0.434795 0.797298
0.752164 0.439170 0.801159
0.862913 0.443582 0.805026
0.973703 0.448031 0.808899
0.182489 0.514395 0.791413
0.278567 0.518142 0.794758
0.363892 0.521493 0.797732
0.449189 0.524863 0.800707
0.545194 0.528682 0.804058
0.655216 0.533091 0.807903
0.766036 0.537568 0.811781
0.876897 0.542082 0.815664
0.987799 0.546634 0.819552
0.198258 0.628089 0.803673
0.294448 0.631939 0.807034
0.379873 0.635380 0.810021
0.465270 0.638842 0.813010
0.561387 0.642764 0.816378
0.671537 0.647290 0.820241
0.782487 0.651886 0.824136
0.893478 0.656518 0.828037
1.000000 0.661188 0.831944
0.214735 0.744234 0.816215
0.311039 0.748189 0.819592
0.396566 0.751723 0.822594
0.482065 0.755278 0.825597
0.578296 0.759304 0.828980
0.688577 0.763950 0.832862
0.799659 0.768666 0.836776
0.910781 0.773419 0.840695
1.000000 0.778209 0.844620
0.231639 0.860769 0.828816
0.328058 0.864828 0.832209
0.413686 0.868456 0.835226
0.499286 0.872103 0.838243
0.595632 0.876233 0.841643
0.706044 0.881000 0.845542
0.817257 0.885836 0.849475
0.928512 0.890709 0.853413
1.000000 0.895620 0.857357
0.248969 0.977694 0.841478
0.345502 0.981858 0.844887
0.431232 0.985578 0.847917
0.516934 0.989318 0.850949
0.613394 0.993553 0.854365
0.723937 0.998439 0.858283
0.835282 1.000000 0.862234
0.946668 1.000000 0.866190
1.000000 1.000000 0.870153
0.134539 0.141130 0.850963
0.230255 0.144546 0.854258
0.315259 0.147603 0.857186
0.400235 0.150680 0.860116
0.495878 0.154169 0.863417
0.605487 0.158200 0.867204
0.715890 0.162296 0.871023
0.826335 0.166430 0.874848
0.936820 0.170600 0.878678
0.147326 0.240849 0.861666
0.243142 0.244357 0.864975
0.328234 0.247494 0.867916
0.413299 0.250652 0.870858
0.509042 0.254232 0.874173
0.618764 0.258367 0.877976
0.729283 0.262568 0.881811
0.839842 0.266807 0.885652
0.950442 0.271082 0.889498
0.158957 0.329681 0.871213
0.254861 0.333269 0.874533
0.340032 0.336479 0.877485
0.425175 0.339709 0.880439
0.521007 0.343369 0.883766
0.630830 0.347597 0.887584
0.741451 0.351891 0.891433
0.852112 0.356223 0.895288
0.962814 0.360592 0.899148
0.170724 0.417866 0.880700
0.266716 0.421535 0.884033
0.351965 0.424816 0.886996
0.437186 0.428117 0.889960
0.533105 0.431857 0.893300
0.643029 0.436177 0.897131
0.753750 0.440563 0.900995
0.864512 0.444987 0.904864
0.975315 0.449448 0.908739
0.184043 0.515758 0.891244
0.280132 0.519516 0.894590
0.365467 0.522875 0.897565
0.450774 0.526255 0.900542
0.546790 0.530084 0.903895
0.656825 0.534505 0.907742
0.767658 0.538994 0.911621
0.878532 0.543520 0.915506
0.989447 0.548083 0.919396
0.199852 0.629490 0.903509
0.296053 0.633350 0.906872
0.381489 0.636801 0.909861
0.466895 0.640272 0.912851
0.563024 0.644203 0.916220
0.673187 0.648742 0.920085
0.784150 0.653349 0.923982
0.895153 0.657993 0.927885
1.000000 0.662675 0.931794
0.216371 0.745673 0.916057
0.312687 0.749638 0.919436
0.398224 0.753182 0.922439
0.483732 0.756745 0.925444
0.579975 0.760782 0.928829
0.690269 0.765440 0.932712
0.801363 0.770167 0.936628
0.912499 0.774932 0.940549
1.000000 0.779734 0.944476
0.233317 0.862246 0.928665
0.329747 0.866316 0.932059
0.415386 0.869952 0.935077
0.500995 0.873609 0.938096
0.597352 0.877749 0.941497
0.707777 0.882527 0.945399
0.819004 0.887375 0.949333
0.930271 0.892261 0.953273
1.000000 0.897183 0.957218
0.250689 0.979209 0.941332
0.347233 0.983383 0.944743
0.432974 0.987113 0.947775
0.518685 0.990862 0.950808
0.615156 0.995107 0.954225
0.725712 1.000000 0.958145
0.837070 1.000000 0.962098
0.948469 1.000000 0.966056
1.000000 1.000000 0.970020
