waxal-templates/luts/waxal-nit.cube
TITLE "Waxal Nit"
# Original Waxal look — generated color math, no third-party data
LUT_3D_SIZE 5
0.034987 0.034987 0.034987
0.079504 0.079504 0.079504
0.136374 0.136374 0.136374
0.197288 0.197288 0.197288
0.244257 0.244257 0.244257
0.184979 0.184979 0.184979
0.229695 0.229695 0.229695
0.286820 0.286820 0.286820
0.348006 0.348006 0.348006
0.395186 0.395186 0.395186
0.377281 0.377281 0.377281
0.422252 0.422252 0.422252
0.479701 0.479701 0.479701
0.541235 0.541235 0.541235
0.588682 0.588682 0.588682
0.584102 0.584102 0.584102
0.629345 0.629345 0.629345
0.687142 0.687142 0.687142
0.749047 0.749047 0.749047
0.796780 0.796780 0.796780
0.744176 0.744176 0.744176
0.789629 0.789629 0.789629
0.847694 0.847694 0.847694
0.909884 0.909884 0.909884
0.957838 0.957838 0.957838
0.050099 0.050099 0.050099
0.094635 0.094635 0.094635
0.151531 0.151531 0.151531
0.212472 0.212472 0.212472
0.259463 0.259463 0.259463
0.200158 0.200158 0.200158
0.244895 0.244895 0.244895
0.302045 0.302045 0.302045
0.363259 0.363259 0.363259
0.410459 0.410459 0.410459
0.392546 0.392546 0.392546
0.437537 0.437537 0.437537
0.495013 0.495013 0.495013
0.556574 0.556574 0.556574
0.604042 0.604042 0.604042
0.599460 0.599460 0.599460
0.644723 0.644723 0.644723
0.702546 0.702546 0.702546
0.764479 0.764479 0.764479
0.812233 0.812233 0.812233
0.759605 0.759605 0.759605
0.805078 0.805078 0.805078
0.863169 0.863169 0.863169
0.925387 0.925387 0.925387
0.973362 0.973362 0.973362
0.069384 0.069384 0.069384
0.113947 0.113947 0.113947
0.170875 0.170875 0.170875
0.231851 0.231851 0.231851
0.278870 0.278870 0.278870
0.219531 0.219531 0.219531
0.264292 0.264292 0.264292
0.321476 0.321476 0.321476
0.382724 0.382724 0.382724
0.429952 0.429952 0.429952
0.412029 0.412029 0.412029
0.457045 0.457045 0.457045
0.514554 0.514554 0.514554
0.576150 0.576150 0.576150
0.623645 0.623645 0.623645
0.619060 0.619060 0.619060
0.664349 0.664349 0.664349
0.722205 0.722205 0.722205
0.784173 0.784173 0.784173
0.831954 0.831954 0.831954
0.779297 0.779297 0.779297
0.824795 0.824795 0.824795
0.882919 0.882919 0.882919
0.945172 0.945172 0.945172
0.993173 0.993173 0.993173
0.090017 0.090017 0.090017
0.134607 0.134607 0.134607
0.191571 0.191571 0.191571
0.252584 0.252584 0.252584
0.299631 0.299631 0.299631
0.240256 0.240256 0.240256
0.285045 0.285045 0.285045
0.342264 0.342264 0.342264
0.403550 0.403550 0.403550
0.450806 0.450806 0.450806
0.432872 0.432872 0.432872
0.477916 0.477916 0.477916
0.535460 0.535460 0.535460
0.597093 0.597093 0.597093
0.644617 0.644617 0.644617
0.640030 0.640030 0.640030
0.685346 0.685346 0.685346
0.743237 0.743237 0.743237
0.805242 0.805242 0.805242
0.853052 0.853052 0.853052
0.800363 0.800363 0.800363
0.845889 0.845889 0.845889
0.904048 0.904048 0.904048
0.966339 0.966339 0.966339
1.000000 1.000000 1.000000
0.105910 0.105910 0.105910
0.150521 0.150521 0.150521
0.207512 0.207512 0.207512
0.268554 0.268554 0.268554
0.315624 0.315624 0.315624
0.256220 0.256220 0.256220
0.301031 0.301031 0.301031
0.358276 0.358276 0.358276
0.419591 0.419591 0.419591
0.466870 0.466870 0.466870
0.448927 0.448927 0.448927
0.493993 0.493993 0.493993
0.551563 0.551563 0.551563
0.613225 0.613225 0.613225
0.660772 0.660772 0.660772
0.656182 0.656182 0.656182
0.701520 0.701520 0.701520
0.759438 0.759438 0.759438
0.821471 0.821471 0.821471
0.869304 0.869304 0.869304
0.816590 0.816590 0.816590
0.862138 0.862138 0.862138
0.920323 0.920323 0.920323
0.982643 0.982643 0.982643
1.000000 1.000000 1.000000
