waxal-templates/luts/waxal-harmattan.cube
TITLE "Waxal Harmattan"
# Original Waxal look — generated color math, no third-party data
LUT_3D_SIZE 5
0.158445 0.153576 0.147960
0.330838 0.158059 0.152784
0.507623 0.162720 0.157737
0.712288 0.168196 0.163479
0.917967 0.173786 0.169256
0.172423 0.331986 0.163765
0.345163 0.336678 0.168617
0.522304 0.341554 0.173598
0.727380 0.347279 0.179371
0.933473 0.353119 0.185180
0.187786 0.513943 0.179913
0.360879 0.518849 0.184793
0.538381 0.523943 0.189802
0.743875 0.529921 0.195608
0.950387 0.536015 0.201450
0.207104 0.726217 0.198788
0.380606 0.731370 0.203699
0.558528 0.736719 0.208741
0.764508 0.742990 0.214585
0.971508 0.749379 0.220465
0.228170 0.941099 0.217933
0.402085 0.946502 0.222877
0.580430 0.952106 0.227952
0.786899 0.958674 0.233834
0.994390 0.965360 0.239752
0.159752 0.154992 0.306709
0.332179 0.159495 0.311536
0.508998 0.164177 0.316492
0.713703 0.169677 0.322236
0.919423 0.175291 0.328016
0.173840 0.333468 0.322523
0.346614 0.338181 0.327377
0.523789 0.343077 0.332361
0.728906 0.348827 0.338137
0.935038 0.354691 0.343950
0.189315 0.515493 0.338680
0.362441 0.520420 0.343562
0.539978 0.525535 0.348573
0.745512 0.531537 0.354382
0.952064 0.537655 0.360228
0.208763 0.727845 0.357564
0.382299 0.733019 0.362478
0.560255 0.738389 0.367523
0.766275 0.744684 0.373370
0.973315 0.751097 0.379253
0.229960 0.942807 0.376720
0.403909 0.948230 0.381666
0.582288 0.953855 0.386744
0.788797 0.960447 0.392629
0.996329 0.967157 0.398551
0.161076 0.156421 0.466236
0.333537 0.160945 0.471065
0.510391 0.165647 0.476024
0.715136 0.171172 0.481771
0.920896 0.176810 0.487555
0.175275 0.334964 0.482058
0.348083 0.339697 0.486915
0.525293 0.344615 0.491901
0.730449 0.350388 0.497681
0.936622 0.356277 0.503497
0.190862 0.517057 0.498224
0.364023 0.522004 0.503108
0.541594 0.527140 0.508123
0.747168 0.533167 0.513935
0.953761 0.539309 0.519783
0.210441 0.729489 0.517119
0.384011 0.734683 0.522035
0.562001 0.740073 0.527082
0.768062 0.746393 0.532933
0.975142 0.752831 0.538819
0.231769 0.944529 0.536285
0.405752 0.949973 0.541233
0.584166 0.955619 0.546314
0.790716 0.962235 0.552202
0.998287 0.968970 0.558127
0.162633 0.158094 0.652110
0.335133 0.162642 0.656943
0.512028 0.167369 0.661904
0.716819 0.172922 0.667655
0.922626 0.178589 0.673442
0.176960 0.336715 0.667942
0.349808 0.341473 0.672802
0.527058 0.346415 0.677792
0.732261 0.352216 0.683575
0.938481 0.358133 0.689394
0.192679 0.518888 0.684118
0.365879 0.523859 0.689006
0.543490 0.529019 0.694023
0.749111 0.535074 0.699839
0.955751 0.541245 0.705691
0.212409 0.731411 0.703025
0.386019 0.736630 0.707945
0.564050 0.742044 0.712995
0.770157 0.748392 0.718849
0.977284 0.754858 0.724739
0.233891 0.946545 0.722203
0.407914 0.952013 0.727155
0.586368 0.957683 0.732238
0.792964 0.964328 0.738130
1.000000 0.971091 0.744059
0.164226 0.159801 0.840631
0.336767 0.164372 0.845467
0.513702 0.169124 0.850432
0.718542 0.174706 0.856187
0.924395 0.180401 0.861977
0.178685 0.338501 0.856474
0.351572 0.343282 0.861337
0.528863 0.348249 0.866330
0.734114 0.354079 0.872116
0.940381 0.360025 0.877939
0.194536 0.520754 0.872660
0.367776 0.525748 0.877551
0.545428 0.530934 0.882572
0.751097 0.537017 0.888391
0.957784 0.543217 0.894247
0.214421 0.733370 0.891579
0.388070 0.738613 0.896502
0.566143 0.744052 0.901555
0.772297 0.750429 0.907413
0.979472 0.756924 0.913307
0.236059 0.948598 0.910769
0.410121 0.954090 0.915724
0.588616 0.959785 0.920810
0.795260 0.966458 0.926706
1.000000 0.973250 0.932638
