waxal-templates/luts/waxal-dakar-84.cube
TITLE "Waxal Dakar 84"
# Original Waxal look — generated color math, no third-party data
LUT_3D_SIZE 33
0.124400 0.132269 0.130620
0.149895 0.133158 0.131494
0.174221 0.134007 0.132330
0.197546 0.134824 0.133130
0.220034 0.135612 0.133903
0.241854 0.136378 0.134652
0.263172 0.137129 0.135385
0.284154 0.137868 0.136106
0.304967 0.138603 0.136821
0.325778 0.139339 0.137537
0.346755 0.140083 0.138258
0.368063 0.140839 0.138991
0.389871 0.141615 0.139741
0.412345 0.142415 0.140515
0.435652 0.143247 0.141317
0.459959 0.144117 0.142154
0.485434 0.145030 0.143031
0.512244 0.145993 0.143954
0.539809 0.146985 0.144904
0.567378 0.147979 0.145854
0.594949 0.148976 0.146805
0.622523 0.149976 0.147756
0.650100 0.150977 0.148707
0.677679 0.151981 0.149659
0.705260 0.152987 0.150611
0.732844 0.153996 0.151563
0.760431 0.155007 0.152516
0.788020 0.156020 0.153469
0.815611 0.157035 0.154422
0.843206 0.158053 0.155376
0.870802 0.159073 0.156330
0.898402 0.160096 0.157284
0.926004 0.161121 0.158239
0.127701 0.158712 0.133453
0.153203 0.159607 0.134329
0.177536 0.160462 0.135165
0.200867 0.161284 0.135967
0.223362 0.162079 0.136740
0.245188 0.162851 0.137491
0.266511 0.163606 0.138224
0.287499 0.164351 0.138946
0.308318 0.165091 0.139662
0.329135 0.165833 0.140378
0.350118 0.166581 0.141101
0.371432 0.167343 0.141834
0.393246 0.168124 0.142585
0.415726 0.168931 0.143360
0.439039 0.169769 0.144163
0.463353 0.170644 0.145001
0.488835 0.171563 0.145879
0.515652 0.172533 0.146803
0.543226 0.173532 0.147754
0.570802 0.174534 0.148706
0.598381 0.175538 0.149657
0.625963 0.176544 0.150609
0.653547 0.177553 0.151561
0.681133 0.178563 0.152514
0.708722 0.179577 0.153467
0.736314 0.180592 0.154421
0.763908 0.181610 0.155374
0.791505 0.182630 0.156328
0.819104 0.183653 0.157283
0.846706 0.184678 0.158238
0.874311 0.185705 0.159193
0.901917 0.186734 0.160148
0.929527 0.187766 0.161104
0.130877 0.184001 0.136165
0.156386 0.184902 0.137041
0.180726 0.185763 0.137878
0.204063 0.186591 0.138681
0.226564 0.187391 0.139455
0.248395 0.188168 0.140206
0.269724 0.188929 0.140940
0.290718 0.189679 0.141663
0.311542 0.190424 0.142380
0.332365 0.191171 0.143097
0.353353 0.191924 0.143820
0.374673 0.192691 0.144555
0.396493 0.193478 0.145307
0.418978 0.194289 0.146082
0.442298 0.195133 0.146886
0.466618 0.196014 0.147724
0.492107 0.196940 0.148604
0.518931 0.197916 0.149529
0.546512 0.198922 0.150481
0.574096 0.199930 0.151433
0.601682 0.200941 0.152386
0.629271 0.201954 0.153339
0.656862 0.202969 0.154292
0.684456 0.203986 0.155246
0.712052 0.205006 0.156200
0.739651 0.206028 0.157154
0.767253 0.207053 0.158109
0.794857 0.208080 0.159064
0.822464 0.209109 0.160020
0.850073 0.210141 0.160976
0.877684 0.211174 0.161932
0.905299 0.212211 0.162888
0.932915 0.213249 0.163845
0.133946 0.208294 0.138770
0.159461 0.209201 0.139648
0.183807 0.210068 0.140485
0.207150 0.210901 0.141289
0.229657 0.211706 0.142064
0.251494 0.212488 0.142816
0.272828 0.213254 0.143551
0.293827 0.214009 0.144274
0.314657 0.214759 0.144992
0.335485 0.215510 0.145710
0.356478 0.216269 0.146433
0.377804 0.217041 0.147169
0.399629 0.217832 0.147921
0.422120 0.218649 0.148697
0.445446 0.219498 0.149502
0.469772 0.220385 0.150342
0.495267 0.221317 0.151222
0.522099 0.222299 0.152148
0.549686 0.223312 0.153101
0.577277 0.224326 0.154054
0.604870 0.225343 0.155008
0.632466 0.226362 0.155962
0.660064 0.227384 0.156916
0.687665 0.228408 0.157871
0.715269 0.229434 0.158826
0.742875 0.230463 0.159781
0.770483 0.231494 0.160737
0.798094 0.232527 0.161693
0.825708 0.233563 0.162650
0.853324 0.234601 0.163606
0.880943 0.235641 0.164564
0.908564 0.236683 0.165521
0.936188 0.237728 0.166479
0.136924 0.231749 0.141286
0.162446 0.232662 0.142165
0.186798 0.233534 0.143003
0.210147 0.234373 0.143808
0.232659 0.235183 0.144583
0.254501 0.235970 0.145336
0.275841 0.236740 0.146071
0.296845 0.237500 0.146796
0.317680 0.238255 0.147514
0.338513 0.239011 0.148233
0.359511 0.239774 0.148957
0.380842 0.240551 0.149693
0.402673 0.241347 0.150447
0.425170 0.242169 0.151223
0.448501 0.243023 0.152029
0.472833 0.243916 0.152869
0.498335 0.244853 0.153750
0.525173 0.245841 0.154678
0.552767 0.246860 0.155631
0.580365 0.247881 0.156586
0.607965 0.248904 0.157540
0.635567 0.249929 0.158495
0.663172 0.250957 0.159450
0.690780 0.251987 0.160406
0.718390 0.253020 0.161362
0.746003 0.254054 0.162318
0.773618 0.255092 0.163275
0.801236 0.256131 0.164232
0.828856 0.257173 0.165190
0.856479 0.258217 0.166147
0.884105 0.259263 0.167106
0.911733 0.260312 0.168064
0.939363 0.261363 0.169023
0.139832 0.254525 0.143730
0.165360 0.255443 0.144610
0.189718 0.256321 0.145449
0.213072 0.257164 0.146254
0.235590 0.257979 0.147030
0.257437 0.258771 0.147784
0.278782 0.259546 0.148520
0.299791 0.260310 0.149245
0.320631 0.261070 0.149964
0.341469 0.261830 0.150683
0.362472 0.262598 0.151409
0.383808 0.263380 0.152145
0.405644 0.264181 0.152899
0.428146 0.265008 0.153677
0.451483 0.265867 0.154483
0.475821 0.266764 0.155324
0.501329 0.267707 0.156206
0.528173 0.268701 0.157135
0.555774 0.269726 0.158089
0.583378 0.270753 0.159044
0.610984 0.271782 0.160000
0.638593 0.272813 0.160956
0.666205 0.273847 0.161912
0.693819 0.274883 0.162869
0.721436 0.275922 0.163825
0.749055 0.276963 0.164783
0.776677 0.278006 0.165740
0.804301 0.279051 0.166698
0.831928 0.280099 0.167657
0.859558 0.281149 0.168615
0.887190 0.282201 0.169574
0.914824 0.283256 0.170534
0.942462 0.284313 0.171494
0.142688 0.276780 0.146119
0.168222 0.277704 0.146999
0.192585 0.278587 0.147839
0.215945 0.279435 0.148645
0.238467 0.280255 0.149422
0.260320 0.281051 0.150177
0.281670 0.281831 0.150913
0.302684 0.282600 0.151639
0.323528 0.283363 0.152359
0.344371 0.284128 0.153079
0.365380 0.284901 0.153805
0.386720 0.285687 0.154542
0.408561 0.286492 0.155297
0.431069 0.287324 0.156075
0.454411 0.288188 0.156882
0.478755 0.289091 0.157724
0.504268 0.290039 0.158607
0.531118 0.291039 0.159536
0.558726 0.292070 0.160492
0.586336 0.293102 0.161448
0.613949 0.294137 0.162404
0.641565 0.295175 0.163361
0.669183 0.296214 0.164318
0.696803 0.297256 0.165275
0.724427 0.298300 0.166233
0.752052 0.299347 0.167191
0.779681 0.300396 0.168150
0.807311 0.301447 0.169109
0.834945 0.302501 0.170068
0.862581 0.303557 0.171028
0.890219 0.304615 0.171988
0.917860 0.305676 0.172948
0.945503 0.306739 0.173909
0.145511 0.298674 0.148470
0.171051 0.299603 0.149351
0.195420 0.300492 0.150192
0.218785 0.301345 0.150998
0.241313 0.302169 0.151776
0.263170 0.302970 0.152531
0.284525 0.303754 0.153269
0.305543 0.304527 0.153995
0.326393 0.305296 0.154715
0.347241 0.306065 0.155436
0.368254 0.306842 0.156162
0.389599 0.307632 0.156901
0.411445 0.308442 0.157656
0.433958 0.309279 0.158435
0.457305 0.310148 0.159243
0.481655 0.311056 0.160086
0.507174 0.312009 0.160969
0.534030 0.313015 0.161899
0.561644 0.314051 0.162856
0.589261 0.315089 0.163813
0.616880 0.316130 0.164770
0.644502 0.317173 0.165728
0.672126 0.318218 0.166686
0.699753 0.319266 0.167644
0.727383 0.320316 0.168603
0.755015 0.321369 0.169562
0.782649 0.322423 0.170521
0.810286 0.323480 0.171481
0.837926 0.324540 0.172441
0.865568 0.325601 0.173401
0.893213 0.326665 0.174362
0.920860 0.327732 0.175323
0.948510 0.328800 0.176285
0.148322 0.320367 0.150799
0.173867 0.321302 0.151681
0.198242 0.322195 0.152523
0.221612 0.323053 0.153330
0.244145 0.323882 0.154109
0.266008 0.324688 0.154865
0.287367 0.325476 0.155603
0.308390 0.326254 0.156330
0.329245 0.327026 0.157051
0.350097 0.327800 0.157772
0.371115 0.328581 0.158499
0.392465 0.329376 0.159238
0.414316 0.330190 0.159994
0.436834 0.331031 0.160774
0.460186 0.331905 0.161583
0.484542 0.332818 0.162426
0.510067 0.333777 0.163311
0.536929 0.334788 0.164241
0.564549 0.335830 0.165199
0.592172 0.336874 0.166157
0.619797 0.337920 0.167115
0.647425 0.338969 0.168073
0.675056 0.340020 0.169032
0.702689 0.341074 0.169991
0.730325 0.342130 0.170951
0.757963 0.343188 0.171911
0.785604 0.344248 0.172871
0.813247 0.345311 0.173832
0.840893 0.346376 0.174793
0.868541 0.347443 0.175754
0.896192 0.348513 0.176716
0.923846 0.349585 0.177678
0.951502 0.350659 0.178640
0.151141 0.342020 0.153126
0.176692 0.342960 0.154008
0.201072 0.343858 0.154851
0.224448 0.344721 0.155659
0.246986 0.345554 0.156438
0.268853 0.346365 0.157194
0.290217 0.347158 0.157933
0.311245 0.347939 0.158661
0.332104 0.348716 0.159383
0.352961 0.349494 0.160105
0.373984 0.350279 0.160832
0.395339 0.351078 0.161572
0.417195 0.351898 0.162329
0.439718 0.352743 0.163109
0.463076 0.353622 0.163919
0.487436 0.354540 0.164763
0.512967 0.355504 0.165648
0.539835 0.356521 0.166580
0.567462 0.357568 0.167538
0.595091 0.358618 0.168497
0.622723 0.359670 0.169456
0.650357 0.360725 0.170415
0.677994 0.361781 0.171375
0.705633 0.362840 0.172335
0.733275 0.363902 0.173295
0.760919 0.364966 0.174256
0.788566 0.366032 0.175217
0.816216 0.367100 0.176179
0.843868 0.368171 0.177141
0.871523 0.369244 0.178103
0.899180 0.370319 0.179065
0.926839 0.371397 0.180028
0.954502 0.372477 0.180992
0.153989 0.363792 0.155465
0.179546 0.364737 0.156349
0.203931 0.365641 0.157192
0.227312 0.366509 0.158001
0.249855 0.367347 0.158781
0.271728 0.368161 0.159538
0.293097 0.368959 0.160277
0.314130 0.369745 0.161006
0.334993 0.370526 0.161728
0.355855 0.371308 0.162451
0.376882 0.372098 0.163179
0.398243 0.372901 0.163919
0.420103 0.373725 0.164677
0.442631 0.374576 0.165458
0.465994 0.375459 0.166268
0.490360 0.376382 0.167113
0.515897 0.377351 0.167999
0.542772 0.378374 0.168932
0.570404 0.379427 0.169891
0.598039 0.380482 0.170850
0.625677 0.381540 0.171810
0.653318 0.382600 0.172771
0.680961 0.383663 0.173731
0.708607 0.384728 0.174692
0.736255 0.385795 0.175653
0.763905 0.386864 0.176615
0.791559 0.387936 0.177577
0.819214 0.389010 0.178539
0.846873 0.390087 0.179502
0.874534 0.391165 0.180465
0.902197 0.392247 0.181429
0.929863 0.393330 0.182393
0.957531 0.394416 0.183357
0.156887 0.385846 0.157836
0.182450 0.386796 0.158720
0.206841 0.387705 0.159564
0.230228 0.388577 0.160374
0.252776 0.389420 0.161154
0.274653 0.390240 0.161912
0.296027 0.391041 0.162652
0.317065 0.391832 0.163381
0.337933 0.392617 0.164104
0.358800 0.393404 0.164828
0.379832 0.394198 0.165557
0.401197 0.395006 0.166298
0.423063 0.395834 0.167056
0.445596 0.396690 0.167838
0.468964 0.397578 0.168649
0.493336 0.398506 0.169495
0.518878 0.399481 0.170381
0.545759 0.400509 0.171315
0.573398 0.401567 0.172275
0.601040 0.402629 0.173235
0.628684 0.403692 0.174196
0.656331 0.404758 0.175157
0.683980 0.405827 0.176119
0.711632 0.406897 0.177080
0.739287 0.407970 0.178043
0.766944 0.409045 0.179005
0.794603 0.410123 0.179968
0.822265 0.411203 0.180931
0.849930 0.412285 0.181895
0.877597 0.413370 0.182859
0.905267 0.414457 0.183823
0.932939 0.415546 0.184788
0.960614 0.416638 0.185753
0.159858 0.408342 0.160254
0.185427 0.409298 0.161140
0.209824 0.410212 0.161985
0.233216 0.411089 0.162795
0.255769 0.411937 0.163576
0.277652 0.412761 0.164335
0.299031 0.413567 0.165076
0.320073 0.414362 0.165805
0.340947 0.415152 0.166529
0.361818 0.415943 0.167253
0.382855 0.416742 0.167983
0.404225 0.417554 0.168724
0.426096 0.418387 0.169483
0.448634 0.419247 0.170266
0.472008 0.420141 0.171078
0.496386 0.421074 0.171924
0.521934 0.422054 0.172812
0.548821 0.423088 0.173746
0.576466 0.424153 0.174707
0.604114 0.425220 0.175668
0.631765 0.426289 0.176630
0.659418 0.427361 0.177592
0.687074 0.428435 0.178555
0.714733 0.429512 0.179517
0.742393 0.430591 0.180480
0.770057 0.431672 0.181444
0.797723 0.432755 0.182408
0.825392 0.433841 0.183372
0.853063 0.434929 0.184336
0.880736 0.436020 0.185301
0.908412 0.437113 0.186267
0.936091 0.438208 0.187232
0.963773 0.439305 0.188198
0.162924 0.431443 0.162739
0.188499 0.432404 0.163625
0.212902 0.433323 0.164471
0.236299 0.434206 0.165282
0.258858 0.435059 0.166064
0.280746 0.435888 0.166823
0.302130 0.436699 0.167565
0.323177 0.437498 0.168295
0.344056 0.438293 0.169020
0.364932 0.439088 0.169744
0.385974 0.439892 0.170475
0.407350 0.440709 0.171217
0.429225 0.441547 0.171977
0.451769 0.442411 0.172760
0.475149 0.443310 0.173573
0.499532 0.444249 0.174420
0.525086 0.445234 0.175308
0.551980 0.446274 0.176244
0.579632 0.447345 0.177206
0.607287 0.448418 0.178168
0.634944 0.449493 0.179130
0.662604 0.450571 0.180093
0.690266 0.451652 0.181057
0.717931 0.452734 0.182020
0.745599 0.453819 0.182984
0.773269 0.454906 0.183949
0.800941 0.455996 0.184914
0.828617 0.457088 0.185879
0.856294 0.458182 0.186844
0.883975 0.459278 0.187810
0.911657 0.460377 0.188776
0.939343 0.461478 0.189743
0.967031 0.462582 0.190710
0.166108 0.455311 0.165307
0.191689 0.456278 0.166194
0.216098 0.457203 0.167040
0.239501 0.458091 0.167852
0.262065 0.458949 0.168635
0.283958 0.459782 0.169395
0.305348 0.460598 0.170137
0.326401 0.461403 0.170868
0.347284 0.462202 0.171594
0.368166 0.463002 0.172319
0.389213 0.463810 0.173050
0.410593 0.464632 0.173793
0.432475 0.465475 0.174554
0.455024 0.466345 0.175338
0.478409 0.467248 0.176151
0.502799 0.468193 0.176999
0.528359 0.469184 0.177889
0.555259 0.470230 0.178825
0.582918 0.471307 0.179788
0.610580 0.472386 0.180751
0.638244 0.473468 0.181714
0.665911 0.474552 0.182678
0.693580 0.475639 0.183643
0.721252 0.476727 0.184607
0.748926 0.477819 0.185572
0.776603 0.478912 0.186538
0.804283 0.480008 0.187503
0.831965 0.481106 0.188469
0.859649 0.482206 0.189436
0.887336 0.483309 0.190403
0.915026 0.484414 0.191370
0.942718 0.485522 0.192337
0.970413 0.486631 0.193305
0.169432 0.480109 0.167975
0.195020 0.481082 0.168863
0.219435 0.482012 0.169710
0.242844 0.482906 0.170523
0.265414 0.483769 0.171307
0.287313 0.484608 0.172068
0.308708 0.485429 0.172811
0.329766 0.486238 0.173543
0.350655 0.487042 0.174269
0.371542 0.487847 0.174995
0.392595 0.488660 0.175727
0.413981 0.489487 0.176471
0.435867 0.490335 0.177232
0.458423 0.491211 0.178017
0.481814 0.492120 0.178831
0.506210 0.493070 0.179680
0.531777 0.494067 0.180570
0.558684 0.495119 0.181507
0.586350 0.496203 0.182471
0.614018 0.497289 0.183436
0.641690 0.498377 0.184400
0.669363 0.499468 0.185365
0.697040 0.500560 0.186330
0.724719 0.501656 0.187296
0.752400 0.502753 0.188262
0.780084 0.503853 0.189228
0.807771 0.504956 0.190195
0.835460 0.506060 0.191162
0.863152 0.507167 0.192129
0.890846 0.508276 0.193097
0.918542 0.509388 0.194065
0.946242 0.510502 0.195034
0.973944 0.511618 0.196003
0.172922 0.506001 0.170762
0.198516 0.506980 0.171651
0.222938 0.507916 0.172500
0.246353 0.508816 0.173313
0.268930 0.509684 0.174098
0.290834 0.510529 0.174859
0.312235 0.511355 0.175603
0.333299 0.512169 0.176336
0.354193 0.512978 0.177063
0.375086 0.513789 0.177790
0.396144 0.514607 0.178522
0.417536 0.515439 0.179267
0.439428 0.516292 0.180029
0.461990 0.517173 0.180815
0.485387 0.518088 0.181630
0.509789 0.519044 0.182480
0.535363 0.520047 0.183371
0.562278 0.521106 0.184309
0.589951 0.522196 0.185274
0.617627 0.523289 0.186239
0.645306 0.524384 0.187205
0.672987 0.525481 0.188171
0.700671 0.526581 0.189137
0.728357 0.527683 0.190104
0.756046 0.528788 0.191071
0.783737 0.529894 0.192038
0.811431 0.531003 0.193006
0.839128 0.532115 0.193974
0.866827 0.533228 0.194943
0.894528 0.534344 0.195911
0.922232 0.535463 0.196881
0.949939 0.536583 0.197850
0.977648 0.537706 0.198820
0.176601 0.533150 0.173686
0.202203 0.534136 0.174576
0.226631 0.535078 0.175425
0.250053 0.535984 0.176239
0.272636 0.536858 0.177025
0.294547 0.537708 0.177787
0.315953 0.538540 0.178532
0.337023 0.539359 0.179266
0.357923 0.540174 0.179993
0.378822 0.540990 0.180721
0.399886 0.541813 0.181455
0.421284 0.542651 0.182200
0.443182 0.543510 0.182963
0.465750 0.544396 0.183750
0.489154 0.545317 0.184566
0.513563 0.546279 0.185417
0.539144 0.547290 0.186309
0.566066 0.548355 0.187248
0.593747 0.549452 0.188214
0.621431 0.550552 0.189180
0.649117 0.551654 0.190147
0.676806 0.552759 0.191114
0.704498 0.553866 0.192081
0.732192 0.554975 0.193049
0.759889 0.556086 0.194017
0.787588 0.557200 0.194986
0.815289 0.558316 0.195955
0.842994 0.559435 0.196924
0.870701 0.560555 0.197893
0.898410 0.561678 0.198863
0.926122 0.562804 0.199833
0.953836 0.563932 0.200804
0.981553 0.565062 0.201775
0.180486 0.561654 0.176756
0.206096 0.562647 0.177647
0.230531 0.563596 0.178497
0.253960 0.564507 0.179313
0.276549 0.565388 0.180099
0.298467 0.566243 0.180863
0.319879 0.567081 0.181608
0.340955 0.567906 0.182343
0.361862 0.568726 0.183071
0.382766 0.569548 0.183800
0.403837 0.570377 0.184534
0.425241 0.571220 0.185281
0.447146 0.572085 0.186045
0.469720 0.572978 0.186832
0.493131 0.573905 0.187649
0.517547 0.574874 0.188501
0.543136 0.575891 0.189394
0.570066 0.576963 0.190335
0.597755 0.578068 0.191302
0.625447 0.579176 0.192269
0.653141 0.580285 0.193237
0.680839 0.581397 0.194205
0.708538 0.582511 0.195174
0.736240 0.583628 0.196143
0.763945 0.584747 0.197112
0.791652 0.585868 0.198081
0.819362 0.586992 0.199051
0.847075 0.588117 0.200022
0.874790 0.589246 0.200992
0.902507 0.590376 0.201963
0.930227 0.591509 0.202935
0.957950 0.592644 0.203907
0.985675 0.593782 0.204879
0.184447 0.590545 0.179869
0.210064 0.591545 0.180761
0.234507 0.592501 0.181613
0.257943 0.593419 0.182429
0.280539 0.594306 0.183217
0.302463 0.595167 0.183981
0.323882 0.596011 0.184728
0.344964 0.596842 0.185463
0.365877 0.597668 0.186192
0.386788 0.598495 0.186922
0.407864 0.599329 0.187657
0.429275 0.600179 0.188404
0.451186 0.601049 0.189169
0.473767 0.601948 0.189957
0.497186 0.602882 0.190775
0.521609 0.603857 0.191628
0.547205 0.604881 0.192523
0.574143 0.605961 0.193464
0.601840 0.607074 0.194432
0.629541 0.608188 0.195401
0.657243 0.609305 0.196370
0.684949 0.610425 0.197339
0.712657 0.611547 0.198309
0.740367 0.612671 0.199279
0.768080 0.613797 0.200249
0.795796 0.614926 0.201220
0.823514 0.616057 0.202191
0.851234 0.617190 0.203163
0.878957 0.618326 0.204135
0.906683 0.619464 0.205107
0.934411 0.620605 0.206079
0.962142 0.621747 0.207052
0.989876 0.622892 0.208026
0.188435 0.619462 0.182987
0.214060 0.620468 0.183880
0.238510 0.621431 0.184732
0.261953 0.622355 0.185549
0.284555 0.623248 0.186338
0.306486 0.624116 0.187103
0.327911 0.624965 0.187850
0.349000 0.625802 0.188586
0.369919 0.626633 0.189317
0.390836 0.627466 0.190047
0.411919 0.628306 0.190783
0.433335 0.629162 0.191531
0.455254 0.630038 0.192297
0.477841 0.630943 0.193087
0.501266 0.631883 0.193905
0.525697 0.632865 0.194759
0.551301 0.633896 0.195655
0.578247 0.634983 0.196597
0.605952 0.636103 0.197567
0.633661 0.637226 0.198537
0.661372 0.638350 0.199507
0.689085 0.639477 0.200477
0.716802 0.640606 0.201448
0.744520 0.641738 0.202419
0.772241 0.642872 0.203391
0.799965 0.644008 0.204363
0.827692 0.645147 0.205335
0.855420 0.646288 0.206308
0.883152 0.647431 0.207281
0.910886 0.648577 0.208254
0.938622 0.649725 0.209228
0.966361 0.650875 0.210202
0.994103 0.652028 0.211176
0.192450 0.648402 0.186107
0.218082 0.649416 0.187001
0.242539 0.650385 0.187855
0.265989 0.651316 0.188673
0.288598 0.652215 0.189463
0.310535 0.653088 0.190229
0.331967 0.653943 0.190977
0.353062 0.654786 0.191714
0.373987 0.655623 0.192445
0.394911 0.656461 0.193176
0.416000 0.657308 0.193913
0.437423 0.658169 0.194662
0.459348 0.659051 0.195429
0.481942 0.659962 0.196219
0.505374 0.660909 0.197039
0.529812 0.661897 0.197894
0.555423 0.662935 0.198791
0.582377 0.664030 0.199734
0.610091 0.665157 0.200705
0.637808 0.666287 0.201676
0.665527 0.667419 0.202647
0.693249 0.668554 0.203619
0.720973 0.669691 0.204591
0.748700 0.670830 0.205563
0.776430 0.671971 0.206536
0.804162 0.673115 0.207509
0.831896 0.674261 0.208482
0.859633 0.675410 0.209456
0.887373 0.676560 0.210430
0.915115 0.677714 0.211405
0.942860 0.678869 0.212380
0.970607 0.680027 0.213355
0.998357 0.681187 0.214331
0.196491 0.677367 0.189232
0.222131 0.678388 0.190127
0.246595 0.679363 0.190981
0.270052 0.680300 0.191801
0.292668 0.681205 0.192591
0.314612 0.682085 0.193358
0.336050 0.682946 0.194107
0.357151 0.683794 0.194845
0.378082 0.684637 0.195577
0.399012 0.685481 0.196309
0.420107 0.686333 0.197047
0.441537 0.687200 0.197797
0.463468 0.688089 0.198565
0.486069 0.689006 0.199356
0.509508 0.689958 0.200177
0.533953 0.690954 0.201033
0.559573 0.691999 0.201930
0.586534 0.693101 0.202875
0.614256 0.694236 0.203847
0.641981 0.695373 0.204819
0.669709 0.696513 0.205791
0.697439 0.697655 0.206764
0.725172 0.698799 0.207737
0.752907 0.699946 0.208711
0.780644 0.701095 0.209685
0.808385 0.702246 0.210659
0.836127 0.703400 0.211634
0.863873 0.704556 0.212609
0.891621 0.705714 0.213584
0.919371 0.706875 0.214560
0.947124 0.708038 0.215536
0.974880 0.709203 0.216512
1.000000 0.710371 0.217489
0.200558 0.706356 0.192360
0.226206 0.707384 0.193256
0.250678 0.708366 0.194112
0.274142 0.709310 0.194932
0.296765 0.710221 0.195723
0.318715 0.711106 0.196491
0.340159 0.711973 0.197241
0.361267 0.712827 0.197980
0.382204 0.713676 0.198713
0.403140 0.714525 0.199446
0.424242 0.715383 0.200185
0.445677 0.716256 0.200936
0.467615 0.717150 0.201704
0.490223 0.718074 0.202496
0.513669 0.719033 0.203318
0.538121 0.720035 0.204175
0.563748 0.721087 0.205074
0.590718 0.722196 0.206020
0.618448 0.723338 0.206993
0.646182 0.724483 0.207966
0.673917 0.725630 0.208939
0.701656 0.726780 0.209913
0.729396 0.727932 0.210888
0.757140 0.729086 0.211862
0.784886 0.730243 0.212837
0.812634 0.731402 0.213813
0.840385 0.732563 0.214789
0.868139 0.733726 0.215765
0.895895 0.734892 0.216741
0.923654 0.736060 0.217718
0.951415 0.737231 0.218695
0.979179 0.738404 0.219673
1.000000 0.739579 0.220651
0.204653 0.735370 0.195492
0.230308 0.736404 0.196389
0.254787 0.737393 0.197246
0.278258 0.738343 0.198067
0.300888 0.739260 0.198859
0.322844 0.740152 0.199628
0.344295 0.741024 0.200379
0.365409 0.741884 0.201119
0.386353 0.742739 0.201853
0.407295 0.743594 0.202586
0.428403 0.744458 0.203326
0.449845 0.745336 0.204078
0.471789 0.746236 0.204847
0.494404 0.747166 0.205640
0.517857 0.748131 0.206463
0.542316 0.749140 0.207321
0.567951 0.750199 0.208221
0.594928 0.751315 0.209168
0.622667 0.752465 0.210142
0.650408 0.753618 0.211116
0.678152 0.754773 0.212091
0.705899 0.755930 0.213066
0.733648 0.757089 0.214042
0.761400 0.758251 0.215018
0.789154 0.759415 0.215994
0.816911 0.760581 0.216970
0.844670 0.761750 0.217947
0.872432 0.762921 0.218924
0.900196 0.764095 0.219902
0.927963 0.765270 0.220880
0.955733 0.766448 0.221858
0.983505 0.767629 0.222837
1.000000 0.768811 0.223816
0.208774 0.764407 0.198628
0.234437 0.765449 0.199526
0.258923 0.766445 0.200384
0.282401 0.767401 0.201206
0.305037 0.768325 0.201999
0.327000 0.769222 0.202769
0.348458 0.770100 0.203521
0.369578 0.770966 0.204261
0.390528 0.771826 0.204996
0.411476 0.772687 0.205731
0.432590 0.773556 0.206471
0.454039 0.774441 0.207224
0.475990 0.775347 0.207994
0.498611 0.776283 0.208788
0.522071 0.777254 0.209612
0.546538 0.778270 0.210471
0.572180 0.779335 0.211372
0.599166 0.780459 0.212320
0.626912 0.781617 0.213295
0.654662 0.782777 0.214271
0.682414 0.783939 0.215247
0.710169 0.785104 0.216223
0.737926 0.786271 0.217200
0.765686 0.787440 0.218177
0.793449 0.788612 0.219154
0.821214 0.789786 0.220132
0.848981 0.790962 0.221110
0.876751 0.792140 0.222088
0.904524 0.793321 0.223067
0.932299 0.794505 0.224046
0.960077 0.795690 0.225025
0.987857 0.796878 0.226005
1.000000 0.798068 0.226985
0.212922 0.793470 0.201767
0.238592 0.794518 0.202667
0.263086 0.795521 0.203525
0.286570 0.796483 0.204349
0.309214 0.797413 0.205143
0.331183 0.798316 0.205913
0.352647 0.799200 0.206666
0.373773 0.800072 0.207407
0.394729 0.800937 0.208143
0.415684 0.801804 0.208878
0.436804 0.802679 0.209620
0.458259 0.803569 0.210373
0.480217 0.804482 0.211145
0.502845 0.805424 0.211940
0.526312 0.806402 0.212764
0.550786 0.807424 0.213625
0.576435 0.808496 0.214526
0.603429 0.809627 0.215476
0.631184 0.810793 0.216452
0.658942 0.811960 0.217429
0.686703 0.813130 0.218406
0.714466 0.814302 0.219383
0.742231 0.815477 0.220361
0.769999 0.816653 0.221339
0.797770 0.817833 0.222318
0.825543 0.819014 0.223297
0.853319 0.820198 0.224276
