waxal-templates/luts/waxal-dakar-84.cube
TITLE "Waxal Dakar 84"
# Original Waxal look — generated color math, no third-party data
LUT_3D_SIZE 5
0.124400 0.132269 0.130620
0.304967 0.138603 0.136821
0.485434 0.145030 0.143031
0.705260 0.152987 0.150611
0.926004 0.161121 0.158239
0.148322 0.320367 0.150799
0.329245 0.327026 0.157051
0.510067 0.333777 0.163311
0.730325 0.342130 0.170951
0.951502 0.350659 0.178640
0.172922 0.506001 0.170762
0.354193 0.512978 0.177063
0.535363 0.520047 0.183371
0.756046 0.528788 0.191071
0.977648 0.537706 0.198820
0.204653 0.735370 0.195492
0.386353 0.742739 0.201853
0.567951 0.750199 0.208221
0.789154 0.759415 0.215994
1.000000 0.768811 0.223816
0.238368 0.968355 0.220683
0.420500 0.976119 0.227104
0.602529 0.983974 0.233533
0.824258 0.993670 0.241379
1.000000 1.000000 0.249275
0.126697 0.134276 0.295168
0.307299 0.140642 0.301374
0.487801 0.147100 0.307589
0.707670 0.155097 0.315175
0.928456 0.163269 0.322809
0.150733 0.322478 0.315364
0.331690 0.329168 0.321620
0.512547 0.335951 0.327884
0.732848 0.344342 0.335531
0.954067 0.352911 0.343226
0.175443 0.508213 0.335342
0.356750 0.515222 0.341647
0.537955 0.522323 0.347961
0.758680 0.531102 0.355666
0.980325 0.540060 0.363421
0.207311 0.737706 0.360091
0.389046 0.745107 0.366456
0.570679 0.752599 0.372830
0.791924 0.761854 0.380608
1.000000 0.771289 0.388437
0.241163 0.970817 0.385301
0.423330 0.978613 0.391727
0.605395 0.986500 0.398160
0.827166 0.996235 0.406013
1.000000 1.000000 0.413915
0.128935 0.136231 0.454681
0.309571 0.142628 0.460893
0.490106 0.149117 0.467112
0.710016 0.157151 0.474703
0.930843 0.165361 0.482344
0.153080 0.324533 0.474892
0.334071 0.331255 0.481154
0.514962 0.338068 0.487423
0.735304 0.346497 0.495075
0.956565 0.355104 0.502776
0.177899 0.510366 0.494886
0.359239 0.517407 0.501196
0.540478 0.524539 0.507514
0.761243 0.533355 0.515226
0.982930 0.542351 0.522986
0.209898 0.739981 0.519653
0.391667 0.747413 0.526024
0.573334 0.754936 0.532402
0.794620 0.764228 0.540186
1.000000 0.773701 0.548020
0.243884 0.973214 0.544882
0.426085 0.981041 0.551313
0.608183 0.988958 0.557751
0.829996 0.998731 0.565609
1.000000 1.000000 0.573517
0.131708 0.138655 0.651340
0.312385 0.145090 0.657557
0.492963 0.151617 0.663782
0.712923 0.159697 0.671381
0.933801 0.167954 0.679028
0.155988 0.327080 0.671570
0.337021 0.333840 0.677837
0.517954 0.340692 0.684112
0.738346 0.349167 0.691771
0.959658 0.357820 0.699480
0.180940 0.513035 0.691582
0.362322 0.520113 0.697898
0.543602 0.527283 0.704222
0.764419 0.536146 0.711941
0.986156 0.545188 0.719709
0.213103 0.742798 0.716373
0.394913 0.750268 0.722749
0.576621 0.757829 0.729133
0.797959 0.767168 0.736924
1.000000 0.776688 0.744765
0.247253 0.976182 0.741624
0.429495 0.984047 0.748061
0.611635 0.992002 0.754505
0.833498 1.000000 0.762371
1.000000 1.000000 0.770286
0.134539 0.141130 0.850963
0.315259 0.147603 0.857186
0.495878 0.154169 0.863417
0.715890 0.162296 0.871023
0.936820 0.170600 0.878678
0.158957 0.329681 0.871213
0.340032 0.336479 0.877485
0.521007 0.343369 0.883766
0.741451 0.351891 0.891433
0.962814 0.360592 0.899148
0.184043 0.515758 0.891244
0.365467 0.522875 0.897565
0.546790 0.530084 0.903895
0.767658 0.538994 0.911621
0.989447 0.548083 0.919396
0.216371 0.745673 0.916057
0.398224 0.753182 0.922439
0.579975 0.760782 0.928829
0.801363 0.770167 0.936628
1.000000 0.779734 0.944476
0.250689 0.979209 0.941332
0.432974 0.987113 0.947775
0.615156 0.995107 0.954225
0.837070 1.000000 0.962098
1.000000 1.000000 0.970020
