waxal-templates/luts/waxal-night-market.cube
TITLE "Waxal Night Market"
# Original Waxal look — generated color math, no third-party data
LUT_3D_SIZE 5
0.000000 0.005054 0.030759
0.197118 0.002018 0.025379
0.491870 0.000000 0.018192
0.786766 0.000000 0.011110
1.000000 0.000000 0.005943
0.000000 0.213728 0.012889
0.195257 0.211026 0.007703
0.490366 0.207529 0.000777
0.785619 0.204213 0.000000
1.000000 0.201880 0.000000
0.000000 0.497841 0.000000
0.194152 0.495592 0.000000
0.489745 0.492707 0.000000
0.785481 0.490004 0.000000
1.000000 0.488123 0.000000
0.000000 0.784014 0.000000
0.194672 0.782218 0.000000
0.490748 0.779945 0.000000
0.786967 0.777854 0.000000
1.000000 0.776425 0.000000
0.000000 0.996857 0.000000
0.196101 0.995395 0.000000
0.492533 0.993574 0.000000
0.789109 0.991936 0.000000
1.000000 0.990842 0.000000
0.000000 0.003986 0.252786
0.196884 0.000985 0.247426
0.491673 0.000000 0.240266
0.786606 0.000000 0.233211
1.000000 0.000000 0.228064
0.000000 0.212776 0.234984
0.195115 0.210109 0.229817
0.490261 0.206658 0.222918
0.785551 0.203390 0.216125
1.000000 0.201091 0.211171
0.000000 0.497047 0.211933
0.194135 0.494833 0.207028
0.489764 0.491994 0.200482
0.785537 0.489338 0.194043
1.000000 0.487492 0.189350
0.000000 0.783378 0.190072
0.194779 0.781616 0.185428
0.490891 0.779389 0.179236
0.787147 0.777345 0.173150
1.000000 0.775951 0.168719
0.000000 0.996337 0.174678
0.196299 0.994909 0.170227
0.492769 0.993135 0.164298
0.789381 0.991544 0.158473
1.000000 0.990484 0.154235
0.000000 0.002562 0.552791
0.196583 0.000000 0.547458
0.491423 0.000000 0.540334
0.786406 0.000000 0.533316
1.000000 0.000000 0.528196
0.000000 0.211510 0.535079
0.194939 0.208889 0.529939
0.490135 0.205502 0.523077
0.785475 0.202297 0.516320
1.000000 0.200045 0.511393
0.000000 0.495993 0.512151
0.194126 0.493825 0.507273
0.489805 0.491050 0.500764
0.785628 0.488457 0.494361
1.000000 0.486658 0.489695
0.000000 0.782537 0.490412
0.194938 0.780821 0.485796
0.491100 0.778658 0.479641
0.787406 0.776677 0.473591
1.000000 0.775330 0.469187
0.000000 0.995653 0.475110
0.196583 0.994272 0.470686
0.493102 0.992562 0.464793
0.789764 0.991033 0.459005
1.000000 0.990020 0.454794
0.000000 0.001175 0.849625
0.196303 0.000000 0.844319
0.491192 0.000000 0.837231
0.786224 0.000000 0.830249
1.000000 0.000000 0.825156
0.000000 0.210278 0.832003
0.194781 0.207704 0.826890
0.490027 0.204379 0.820064
0.785416 0.201237 0.813343
1.000000 0.199031 0.808443
0.000000 0.494972 0.809197
0.194134 0.492851 0.804345
0.489863 0.490138 0.797873
0.785735 0.487608 0.791506
1.000000 0.485854 0.786867
0.000000 0.781726 0.787580
0.195113 0.780057 0.782990
0.491324 0.777957 0.776871
0.787679 0.776038 0.770858
1.000000 0.774737 0.766481
0.000000 0.994998 0.772367
0.196880 0.993663 0.767970
0.493448 0.992016 0.762113
0.790160 0.990550 0.756361
1.000000 0.989583 0.752177
0.000000 0.000193 1.000000
0.196112 0.000000 1.000000
0.491036 0.000000 1.000000
0.786104 0.000000 1.000000
1.000000 0.000000 1.000000
0.000000 0.209408 1.000000
0.194678 0.206867 1.000000
0.489959 0.203587 1.000000
0.785384 0.200489 1.000000
1.000000 0.198316 1.000000
0.000000 0.494253 1.000000
0.194151 0.492164 1.000000
0.489915 0.489497 1.000000
0.785823 0.487011 1.000000
1.000000 0.485291 1.000000
0.000000 0.781158 1.000000
0.195248 0.779522 0.996249
0.491495 0.777466 0.990156
0.787886 0.775593 0.984169
1.000000 0.774325 0.979811
0.000000 0.994542 0.985671
0.197104 0.993240 0.981294
0.493707 0.991637 0.975462
0.790455 0.990216 0.969736
1.000000 0.989249 0.965601
