waxal-templates/luts/waxal-sahel-gold.cube
TITLE "Waxal Sahel Gold"
# Original Waxal look — generated color math, no third-party data
LUT_3D_SIZE 5
0.022751 0.000000 0.000000
0.278791 0.000000 0.000000
0.636583 0.000000 0.000000
0.977411 0.000000 0.000000
1.000000 0.000000 0.000000
0.000000 0.217504 0.000000
0.251047 0.210162 0.000000
0.610386 0.200112 0.000000
0.952684 0.190765 0.000000
1.000000 0.184995 0.000000
0.000000 0.525768 0.000000
0.217758 0.518921 0.000000
0.579271 0.509563 0.000000
0.923637 0.500874 0.000000
1.000000 0.495517 0.000000
0.000000 0.836158 0.000000
0.191154 0.829806 0.000000
0.554841 0.821139 0.000000
0.901274 0.813108 0.000000
1.000000 0.808164 0.000000
0.000000 1.000000 0.000000
0.176300 1.000000 0.000000
0.541534 1.000000 0.000000
0.889437 1.000000 0.000000
1.000000 1.000000 0.000000
0.020141 0.000000 0.179940
0.276276 0.000000 0.174222
0.634201 0.000000 0.165747
0.975155 0.000000 0.157153
1.000000 0.000000 0.151483
0.000000 0.215570 0.161568
0.248823 0.208258 0.154941
0.608294 0.198250 0.145201
0.950719 0.188944 0.135403
1.000000 0.183199 0.128977
0.000000 0.523964 0.131053
0.215942 0.517147 0.123150
0.577588 0.507831 0.111629
0.922080 0.499182 0.100139
1.000000 0.493850 0.092649
0.000000 0.834483 0.095065
0.189746 0.828162 0.085886
0.553566 0.819537 0.072585
0.900125 0.811546 0.059401
1.000000 0.806627 0.050848
0.000000 1.000000 0.066139
0.175182 1.000000 0.056052
0.540549 1.000000 0.041485
0.888578 1.000000 0.027097
1.000000 1.000000 0.017787
0.016492 0.000000 0.467785
0.272763 0.000000 0.461956
0.630875 0.000000 0.453328
0.972008 0.000000 0.444587
1.000000 0.000000 0.438826
0.000000 0.212848 0.449076
0.245720 0.205579 0.442340
0.605379 0.195631 0.432445
0.947982 0.186382 0.422501
1.000000 0.180672 0.415983
0.000000 0.521426 0.418089
0.213416 0.514652 0.410076
0.575250 0.505396 0.398401
0.919920 0.496803 0.386764
1.000000 0.491507 0.379183
0.000000 0.832129 0.381628
0.187797 0.825851 0.372339
0.551805 0.817285 0.358884
0.898543 0.809351 0.345555
1.000000 0.804468 0.336909
0.000000 1.000000 0.352366
0.173644 1.000000 0.342169
0.539199 1.000000 0.327448
0.887407 1.000000 0.312914
1.000000 1.000000 0.303512
0.012670 0.000000 0.773645
0.269083 0.000000 0.767699
0.627395 0.000000 0.758907
0.968718 0.000000 0.750011
1.000000 0.000000 0.744152
0.000000 0.209974 0.754579
0.242476 0.202750 0.747725
0.602335 0.192865 0.737667
0.945128 0.183676 0.727568
1.000000 0.178005 0.720952
0.000000 0.518746 0.723089
0.210786 0.512018 0.714959
0.572820 0.502825 0.703121
0.917680 0.494293 0.691329
1.000000 0.489035 0.683649
0.000000 0.829644 0.686126
0.185781 0.823411 0.676720
0.549989 0.814910 0.663102
0.896916 0.807035 0.649617
1.000000 0.802190 0.640874
0.000000 1.000000 0.656507
0.172064 1.000000 0.646193
0.537818 1.000000 0.631308
0.886216 1.000000 0.616619
1.000000 1.000000 0.607120
0.009493 0.000000 1.000000
0.266027 0.000000 1.000000
0.624507 0.000000 1.000000
0.965989 0.000000 1.000000
1.000000 0.000000 1.000000
0.000000 0.207565 1.000000
0.239788 0.200380 1.000000
0.599815 0.190549 0.994801
0.942767 0.181411 0.984571
1.000000 0.175771 0.977873
0.000000 0.516502 0.980036
0.208615 0.509812 0.971808
0.570816 0.500673 0.959832
0.915836 0.492192 0.947909
1.000000 0.486965 0.940147
0.000000 0.827564 0.942650
0.184126 0.821370 0.933145
0.548502 0.812922 0.919389
0.895589 0.805098 0.905773
1.000000 0.800285 0.896948
0.000000 1.000000 0.912729
0.170777 1.000000 0.902317
0.536699 1.000000 0.887295
0.885257 1.000000 0.872475
1.000000 1.000000 0.863151
