waxal-templates/luts/waxal-nooy.cube
TITLE "Waxal Nooy"
# Original Waxal look — generated color math, no third-party data
LUT_3D_SIZE 5
0.106477 0.103099 0.103063
0.318784 0.104721 0.104644
0.532231 0.106402 0.106266
0.764180 0.108284 0.108068
0.996878 0.110231 0.109915
0.111229 0.315567 0.108407
0.323805 0.317353 0.110100
0.537521 0.319198 0.111835
0.769763 0.321259 0.113758
1.000000 0.323386 0.115728
0.116877 0.528950 0.114131
0.329721 0.530900 0.115935
0.543708 0.532910 0.117783
0.776243 0.535151 0.119828
1.000000 0.537457 0.121920
0.124029 0.761662 0.120776
0.337165 0.763791 0.122702
0.551446 0.765980 0.124672
0.784299 0.768416 0.126850
1.000000 0.770917 0.129075
0.132268 0.995998 0.127889
0.345698 0.998307 0.129937
0.560273 1.000000 0.132030
0.793447 1.000000 0.134342
1.000000 1.000000 0.136700
0.106912 0.103628 0.308489
0.319246 0.105267 0.310081
0.532720 0.106964 0.311715
0.764698 0.108864 0.313529
0.997426 0.110829 0.315388
0.111753 0.316150 0.313871
0.324355 0.317953 0.315575
0.538099 0.319815 0.317321
0.770369 0.321894 0.319256
1.000000 0.324038 0.321238
0.117489 0.529588 0.319631
0.330361 0.531555 0.321447
0.544374 0.533581 0.323305
0.776938 0.535839 0.325363
1.000000 0.538163 0.327467
0.124738 0.762359 0.326317
0.337901 0.764504 0.328254
0.552208 0.766710 0.330235
0.785091 0.769163 0.332425
1.000000 0.771682 0.334662
0.133074 0.996754 0.333470
0.346530 0.999079 0.335530
0.561133 1.000000 0.337633
0.794336 1.000000 0.339957
1.000000 1.000000 0.342328
0.107356 0.104163 0.513959
0.319717 0.105819 0.515562
0.533218 0.107532 0.517208
0.765225 0.109450 0.519033
0.997982 0.111433 0.520905
0.112285 0.316740 0.519378
0.324915 0.318559 0.521092
0.538685 0.320437 0.522850
0.770985 0.322534 0.524797
1.000000 0.324696 0.526791
0.118111 0.530231 0.525175
0.331009 0.532214 0.527001
0.545049 0.534257 0.528871
0.777642 0.536533 0.530941
1.000000 0.538875 0.533057
0.125455 0.763061 0.531900
0.338646 0.765223 0.533849
0.552980 0.767445 0.535841
0.785892 0.769916 0.538043
1.000000 0.772453 0.540293
0.133888 0.997516 0.539094
0.347372 0.999857 0.541165
0.562001 1.000000 0.543279
0.795233 1.000000 0.545615
1.000000 1.000000 0.547999
0.107849 0.104752 0.737565
0.320240 0.106425 0.739180
0.533770 0.108156 0.740838
0.765809 0.110094 0.742677
0.998598 0.112096 0.744561
0.112875 0.317387 0.743023
0.325534 0.319224 0.744750
0.539333 0.321120 0.746520
0.771665 0.323236 0.748481
1.000000 0.325418 0.750488
0.118797 0.530938 0.748861
0.331724 0.532938 0.750700
0.545794 0.534999 0.752582
0.778419 0.537295 0.754665
1.000000 0.539656 0.756794
0.126246 0.763831 0.755630
0.339466 0.766011 0.757590
0.553829 0.768251 0.759595
0.786773 0.770742 0.761811
1.000000 0.773298 0.764073
0.134785 0.998350 0.762868
0.348297 1.000000 0.764950
0.562956 1.000000 0.767077
0.796220 1.000000 0.769427
1.000000 1.000000 0.771823
0.108356 0.105350 0.962296
0.320776 0.107041 0.963923
0.534335 0.108790 0.965593
0.766406 0.110747 0.967445
0.999227 0.112769 0.969343
0.113478 0.318044 0.967794
0.326166 0.319899 0.969534
0.539995 0.321813 0.971315
0.772359 0.323949 0.973290
1.000000 0.326150 0.975310
0.119497 0.531654 0.973672
0.332454 0.533673 0.975523
0.546553 0.535752 0.977418
0.779210 0.538067 0.979514
1.000000 0.540448 0.981657
0.127052 0.764612 0.980485
0.340301 0.766810 0.982458
0.554694 0.769068 0.984474
0.787670 0.771578 0.986704
1.000000 0.774154 0.988980
0.135696 0.999196 0.987767
0.349238 1.000000 0.989862
0.563926 1.000000 0.992001
0.797223 1.000000 0.994364
1.000000 1.000000 0.996774
