waxal-templates/luts/waxal-teranga.cube
TITLE "Waxal Teranga"
# Original Waxal look — generated color math, no third-party data
LUT_3D_SIZE 5
0.011077 0.000000 0.000000
0.273612 0.000000 0.000000
0.590298 0.000000 0.000000
0.901669 0.000000 0.000000
1.000000 0.000000 0.000000
0.000000 0.237972 0.000000
0.255574 0.233079 0.000000
0.573227 0.227286 0.000000
0.885549 0.221706 0.000000
1.000000 0.217336 0.000000
0.000000 0.526400 0.000000
0.237206 0.521805 0.000000
0.556026 0.516371 0.000000
0.869494 0.511145 0.000000
1.000000 0.507057 0.000000
0.000000 0.815973 0.000000
0.222559 0.811677 0.000000
0.542546 0.806603 0.000000
0.857160 0.801730 0.000000
1.000000 0.797923 0.000000
0.000000 1.000000 0.000000
0.213241 1.000000 0.000000
0.534195 1.000000 0.000000
0.849759 1.000000 0.000000
1.000000 1.000000 0.000000
0.009218 0.000000 0.221521
0.271828 0.000000 0.217338
0.588603 0.000000 0.212053
0.900063 0.000000 0.206602
1.000000 0.000000 0.202072
0.000000 0.236516 0.207570
0.254027 0.231646 0.202801
0.571770 0.225881 0.196810
0.884180 0.220328 0.190665
1.000000 0.215980 0.185583
0.000000 0.525032 0.188249
0.235946 0.520461 0.182773
0.554856 0.515055 0.175930
0.868412 0.509855 0.168948
1.000000 0.505789 0.163199
0.000000 0.814694 0.166213
0.221585 0.810421 0.160029
0.541662 0.805375 0.152333
0.856365 0.800528 0.144515
1.000000 0.796743 0.138098
0.000000 1.000000 0.145896
0.212504 1.000000 0.139127
0.533549 1.000000 0.130725
0.849201 1.000000 0.122213
1.000000 1.000000 0.115244
0.007001 0.000000 0.502806
0.269701 0.000000 0.498557
0.586586 0.000000 0.493193
0.898152 0.000000 0.487664
1.000000 0.000000 0.483072
0.000000 0.234767 0.488646
0.252188 0.229925 0.483811
0.570039 0.224193 0.477740
0.882556 0.218673 0.471518
1.000000 0.214351 0.466374
0.000000 0.523390 0.469073
0.234453 0.518846 0.463530
0.553471 0.513473 0.456608
0.867134 0.508307 0.449549
1.000000 0.504266 0.443737
0.000000 0.813158 0.446783
0.220438 0.808913 0.440534
0.540624 0.803900 0.432759
0.855433 0.799087 0.424863
1.000000 0.795328 0.418384
0.000000 1.000000 0.426257
0.211644 1.000000 0.419422
0.532797 1.000000 0.410941
0.848556 1.000000 0.402351
1.000000 1.000000 0.395320
0.004769 0.000000 0.790402
0.267561 0.000000 0.786086
0.584556 0.000000 0.780641
0.896231 0.000000 0.775032
1.000000 0.000000 0.770377
0.000000 0.232989 0.776028
0.250341 0.228175 0.771126
0.568303 0.222477 0.764974
0.880928 0.216991 0.758672
1.000000 0.212696 0.753464
0.000000 0.521720 0.756196
0.232959 0.517205 0.750587
0.552089 0.511867 0.743583
0.865861 0.506734 0.736444
1.000000 0.502720 0.730569
0.000000 0.811598 0.733648
0.219298 0.807381 0.727332
0.539595 0.802402 0.719476
0.854513 0.797622 0.711500
1.000000 0.793890 0.704958
0.000000 1.000000 0.712908
0.210798 1.000000 0.706006
0.532062 1.000000 0.697444
0.847930 1.000000 0.688775
1.000000 1.000000 0.681679
0.002841 0.000000 1.000000
0.265714 0.000000 1.000000
0.582806 0.000000 1.000000
0.894577 0.000000 1.000000
1.000000 0.000000 1.000000
0.000000 0.231440 1.000000
0.248750 0.226651 1.000000
0.566810 0.220983 1.000000
0.879531 0.215526 1.000000
1.000000 0.211255 1.000000
0.000000 0.520267 1.000000
0.231679 0.515776 1.000000
0.550906 0.510468 0.994870
0.864773 0.505365 0.987661
1.000000 0.501374 0.981730
0.000000 0.810240 0.984839
0.218328 0.806048 0.978463
0.538722 0.801099 0.970536
0.853736 0.796349 0.962491
1.000000 0.792640 0.955893
0.000000 1.000000 0.963911
0.210084 1.000000 0.956950
0.531446 1.000000 0.948317
0.847409 1.000000 0.939578
1.000000 1.000000 0.932617
