waxal-templates/luts/waxal-sahel-gold.cube
TITLE "Waxal Sahel Gold"
# Original Waxal look — generated color math, no third-party data
LUT_3D_SIZE 33
0.022751 0.000000 0.000000
0.045152 0.000000 0.000000
0.070758 0.000000 0.000000
0.099338 0.000000 0.000000
0.130663 0.000000 0.000000
0.164501 0.000000 0.000000
0.200622 0.000000 0.000000
0.238796 0.000000 0.000000
0.278791 0.000000 0.000000
0.320377 0.000000 0.000000
0.363323 0.000000 0.000000
0.407397 0.000000 0.000000
0.452368 0.000000 0.000000
0.498004 0.000000 0.000000
0.544073 0.000000 0.000000
0.590344 0.000000 0.000000
0.636583 0.000000 0.000000
0.682559 0.000000 0.000000
0.728037 0.000000 0.000000
0.772786 0.000000 0.000000
0.816572 0.000000 0.000000
0.859161 0.000000 0.000000
0.900320 0.000000 0.000000
0.939815 0.000000 0.000000
0.977411 0.000000 0.000000
1.000000 0.000000 0.000000
1.000000 0.000000 0.000000
1.000000 0.000000 0.000000
1.000000 0.000000 0.000000
1.000000 0.000000 0.000000
1.000000 0.000000 0.000000
1.000000 0.000000 0.000000
1.000000 0.000000 0.000000
0.020048 0.018887 0.000000
0.042458 0.018212 0.000000
0.068074 0.017441 0.000000
0.096665 0.016582 0.000000
0.128002 0.015642 0.000000
0.161853 0.014629 0.000000
0.197988 0.013550 0.000000
0.236176 0.012412 0.000000
0.276187 0.011224 0.000000
0.317789 0.009991 0.000000
0.360751 0.008721 0.000000
0.404842 0.007422 0.000000
0.449831 0.006100 0.000000
0.495484 0.004763 0.000000
0.541571 0.003417 0.000000
0.587860 0.002069 0.000000
0.634117 0.000726 0.000000
0.680110 0.000000 0.000000
0.725606 0.000000 0.000000
0.770372 0.000000 0.000000
0.814175 0.000000 0.000000
0.856780 0.000000 0.000000
0.897955 0.000000 0.000000
0.937465 0.000000 0.000000
0.975075 0.000000 0.000000
1.000000 0.000000 0.000000
1.000000 0.000000 0.000000
1.000000 0.000000 0.000000
1.000000 0.000000 0.000000
1.000000 0.000000 0.000000
1.000000 0.000000 0.000000
1.000000 0.000000 0.000000
1.000000 0.000000 0.000000
0.017017 0.040821 0.000000
0.039436 0.040148 0.000000
0.065063 0.039381 0.000000
0.093667 0.038526 0.000000
0.125017 0.037590 0.000000
0.158883 0.036582 0.000000
0.195034 0.035508 0.000000
0.233239 0.034376 0.000000
0.273267 0.033193 0.000000
0.314887 0.031966 0.000000
0.357868 0.030702 0.000000
0.401979 0.029409 0.000000
0.446986 0.028093 0.000000
0.492660 0.026762 0.000000
0.538767 0.025422 0.000000
0.585076 0.024081 0.000000
0.631353 0.022744 0.000000
0.677366 0.021420 0.000000
0.722882 0.020113 0.000000
0.767667 0.018831 0.000000
0.811489 0.017581 0.000000
0.854113 0.016368 0.000000
0.895306 0.015200 0.000000
0.934833 0.014081 0.000000
0.972460 0.013019 0.000000
1.000000 0.012020 0.000000
1.000000 0.011090 0.000000
1.000000 0.010234 0.000000
1.000000 0.009460 0.000000
1.000000 0.008773 0.000000
1.000000 0.008172 0.000000
1.000000 0.007591 0.000000
1.000000 0.007011 0.000000
0.013691 0.065183 0.000000
0.036121 0.064514 0.000000
0.061761 0.063750 0.000000
0.090379 0.062899 0.000000
0.121744 0.061969 0.000000
0.155627 0.060966 0.000000
0.191795 0.059897 0.000000
0.230019 0.058771 0.000000
0.270066 0.057594 0.000000
0.311706 0.056373 0.000000
0.354708 0.055116 0.000000
0.398840 0.053830 0.000000
0.443869 0.052521 0.000000
0.489565 0.051197 0.000000
0.535694 0.049864 0.000000
0.582025 0.048530 0.000000
0.628325 0.047201 0.000000
0.674360 0.045883 0.000000
0.719898 0.044583 0.000000
0.764705 0.043309 0.000000
0.808548 0.042065 0.000000
0.851193 0.040859 0.000000
0.892405 0.039696 0.000000
0.931951 0.038584 0.000000
0.969596 0.037528 0.000000
1.000000 0.036534 0.000000
1.000000 0.035609 0.000000
1.000000 0.034758 0.000000
1.000000 0.033988 0.000000
1.000000 0.033305 0.000000
1.000000 0.032707 0.000000
1.000000 0.032129 0.000000
1.000000 0.031552 0.000000
0.010108 0.091804 0.000000
0.032550 0.091139 0.000000
0.058203 0.090379 0.000000
0.086836 0.089533 0.000000
0.118218 0.088608 0.000000
0.152118 0.087611 0.000000
0.188306 0.086549 0.000000
0.226550 0.085429 0.000000
0.266618 0.084258 0.000000
0.308281 0.083045 0.000000
0.351305 0.081795 0.000000
0.395460 0.080516 0.000000
0.440513 0.079215 0.000000
0.486233 0.077898 0.000000
0.532387 0.076573 0.000000
0.578742 0.075247 0.000000
0.625066 0.073925 0.000000
0.671126 0.072615 0.000000
0.716688 0.071323 0.000000
0.761518 0.070056 0.000000
0.805384 0.068820 0.000000
0.848051 0.067620 0.000000
0.889285 0.066465 0.000000
0.928852 0.065359 0.000000
0.966517 0.064309 0.000000
1.000000 0.063322 0.000000
1.000000 0.062402 0.000000
1.000000 0.061556 0.000000
1.000000 0.060791 0.000000
1.000000 0.060111 0.000000
1.000000 0.059518 0.000000
1.000000 0.058943 0.000000
1.000000 0.058370 0.000000
0.006302 0.120516 0.000000
0.028757 0.119854 0.000000
0.054425 0.119100 0.000000
0.083074 0.118259 0.000000
0.114474 0.117340 0.000000
0.148394 0.116348 0.000000
0.184602 0.115293 0.000000
0.222867 0.114180 0.000000
0.262959 0.113017 0.000000
0.304645 0.111810 0.000000
0.347694 0.110568 0.000000
0.391874 0.109297 0.000000
0.436953 0.108004 0.000000
0.482698 0.106696 0.000000
0.528878 0.105380 0.000000
0.575260 0.104061 0.000000
0.621610 0.102748 0.000000
0.667696 0.101446 0.000000
0.713284 0.100163 0.000000
0.758140 0.098904 0.000000
0.802031 0.097675 0.000000
0.844722 0.096484 0.000000
0.885979 0.095336 0.000000
0.925569 0.094237 0.000000
0.963255 0.093194 0.000000
0.998804 0.092213 0.000000
1.000000 0.091299 0.000000
1.000000 0.090459 0.000000
1.000000 0.089698 0.000000
1.000000 0.089023 0.000000
1.000000 0.088434 0.000000
1.000000 0.087863 0.000000
1.000000 0.087293 0.000000
0.002310 0.151149 0.000000
0.024778 0.150492 0.000000
0.050461 0.149743 0.000000
0.079128 0.148907 0.000000
0.110547 0.147994 0.000000
0.144487 0.147009 0.000000
0.180717 0.145960 0.000000
0.219006 0.144855 0.000000
0.259122 0.143699 0.000000
0.300833 0.142501 0.000000
0.343908 0.141268 0.000000
0.388115 0.140005 0.000000
0.433221 0.138721 0.000000
0.478994 0.137421 0.000000
0.525202 0.136114 0.000000
0.571612 0.134805 0.000000
0.617990 0.133500 0.000000
0.664104 0.132207 0.000000
0.709719 0.130932 0.000000
0.754603 0.129682 0.000000
0.798520 0.128462 0.000000
0.841237 0.127279 0.000000
0.882519 0.126139 0.000000
0.922132 0.125048 0.000000
0.959842 0.124012 0.000000
0.995412 0.123037 0.000000
1.000000 0.122130 0.000000
1.000000 0.121295 0.000000
1.000000 0.120540 0.000000
1.000000 0.119870 0.000000
1.000000 0.119285 0.000000
1.000000 0.118718 0.000000
1.000000 0.118152 0.000000
0.000000 0.183535 0.000000
0.020646 0.182883 0.000000
0.046346 0.182138 0.000000
0.075031 0.181309 0.000000
0.106470 0.180402 0.000000
0.140432 0.179424 0.000000
0.176686 0.178383 0.000000
0.214999 0.177285 0.000000
0.255140 0.176138 0.000000
0.296878 0.174948 0.000000
0.339981 0.173723 0.000000
0.384216 0.172470 0.000000
0.429351 0.171195 0.000000
0.475154 0.169904 0.000000
0.521391 0.168606 0.000000
0.567830 0.167306 0.000000
0.614238 0.166011 0.000000
0.660381 0.164728 0.000000
0.706026 0.163462 0.000000
0.750938 0.162221 0.000000
0.794883 0.161010 0.000000
0.837628 0.159835 0.000000
0.878936 0.158703 0.000000
0.918575 0.157621 0.000000
0.956308 0.156592 0.000000
0.991901 0.155625 0.000000
1.000000 0.154724 0.000000
1.000000 0.153896 0.000000
1.000000 0.153147 0.000000
1.000000 0.152482 0.000000
1.000000 0.151900 0.000000
1.000000 0.151338 0.000000
1.000000 0.150776 0.000000
0.000000 0.217504 0.000000
0.016396 0.216857 0.000000
0.042113 0.216118 0.000000
0.070817 0.215294 0.000000
0.102278 0.214394 0.000000
0.136262 0.213423 0.000000
0.172540 0.212390 0.000000
0.210879 0.211300 0.000000
0.251047 0.210162 0.000000
0.292813 0.208981 0.000000
0.335945 0.207765 0.000000
0.380209 0.206521 0.000000
0.425375 0.205255 0.000000
0.471208 0.203975 0.000000
0.517476 0.202687 0.000000
0.563947 0.201397 0.000000
0.610386 0.200112 0.000000
0.656560 0.198838 0.000000
0.702235 0.197582 0.000000
0.747177 0.196350 0.000000
0.791152 0.195148 0.000000
0.833924 0.193983 0.000000
0.875261 0.192860 0.000000
0.914926 0.191785 0.000000
0.952684 0.190765 0.000000
0.988301 0.189805 0.000000
1.000000 0.188912 0.000000
1.000000 0.188090 0.000000
1.000000 0.187347 0.000000
1.000000 0.186687 0.000000
1.000000 0.186110 0.000000
1.000000 0.185552 0.000000
1.000000 0.184995 0.000000
0.000000 0.252886 0.000000
0.012059 0.252244 0.000000
0.037794 0.251511 0.000000
0.066518 0.250694 0.000000
0.098001 0.249800 0.000000
0.132009 0.248837 0.000000
0.168312 0.247812 0.000000
0.206678 0.246730 0.000000
0.246874 0.245601 0.000000
0.288669 0.244429 0.000000
0.331831 0.243223 0.000000
0.376126 0.241989 0.000000
0.421323 0.240733 0.000000
0.467188 0.239463 0.000000
0.513489 0.238185 0.000000
0.559992 0.236905 0.000000
0.606463 0.235630 0.000000
0.652669 0.234367 0.000000
0.698376 0.233121 0.000000
0.743349 0.231899 0.000000
0.787355 0.230707 0.000000
0.830157 0.229551 0.000000
0.871522 0.228437 0.000000
0.911215 0.227372 0.000000
0.948999 0.226360 0.000000
0.984641 0.225408 0.000000
1.000000 0.224522 0.000000
1.000000 0.223707 0.000000
1.000000 0.222969 0.000000
1.000000 0.222315 0.000000
1.000000 0.221743 0.000000
1.000000 0.221190 0.000000
1.000000 0.220637 0.000000
0.000000 0.289511 0.000000
0.007667 0.288874 0.000000
0.033420 0.288147 0.000000
0.062166 0.287336 0.000000
0.093670 0.286450 0.000000
0.127703 0.285495 0.000000
0.164033 0.284478 0.000000
0.202426 0.283405 0.000000
0.242651 0.282285 0.000000
0.284476 0.281123 0.000000
0.327669 0.279927 0.000000
0.371996 0.278703 0.000000
0.417226 0.277457 0.000000
0.463124 0.276198 0.000000
0.509458 0.274930 0.000000
0.555994 0.273661 0.000000
0.602499 0.272397 0.000000
0.648738 0.271144 0.000000
0.694478 0.269909 0.000000
0.739484 0.268697 0.000000
0.783521 0.267515 0.000000
0.826354 0.266369 0.000000
0.867749 0.265264 0.000000
0.907470 0.264208 0.000000
0.945282 0.263205 0.000000
0.980949 0.262261 0.000000
1.000000 0.261382 0.000000
1.000000 0.260574 0.000000
1.000000 0.259843 0.000000
1.000000 0.259194 0.000000
1.000000 0.258627 0.000000
1.000000 0.258079 0.000000
1.000000 0.257531 0.000000
0.000000 0.327209 0.000000
0.003249 0.326577 0.000000
0.029021 0.325855 0.000000
0.057788 0.325052 0.000000
0.089316 0.324173 0.000000
0.123374 0.323226 0.000000
0.159730 0.322217 0.000000
0.198152 0.321154 0.000000
0.238407 0.320043 0.000000
0.280263 0.318891 0.000000
0.323488 0.317705 0.000000
0.367848 0.316491 0.000000
0.413111 0.315257 0.000000
0.459043 0.314008 0.000000
0.505412 0.312751 0.000000
0.551982 0.311493 0.000000
0.598521 0.310240 0.000000
0.644795 0.308998 0.000000
0.690568 0.307773 0.000000
0.735607 0.306572 0.000000
0.779677 0.305400 0.000000
0.822542 0.304264 0.000000
0.863967 0.303170 0.000000
0.903717 0.302122 0.000000
0.941557 0.301128 0.000000
0.977250 0.300192 0.000000
1.000000 0.299321 0.000000
1.000000 0.298521 0.000000
1.000000 0.297796 0.000000
1.000000 0.297153 0.000000
1.000000 0.296591 0.000000
1.000000 0.296048 0.000000
1.000000 0.295505 0.000000
0.000000 0.365807 0.000000
0.000000 0.365181 0.000000
0.024625 0.364466 0.000000
0.053413 0.363669 0.000000
0.084965 0.362798 0.000000
0.119049 0.361859 0.000000
0.155433 0.360859 0.000000
0.193883 0.359805 0.000000
0.234169 0.358704 0.000000
0.276057 0.357562 0.000000
0.319314 0.356386 0.000000
0.363708 0.355183 0.000000
0.409005 0.353959 0.000000
0.454972 0.352721 0.000000
0.501376 0.351476 0.000000
0.547981 0.350229 0.000000
0.594556 0.348987 0.000000
0.640864 0.347756 0.000000
0.686672 0.346542 0.000000
0.731745 0.345352 0.000000
0.775848 0.344191 0.000000
0.818745 0.343065 0.000000
0.860202 0.341980 0.000000
0.899982 0.340943 0.000000
0.937850 0.339957 0.000000
0.973570 0.339030 0.000000
1.000000 0.338168 0.000000
1.000000 0.337374 0.000000
1.000000 0.336656 0.000000
1.000000 0.336019 0.000000
1.000000 0.335462 0.000000
1.000000 0.334924 0.000000
1.000000 0.334386 0.000000
0.000000 0.405135 0.000000
0.000000 0.404514 0.000000
0.020256 0.403805 0.000000
0.049067 0.403016 0.000000
0.080643 0.402152 0.000000
0.114754 0.401222 0.000000
0.151165 0.400231 0.000000
0.189646 0.399186 0.000000
0.229962 0.398095 0.000000
0.271883 0.396963 0.000000
0.315173 0.395798 0.000000
0.359601 0.394606 0.000000
0.404933 0.393393 0.000000
0.450935 0.392166 0.000000
0.497375 0.390932 0.000000
0.544016 0.389697 0.000000
0.590626 0.388466 0.000000
0.636970 0.387246 0.000000
0.682814 0.386044 0.000000
0.727921 0.384865 0.000000
0.772058 0.383714 0.000000
0.814988 0.382599 0.000000
0.856477 0.381524 0.000000
0.896287 0.380496 0.000000
0.934185 0.379520 0.000000
0.969932 0.378602 0.000000
1.000000 0.377747 0.000000
1.000000 0.376962 0.000000
1.000000 0.376250 0.000000
1.000000 0.375619 0.000000
1.000000 0.375068 0.000000
1.000000 0.374535 0.000000
1.000000 0.374002 0.000000
0.000000 0.445020 0.000000
0.000000 0.444404 0.000000
0.015941 0.443702 0.000000
0.044774 0.442920 0.000000
0.076375 0.442064 0.000000
0.110512 0.441142 0.000000
0.146952 0.440160 0.000000
0.185463 0.439125 0.000000
0.225811 0.438043 0.000000
0.267764 0.436922 0.000000
0.311088 0.435768 0.000000
0.355551 0.434587 0.000000
0.400918 0.433385 0.000000
0.446956 0.432170 0.000000
0.493431 0.430947 0.000000
0.540109 0.429723 0.000000
0.586756 0.428504 0.000000
0.633136 0.427296 0.000000
0.679015 0.426105 0.000000
0.724158 0.424937 0.000000
0.768328 0.423798 0.000000
0.811292 0.422693 0.000000
0.852813 0.421628 0.000000
0.892655 0.420610 0.000000
0.930581 0.419643 0.000000
0.966357 0.418734 0.000000
0.999744 0.417888 0.000000
1.000000 0.417109 0.000000
1.000000 0.416405 0.000000
1.000000 0.415780 0.000000
1.000000 0.415234 0.000000
1.000000 0.414706 0.000000
1.000000 0.414179 0.000000
0.000000 0.485289 0.000000
0.000000 0.484679 0.000000
0.011702 0.483983 0.000000
0.040557 0.483208 0.000000
0.072183 0.482360 0.000000
0.106347 0.481447 0.000000
0.142816 0.480474 0.000000
0.181356 0.479448 0.000000
0.221736 0.478377 0.000000
0.263722 0.477266 0.000000
0.307080 0.476122 0.000000
0.351578 0.474952 0.000000
0.396981 0.473762 0.000000
0.443055 0.472559 0.000000
0.489567 0.471348 0.000000
0.536282 0.470135 0.000000
0.582965 0.468928 0.000000
0.629381 0.467731 0.000000
0.675296 0.466552 0.000000
0.720474 0.465395 0.000000
0.764680 0.464266 0.000000
0.807677 0.463172 0.000000
0.849230 0.462118 0.000000
0.889103 0.461110 0.000000
0.927060 0.460153 0.000000
0.962863 0.459252 0.000000
0.996277 0.458414 0.000000
1.000000 0.457644 0.000000
1.000000 0.456946 0.000000
1.000000 0.456328 0.000000
1.000000 0.455787 0.000000
1.000000 0.455264 0.000000
1.000000 0.454742 0.000000
0.000000 0.525768 0.000000
0.000000 0.525164 0.000000
0.007558 0.524475 0.000000
0.036436 0.523707 0.000000
0.068087 0.522867 0.000000
0.102278 0.521962 0.000000
0.138775 0.520998 0.000000
0.177347 0.519982 0.000000
0.217758 0.518921 0.000000
0.259777 0.517821 0.000000
0.303170 0.516688 0.000000
0.347702 0.515529 0.000000
0.393141 0.514351 0.000000
0.439252 0.513159 0.000000
0.485800 0.511959 0.000000
0.532552 0.510759 0.000000
0.579271 0.509563 0.000000
0.625724 0.508378 0.000000
0.671675 0.507210 0.000000
0.716889 0.506064 0.000000
0.761129 0.504947 0.000000
0.804161 0.503864 0.000000
0.845746 0.502820 0.000000
0.885651 0.501821 0.000000
0.923637 0.500874 0.000000
0.959468 0.499982 0.000000
0.992909 0.499152 0.000000
1.000000 0.498390 0.000000
1.000000 0.497699 0.000000
1.000000 0.497087 0.000000
1.000000 0.496551 0.000000
1.000000 0.496034 0.000000
1.000000 0.495517 0.000000
0.000000 0.566284 0.000000
0.000000 0.565686 0.000000
0.003529 0.565003 0.000000
0.032430 0.564242 0.000000
0.064106 0.563410 0.000000
0.098323 0.562514 0.000000
0.134850 0.561559 0.000000
0.173451 0.560553 0.000000
0.213895 0.559502 0.000000
0.255947 0.558412 0.000000
0.299374 0.557290 0.000000
0.343941 0.556143 0.000000
0.389416 0.554975 0.000000
0.435563 0.553795 0.000000
0.482148 0.552607 0.000000
0.528936 0.551418 0.000000
0.575693 0.550234 0.000000
0.622182 0.549061 0.000000
0.668169 0.547904 0.000000
0.713419 0.546770 0.000000
0.757694 0.545664 0.000000
0.800759 0.544591 0.000000
0.842377 0.543558 0.000000
0.882313 0.542569 0.000000
0.920329 0.541631 0.000000
0.956189 0.540749 0.000000
0.989655 0.539927 0.000000
1.000000 0.539172 0.000000
1.000000 0.538488 0.000000
1.000000 0.537882 0.000000
1.000000 0.537352 0.000000
1.000000 0.536840 0.000000
1.000000 0.536328 0.000000
0.000000 0.606662 0.000000
0.000000 0.606069 0.000000
0.000000 0.605393 0.000000
0.028554 0.604639 0.000000
0.060255 0.603815 0.000000
0.094500 0.602927 0.000000
0.131055 0.601982 0.000000
0.169687 0.600985 0.000000
0.210162 0.599944 0.000000
0.252247 0.598865 0.000000
0.295708 0.597754 0.000000
0.340310 0.596617 0.000000
0.385821 0.595461 0.000000
0.432004 0.594292 0.000000
0.478625 0.593116 0.000000
0.525450 0.591939 0.000000
0.572243 0.590766 0.000000
0.618769 0.589605 0.000000
0.664792 0.588459 0.000000
0.710077 0.587336 0.000000
0.754387 0.586241 0.000000
0.797485 0.585179 0.000000
0.839136 0.584156 0.000000
0.879103 0.583178 0.000000
0.917149 0.582249 0.000000
0.953037 0.581375 0.000000
0.986529 0.580562 0.000000
1.000000 0.579815 0.000000
1.000000 0.579138 0.000000
1.000000 0.578538 0.000000
1.000000 0.578014 0.000000
1.000000 0.577507 0.000000
1.000000 0.577000 0.000000
0.000000 0.646725 0.000000
0.000000 0.646138 0.000000
0.000000 0.645468 0.000000
0.024825 0.644722 0.000000
0.056550 0.643906 0.000000
0.090821 0.643026 0.000000
0.127405 0.642090 0.000000
0.166067 0.641103 0.000000
0.206574 0.640072 0.000000
0.248691 0.639003 0.000000
0.292186 0.637903 0.000000
0.336823 0.636777 0.000000
0.382368 0.635633 0.000000
0.428587 0.634475 0.000000
0.475245 0.633310 0.000000
0.522106 0.632145 0.000000
0.568936 0.630984 0.000000
0.615498 0.629833 0.000000
0.661557 0.628699 0.000000
0.706876 0.627588 0.000000
0.751220 0.626503 0.000000
0.794352 0.625452 0.000000
0.836036 0.624439 0.000000
0.876033 0.623471 0.000000
0.914109 0.622551 0.000000
0.950024 0.621686 0.000000
0.983542 0.620881 0.000000
1.000000 0.620142 0.000000
1.000000 0.619472 0.000000
1.000000 0.618878 0.000000
1.000000 0.618359 0.000000
1.000000 0.617857 0.000000
1.000000 0.617356 0.000000
0.000000 0.686299 0.000000
0.000000 0.685718 0.000000
0.000000 0.685054 0.000000
0.021253 0.684315 0.000000
0.053003 0.683507 0.000000
0.087301 0.682636 0.000000
0.123912 0.681708 0.000000
0.162604 0.680731 0.000000
0.203141 0.679709 0.000000
0.245291 0.678651 0.000000
0.288819 0.677561 0.000000
0.333491 0.676446 0.000000
0.379071 0.675313 0.000000
0.425325 0.674166 0.000000
0.472019 0.673013 0.000000
0.518916 0.671859 0.000000
0.565781 0.670709 0.000000
0.612379 0.669570 0.000000
0.658473 0.668447 0.000000
0.703827 0.667347 0.000000
0.748205 0.666273 0.000000
0.791370 0.665232 0.000000
0.833085 0.664230 0.000000
0.873113 0.663271 0.000000
0.911218 0.662361 0.000000
0.947160 0.661504 0.000000
0.980704 0.660708 0.000000
1.000000 0.659975 0.000000
1.000000 0.659312 0.000000
1.000000 0.658724 0.000000
1.000000 0.658211 0.000000
1.000000 0.657714 0.000000
1.000000 0.657218 0.000000
0.000000 0.725207 0.000000
0.000000 0.724631 0.000000
0.000000 0.723974 0.000000
0.017851 0.723241 0.000000
0.049625 0.722441 0.000000
0.083948 0.721578 0.000000
0.120587 0.720659 0.000000
0.159308 0.719691 0.000000
0.199876 0.718679 0.000000
0.242058 0.717631 0.000000
0.285618 0.716551 0.000000
0.330323 0.715447 0.000000
0.375938 0.714325 0.000000
0.422227 0.713189 0.000000
0.468955 0.712047 0.000000
0.515888 0.710904 0.000000
0.562788 0.709766 0.000000
0.609421 0.708638 0.000000
0.655549 0.707526 0.000000
0.700937 0.706436 0.000000
0.745349 0.705373 0.000000
0.788546 0.704343 0.000000
0.830292 0.703350 0.000000
0.870351 0.702400 0.000000
0.908483 0.701499 0.000000
0.944453 0.700652 0.000000
0.978022 0.699863 0.000000
1.000000 0.699138 0.000000
1.000000 0.698482 0.000000
1.000000 0.697900 0.000000
1.000000 0.697391 0.000000
1.000000 0.696899 0.000000
1.000000 0.696408 0.000000
0.000000 0.763271 0.000000
0.000000 0.762700 0.000000
0.000000 0.762049 0.000000
0.014627 0.761324 0.000000
0.046424 0.760530 0.000000
0.080772 0.759675 0.000000
0.117438 0.758765 0.000000
0.156187 0.757806 0.000000
0.196785 0.756804 0.000000
0.238998 0.755765 0.000000
0.282591 0.754696 0.000000
0.327328 0.753603 0.000000
0.372976 0.752491 0.000000
0.419300 0.751366 0.000000
0.466062 0.750235 0.000000
0.513029 0.749102 0.000000
0.559964 0.747975 0.000000
0.606630 0.746858 0.000000
0.652793 0.745757 0.000000
0.698214 0.744678 0.000000
0.742658 0.743625 0.000000
0.785887 0.742605 0.000000
0.827664 0.741622 0.000000
0.867752 0.740682 0.000000
0.905912 0.739789 0.000000
0.941908 0.738950 0.000000
0.975502 0.738169 0.000000
1.000000 0.737451 0.000000
1.000000 0.736802 0.000000
1.000000 0.736225 0.000000
1.000000 0.735722 0.000000
1.000000 0.735235 0.000000
1.000000 0.734749 0.000000
0.000000 0.800314 0.000000
0.000000 0.799749 0.000000
0.000000 0.799103 0.000000
0.011588 0.798384 0.000000
0.043408 0.797598 0.000000
0.077781 0.796751 0.000000
0.114473 0.795849 0.000000
0.153249 0.794899 0.000000
0.193876 0.793906 0.000000
0.236119 0.792877 0.000000
0.279743 0.791818 0.000000
0.324513 0.790734 0.000000
0.370193 0.789632 0.000000
0.416549 0.788518 0.000000
0.463345 0.787398 0.000000
0.510345 0.786276 0.000000
0.557314 0.785159 0.000000
0.604014 0.784053 0.000000
0.650209 0.782962 0.000000
0.695663 0.781893 0.000000
0.740138 0.780851 0.000000
0.783398 0.779840 0.000000
0.825204 0.778867 0.000000
0.865321 0.777936 0.000000
0.903508 0.777052 0.000000
0.939530 0.776221 0.000000
0.973148 0.775447 0.000000
1.000000 0.774737 0.000000
1.000000 0.774093 0.000000
1.000000 0.773523 0.000000
1.000000 0.773024 0.000000
1.000000 0.772542 0.000000
1.000000 0.772060 0.000000
0.000000 0.836158 0.000000
0.000000 0.835597 0.000000
0.000000 0.834957 0.000000
0.008740 0.834245 0.000000
0.040581 0.833466 0.000000
0.074978 0.832626 0.000000
0.111695 0.831732 0.000000
0.150499 0.830790 0.000000
0.191154 0.829806 0.000000
0.233426 0.828787 0.000000
0.277080 0.827737 0.000000
0.321880 0.826663 0.000000
0.367592 0.825571 0.000000
0.413980 0.824468 0.000000
0.460808 0.823357 0.000000
0.507841 0.822246 0.000000
0.554841 0.821139 0.000000
0.601574 0.820043 0.000000
0.647801 0.818963 0.000000
0.693286 0.817903 0.000000
0.737792 0.816871 0.000000
0.781081 0.815869 0.000000
0.822917 0.814905 0.000000
0.863060 0.813983 0.000000
0.901274 0.813108 0.000000
0.937321 0.812284 0.000000
0.970961 0.811518 0.000000
1.000000 0.810814 0.000000
1.000000 0.810177 0.000000
1.000000 0.809612 0.000000
1.000000 0.809118 0.000000
1.000000 0.808641 0.000000
1.000000 0.808164 0.000000
0.000000 0.870623 0.000000
0.000000 0.870067 0.000000
0.000000 0.869433 0.000000
0.006086 0.868726 0.000000
0.037949 0.867954 0.000000
0.072369 0.867122 0.000000
0.109110 0.866235 0.000000
0.147940 0.865302 0.000000
0.188622 0.864326 0.000000
0.230921 0.863315 0.000000
0.274604 0.862275 0.000000
0.319434 0.861211 0.000000
0.365177 0.860129 0.000000
0.411595 0.859034 0.000000
0.458454 0.857934 0.000000
0.505518 0.856832 0.000000
0.552550 0.855736 0.000000
0.599313 0.854649 0.000000
0.645570 0.853579 0.000000
0.691085 0.852529 0.000000
0.735621 0.851506 0.000000
0.778939 0.850513 0.000000
0.820802 0.849558 0.000000
0.860972 0.848644 0.000000
0.899211 0.847777 0.000000
0.935281 0.846961 0.000000
0.968944 0.846202 0.000000
0.999961 0.845505 0.000000
1.000000 0.844873 0.000000
1.000000 0.844313 0.000000
1.000000 0.843824 0.000000
1.000000 0.843351 0.000000
1.000000 0.842879 0.000000
0.000000 0.903531 0.000000
0.000000 0.902979 0.000000
0.000000 0.902350 0.000000
0.003631 0.901650 0.000000
0.035514 0.900884 0.000000
0.069956 0.900058 0.000000
0.106720 0.899180 0.000000
0.145574 0.898254 0.000000
0.186282 0.897287 0.000000
0.228608 0.896284 0.000000
0.272319 0.895252 0.000000
0.317177 0.894197 0.000000
0.362948 0.893124 0.000000
0.409396 0.892039 0.000000
0.456285 0.890948 0.000000
0.503378 0.889856 0.000000
0.550439 0.888769 0.000000
0.597232 0.887692 0.000000
0.643519 0.886631 0.000000
0.689062 0.885590 0.000000
0.733626 0.884575 0.000000
0.776971 0.883592 0.000000
0.818860 0.882645 0.000000
0.859056 0.881739 0.000000
0.897319 0.880879 0.000000
0.933412 0.880071 0.000000
