waxal-templates/luts/waxal-nit.cube
TITLE "Waxal Nit"
# Original Waxal look — generated color math, no third-party data
LUT_3D_SIZE 9
0.034987 0.034987 0.034987
0.055178 0.055178 0.055178
0.079504 0.079504 0.079504
0.106719 0.106719 0.106719
0.136374 0.136374 0.136374
0.167627 0.167627 0.167627
0.197288 0.197288 0.197288
0.223426 0.223426 0.223426
0.244257 0.244257 0.244257
0.102960 0.102960 0.102960
0.123192 0.123192 0.123192
0.147567 0.147567 0.147567
0.174837 0.174837 0.174837
0.204552 0.204552 0.204552
0.235869 0.235869 0.235869
0.265589 0.265589 0.265589
0.291780 0.291780 0.291780
0.312655 0.312655 0.312655
0.184979 0.184979 0.184979
0.205261 0.205261 0.205261
0.229695 0.229695 0.229695
0.257033 0.257033 0.257033
0.286820 0.286820 0.286820
0.318213 0.318213 0.318213
0.348006 0.348006 0.348006
0.374261 0.374261 0.374261
0.395186 0.395186 0.395186
0.276909 0.276909 0.276909
0.297246 0.297246 0.297246
0.321747 0.321747 0.321747
0.349159 0.349159 0.349159
0.379028 0.379028 0.379028
0.410506 0.410506 0.410506
0.440380 0.440380 0.440380
0.466706 0.466706 0.466706
0.487688 0.487688 0.487688
0.377281 0.377281 0.377281
0.397678 0.397678 0.397678
0.422252 0.422252 0.422252
0.449744 0.449744 0.449744
0.479701 0.479701 0.479701
0.511273 0.511273 0.511273
0.541235 0.541235 0.541235
0.567638 0.567638 0.567638
0.588682 0.588682 0.588682
0.483286 0.483286 0.483286
0.503747 0.503747 0.503747
0.528397 0.528397 0.528397
0.555975 0.555975 0.555975
0.586025 0.586025 0.586025
0.617694 0.617694 0.617694
0.647749 0.647749 0.647749
0.674234 0.674234 0.674234
0.695343 0.695343 0.695343
0.584102 0.584102 0.584102
0.604623 0.604623 0.604623
0.629345 0.629345 0.629345
0.657004 0.657004 0.657004
0.687142 0.687142 0.687142
0.718904 0.718904 0.718904
0.749047 0.749047 0.749047
0.775610 0.775610 0.775610
0.796780 0.796780 0.796780
0.673117 0.673117 0.673117
0.693690 0.693690 0.693690
0.718476 0.718476 0.718476
0.746207 0.746207 0.746207
0.776423 0.776423 0.776423
0.808266 0.808266 0.808266
0.838487 0.838487 0.838487
0.865118 0.865118 0.865118
0.886342 0.886342 0.886342
0.744176 0.744176 0.744176
0.764792 0.764792 0.764792
0.789629 0.789629 0.789629
0.817416 0.817416 0.817416
0.847694 0.847694 0.847694
0.879602 0.879602 0.879602
0.909884 0.909884 0.909884
0.936570 0.936570 0.936570
0.957838 0.957838 0.957838
0.041843 0.041843 0.041843
0.062038 0.062038 0.062038
0.086369 0.086369 0.086369
0.113589 0.113589 0.113589
0.143250 0.143250 0.143250
0.174510 0.174510 0.174510
0.204176 0.204176 0.204176
0.230320 0.230320 0.230320
0.251156 0.251156 0.251156
0.109829 0.109829 0.109829
0.130065 0.130065 0.130065
0.154445 0.154445 0.154445
0.181721 0.181721 0.181721
0.211443 0.211443 0.211443
0.242766 0.242766 0.242766
0.272492 0.272492 0.272492
0.298689 0.298689 0.298689
0.319567 0.319567 0.319567
0.191866 0.191866 0.191866
0.212151 0.212151 0.212151
0.236591 0.236591 0.236591
0.263934 0.263934 0.263934
0.293728 0.293728 0.293728
0.325127 0.325127 0.325127
0.354926 0.354926 0.354926
0.381186 0.381186 0.381186
0.402115 0.402115 0.402115
0.283815 0.283815 0.283815
0.304156 0.304156 0.304156
0.328662 0.328662 0.328662
0.356079 0.356079 0.356079
0.385954 0.385954 0.385954
0.417439 0.417439 0.417439
0.447319 0.447319 0.447319
0.473650 0.473650 0.473650
0.494636 0.494636 0.494636
0.384206 0.384206 0.384206
0.404608 0.404608 0.404608
0.429186 0.429186 0.429186
0.456685 0.456685 0.456685
0.486648 0.486648 0.486648
0.518225 0.518225 0.518225
0.548194 0.548194 0.548194
0.574602 0.574602 0.574602
0.595650 0.595650 0.595650
0.490233 0.490233 0.490233
0.510698 0.510698 0.510698
0.535353 0.535353 0.535353
0.562937 0.562937 0.562937
0.592993 0.592993 0.592993
0.624668 0.624668 0.624668
0.654729 0.654729 0.654729
0.681220 0.681220 0.681220
0.702333 0.702333 0.702333
0.591069 0.591069 0.591069
0.611594 0.611594 0.611594
0.636322 0.636322 0.636322
0.663986 0.663986 0.663986
0.694131 0.694131 0.694131
0.725899 0.725899 0.725899
0.756048 0.756048 0.756048
0.782616 0.782616 0.782616
0.803791 0.803791 0.803791
0.680102 0.680102 0.680102
0.700680 0.700680 0.700680
0.725471 0.725471 0.725471
0.753207 0.753207 0.753207
0.783429 0.783429 0.783429
0.815279 0.815279 0.815279
0.845505 0.845505 0.845505
0.872142 0.872142 0.872142
0.893371 0.893371 0.893371
0.751176 0.751176 0.751176
0.771796 0.771796 0.771796
0.796638 0.796638 0.796638
0.824431 0.824431 0.824431
0.854714 0.854714 0.854714
0.886630 0.886630 0.886630
0.916918 0.916918 0.916918
0.943608 0.943608 0.943608
0.964880 0.964880 0.964880
0.050099 0.050099 0.050099
0.070299 0.070299 0.070299
0.094635 0.094635 0.094635
0.121863 0.121863 0.121863
0.151531 0.151531 0.151531
0.182798 0.182798 0.182798
0.212472 0.212472 0.212472
0.238622 0.238622 0.238622
0.259463 0.259463 0.259463
0.118102 0.118102 0.118102
0.138343 0.138343 0.138343
0.162729 0.162729 0.162729
0.190012 0.190012 0.190012
0.219740 0.219740 0.219740
0.251071 0.251071 0.251071
0.280805 0.280805 0.280805
0.307008 0.307008 0.307008
0.327891 0.327891 0.327891
0.200158 0.200158 0.200158
0.220449 0.220449 0.220449
0.244895 0.244895 0.244895
0.272244 0.272244 0.272244
0.302045 0.302045 0.302045
0.333452 0.333452 0.333452
0.363259 0.363259 0.363259
0.389525 0.389525 0.389525
0.410459 0.410459 0.410459
0.292130 0.292130 0.292130
0.312476 0.312476 0.312476
0.336988 0.336988 0.336988
0.364412 0.364412 0.364412
0.394294 0.394294 0.394294
0.425787 0.425787 0.425787
0.455674 0.455674 0.455674
0.482012 0.482012 0.482012
0.503003 0.503003 0.503003
0.392546 0.392546 0.392546
0.412953 0.412953 0.412953
0.437537 0.437537 0.437537
0.465042 0.465042 0.465042
0.495013 0.495013 0.495013
0.526598 0.526598 0.526598
0.556574 0.556574 0.556574
0.582989 0.582989 0.582989
0.604042 0.604042 0.604042
0.498599 0.498599 0.498599
0.519069 0.519069 0.519069
0.543730 0.543730 0.543730
0.571320 0.571320 0.571320
0.601384 0.601384 0.601384
0.633067 0.633067 0.633067
0.663135 0.663135 0.663135
0.689632 0.689632 0.689632
0.710750 0.710750 0.710750
0.599460 0.599460 0.599460
0.619990 0.619990 0.619990
0.644723 0.644723 0.644723
0.672395 0.672395 0.672395
0.702546 0.702546 0.702546
0.734322 0.734322 0.734322
0.764479 0.764479 0.764479
0.791053 0.791053 0.791053
0.812233 0.812233 0.812233
0.688514 0.688514 0.688514
0.709097 0.709097 0.709097
0.733894 0.733894 0.733894
0.761637 0.761637 0.761637
0.791866 0.791866 0.791866
0.823724 0.823724 0.823724
0.853958 0.853958 0.853958
0.880600 0.880600 0.880600
0.901834 0.901834 0.901834
0.759605 0.759605 0.759605
0.780230 0.780230 0.780230
0.805078 0.805078 0.805078
0.832878 0.832878 0.832878
0.863169 0.863169 0.863169
0.895092 0.895092 0.895092
0.925387 0.925387 0.925387
0.952084 0.952084 0.952084
0.973362 0.973362 0.973362
0.059331 0.059331 0.059331
0.079536 0.079536 0.079536
0.103879 0.103879 0.103879
0.131114 0.131114 0.131114
0.160791 0.160791 0.160791
0.192067 0.192067 0.192067
0.221749 0.221749 0.221749
0.247906 0.247906 0.247906
0.268753 0.268753 0.268753
0.127352 0.127352 0.127352
0.147599 0.147599 0.147599
0.171992 0.171992 0.171992
0.199282 0.199282 0.199282
0.229019 0.229019 0.229019
0.260358 0.260358 0.260358
0.290100 0.290100 0.290100
0.316310 0.316310 0.316310
0.337199 0.337199 0.337199
0.209432 0.209432 0.209432
0.229728 0.229728 0.229728
0.254180 0.254180 0.254180
0.281537 0.281537 0.281537
0.311347 0.311347 0.311347
0.342762 0.342762 0.342762
0.372577 0.372577 0.372577
0.398850 0.398850 0.398850
0.419790 0.419790 0.419790
0.301428 0.301428 0.301428
0.321780 0.321780 0.321780
0.346299 0.346299 0.346299
0.373730 0.373730 0.373730
0.403621 0.403621 0.403621
0.435122 0.435122 0.435122
0.465017 0.465017 0.465017
0.491362 0.491362 0.491362
0.512359 0.512359 0.512359
0.401872 0.401872 0.401872
0.422284 0.422284 0.422284
0.446876 0.446876 0.446876
0.474388 0.474388 0.474388
0.504367 0.504367 0.504367
0.535961 0.535961 0.535961
0.565945 0.565945 0.565945
0.592367 0.592367 0.592367
0.613426 0.613426 0.613426
0.507954 0.507954 0.507954
0.528429 0.528429 0.528429
0.553097 0.553097 0.553097
0.580695 0.580695 0.580695
0.610767 0.610767 0.610767
0.642459 0.642459 0.642459
0.672535 0.672535 0.672535
0.699039 0.699039 0.699039
0.720163 0.720163 0.720163
0.608843 0.608843 0.608843
0.629378 0.629378 0.629378
0.654118 0.654118 0.654118
0.681797 0.681797 0.681797
0.711957 0.711957 0.711957
0.743742 0.743742 0.743742
0.773906 0.773906 0.773906
0.800488 0.800488 0.800488
0.821673 0.821673 0.821673
0.697921 0.697921 0.697921
0.718509 0.718509 0.718509
0.743313 0.743313 0.743313
0.771064 0.771064 0.771064
0.801301 0.801301 0.801301
0.833167 0.833167 0.833167
0.863409 0.863409 0.863409
0.890059 0.890059 0.890059
0.911299 0.911299 0.911299
0.769031 0.769031 0.769031
0.789662 0.789662 0.789662
0.814517 0.814517 0.814517
0.842324 0.842324 0.842324
0.872623 0.872623 0.872623
0.904554 0.904554 0.904554
0.934858 0.934858 0.934858
0.961562 0.961562 0.961562
0.982845 0.982845 0.982845
0.069384 0.069384 0.069384
0.089596 0.089596 0.089596
0.113947 0.113947 0.113947
0.141190 0.141190 0.141190
0.170875 0.170875 0.170875
0.202161 0.202161 0.202161
0.231851 0.231851 0.231851
0.258016 0.258016 0.258016
0.278870 0.278870 0.278870
0.137427 0.137427 0.137427
0.157679 0.157679 0.157679
0.182079 0.182079 0.182079
0.209378 0.209378 0.209378
0.239124 0.239124 0.239124
0.270472 0.270472 0.270472
0.300223 0.300223 0.300223
0.326441 0.326441 0.326441
0.347337 0.347337 0.347337
0.219531 0.219531 0.219531
0.239833 0.239833 0.239833
0.264292 0.264292 0.264292
0.291658 0.291658 0.291658
0.321476 0.321476 0.321476
0.352901 0.352901 0.352901
0.382724 0.382724 0.382724
0.409006 0.409006 0.409006
0.429952 0.429952 0.429952
0.311555 0.311555 0.311555
0.331913 0.331913 0.331913
0.356439 0.356439 0.356439
0.383878 0.383878 0.383878
0.413778 0.413778 0.413778
0.445288 0.445288 0.445288
0.475193 0.475193 0.475193
0.501545 0.501545 0.501545
0.522548 0.522548 0.522548
0.412029 0.412029 0.412029
0.432447 0.432447 0.432447
0.457045 0.457045 0.457045
0.484566 0.484566 0.484566
0.514554 0.514554 0.514554
0.546157 0.546157 0.546157
0.576150 0.576150 0.576150
0.602580 0.602580 0.602580
0.623645 0.623645 0.623645
0.518142 0.518142 0.518142
0.538624 0.538624 0.538624
0.563299 0.563299 0.563299
0.590905 0.590905 0.590905
0.620985 0.620985 0.620985
0.652687 0.652687 0.652687
0.682772 0.682772 0.682772
0.709284 0.709284 0.709284
0.730414 0.730414 0.730414
0.619060 0.619060 0.619060
0.639602 0.639602 0.639602
0.664349 0.664349 0.664349
0.692037 0.692037 0.692037
0.722205 0.722205 0.722205
0.753999 0.753999 0.753999
0.784173 0.784173 0.784173
0.810762 0.810762 0.810762
0.831954 0.831954 0.831954
0.708165 0.708165 0.708165
0.728760 0.728760 0.728760
0.753571 0.753571 0.753571
0.781329 0.781329 0.781329
0.811576 0.811576 0.811576
0.843452 0.843452 0.843452
0.873702 0.873702 0.873702
0.900360 0.900360 0.900360
0.921606 0.921606 0.921606
0.779297 0.779297 0.779297
0.799933 0.799933 0.799933
0.824795 0.824795 0.824795
0.852611 0.852611 0.852611
0.882919 0.882919 0.882919
0.914860 0.914860 0.914860
0.945172 0.945172 0.945172
0.971884 0.971884 0.971884
0.993173 0.993173 0.993173
0.079974 0.079974 0.079974
0.100192 0.100192 0.100192
0.124550 0.124550 0.124550
0.151802 0.151802 0.151802
0.181497 0.181497 0.181497
0.212792 0.212792 0.212792
0.242492 0.242492 0.242492
0.268665 0.268665 0.268665
0.289525 0.289525 0.289525
0.148037 0.148037 0.148037
0.168297 0.168297 0.168297
0.192704 0.192704 0.192704
0.220011 0.220011 0.220011
0.249767 0.249767 0.249767
0.281125 0.281125 0.281125
0.310885 0.310885 0.310885
0.337111 0.337111 0.337111
0.358014 0.358014 0.358014
0.230167 0.230167 0.230167
0.250476 0.250476 0.250476
0.274943 0.274943 0.274943
0.302317 0.302317 0.302317
0.332145 0.332145 0.332145
0.363580 0.363580 0.363580
0.393412 0.393412 0.393412
0.419702 0.419702 0.419702
0.440655 0.440655 0.440655
0.322221 0.322221 0.322221
0.342585 0.342585 0.342585
0.367119 0.367119 0.367119
0.394567 0.394567 0.394567
0.424476 0.424476 0.424476
0.455996 0.455996 0.455996
0.485910 0.485910 0.485910
0.512271 0.512271 0.512271
0.533280 0.533280 0.533280
0.422726 0.422726 0.422726
0.443150 0.443150 0.443150
0.467757 0.467757 0.467757
0.495286 0.495286 0.495286
0.525283 0.525283 0.525283
0.556897 0.556897 0.556897
0.586898 0.586898 0.586898
0.613337 0.613337 0.613337
0.634408 0.634408 0.634408
0.528873 0.528873 0.528873
0.549360 0.549360 0.549360
0.574043 0.574043 0.574043
0.601658 0.601658 0.601658
0.631748 0.631748 0.631748
0.663459 0.663459 0.663459
0.693554 0.693554 0.693554
0.720074 0.720074 0.720074
0.741211 0.741211 0.741211
0.629823 0.629823 0.629823
0.650370 0.650370 0.650370
0.675126 0.675126 0.675126
0.702821 0.702821 0.702821
0.732999 0.732999 0.732999
0.764803 0.764803 0.764803
0.794986 0.794986 0.794986
0.821584 0.821584 0.821584
0.842782 0.842782 0.842782
0.718955 0.718955 0.718955
0.739556 0.739556 0.739556
0.764375 0.764375 0.764375
0.792142 0.792142 0.792142
0.822398 0.822398 0.822398
0.854283 0.854283 0.854283
0.884543 0.884543 0.884543
0.911209 0.911209 0.911209
0.932462 0.932462 0.932462
0.790109 0.790109 0.790109
0.810752 0.810752 0.810752
0.835621 0.835621 0.835621
0.863445 0.863445 0.863445
0.893763 0.893763 0.893763
0.925713 0.925713 0.925713
0.956035 0.956035 0.956035
0.982756 0.982756 0.982756
1.000000 1.000000 1.000000
0.090017 0.090017 0.090017
0.110241 0.110241 0.110241
0.134607 0.134607 0.134607
0.161867 0.161867 0.161867
0.191571 0.191571 0.191571
0.222875 0.222875 0.222875
0.252584 0.252584 0.252584
0.278765 0.278765 0.278765
0.299631 0.299631 0.299631
0.158101 0.158101 0.158101
0.178367 0.178367 0.178367
0.202782 0.202782 0.202782
0.230097 0.230097 0.230097
0.259861 0.259861 0.259861
0.291229 0.291229 0.291229
0.320998 0.320998 0.320998
0.347232 0.347232 0.347232
0.368140 0.368140 0.368140
0.240256 0.240256 0.240256
0.260571 0.260571 0.260571
0.285045 0.285045 0.285045
0.312427 0.312427 0.312427
0.342264 0.342264 0.342264
0.373708 0.373708 0.373708
0.403550 0.403550 0.403550
0.429847 0.429847 0.429847
0.450806 0.450806 0.450806
0.332337 0.332337 0.332337
0.352707 0.352707 0.352707
0.377248 0.377248 0.377248
0.404704 0.404704 0.404704
0.434622 0.434622 0.434622
0.466152 0.466152 0.466152
0.496074 0.496074 0.496074
0.522443 0.522443 0.522443
0.543459 0.543459 0.543459
0.432872 0.432872 0.432872
0.453303 0.453303 0.453303
0.477916 0.477916 0.477916
0.505454 0.505454 0.505454
0.535460 0.535460 0.535460
0.567082 0.567082 0.567082
0.597093 0.597093 0.597093
0.623540 0.623540 0.623540
0.644617 0.644617 0.644617
0.539050 0.539050 0.539050
0.559544 0.559544 0.559544
0.584234 0.584234 0.584234
0.611857 0.611857 0.611857
0.641956 0.641956 0.641956
0.673676 0.673676 0.673676
0.703780 0.703780 0.703780
0.730308 0.730308 0.730308
0.751451 0.751451 0.751451
0.640030 0.640030 0.640030
0.660584 0.660584 0.660584
0.685346 0.685346 0.685346
0.713050 0.713050 0.713050
0.743237 0.743237 0.743237
0.775051 0.775051 0.775051
0.805242 0.805242 0.805242
0.831848 0.831848 0.831848
0.853052 0.853052 0.853052
0.729189 0.729189 0.729189
0.749796 0.749796 0.749796
0.774622 0.774622 0.774622
0.802397 0.802397 0.802397
0.832662 0.832662 0.832662
0.864557 0.864557 0.864557
0.894826 0.894826 0.894826
0.921500 0.921500 0.921500
0.942759 0.942759 0.942759
0.800363 0.800363 0.800363
0.821012 0.821012 0.821012
0.845889 0.845889 0.845889
0.873721 0.873721 0.873721
0.904048 0.904048 0.904048
0.936008 0.936008 0.936008
0.966339 0.966339 0.966339
0.993067 0.993067 0.993067
1.000000 1.000000 1.000000
0.098863 0.098863 0.098863
0.119093 0.119093 0.119093
0.143465 0.143465 0.143465
0.170732 0.170732 0.170732
0.200444 0.200444 0.200444
0.231756 0.231756 0.231756
0.261473 0.261473 0.261473
0.287661 0.287661 0.287661
0.308533 0.308533 0.308533
0.166965 0.166965 0.166965
0.187236 0.187236 0.187236
0.211657 0.211657 0.211657
0.238980 0.238980 0.238980
0.268752 0.268752 0.268752
0.300128 0.300128 0.300128
0.329905 0.329905 0.329905
0.356146 0.356146 0.356146
0.377060 0.377060 0.377060
0.249142 0.249142 0.249142
0.269462 0.269462 0.269462
0.293943 0.293943 0.293943
0.321332 0.321332 0.321332
0.351176 0.351176 0.351176
0.382629 0.382629 0.382629
0.412478 0.412478 0.412478
0.438783 0.438783 0.438783
0.459747 0.459747 0.459747
0.341247 0.341247 0.341247
0.361622 0.361622 0.361622
0.386170 0.386170 0.386170
0.413633 0.413633 0.413633
0.443559 0.443559 0.443559
0.475097 0.475097 0.475097
0.505027 0.505027 0.505027
0.531403 0.531403 0.531403
0.552424 0.552424 0.552424
0.441808 0.441808 0.441808
0.462244 0.462244 0.462244
0.486864 0.486864 0.486864
0.514409 0.514409 0.514409
0.544423 0.544423 0.544423
0.576054 0.576054 0.576054
0.606072 0.606072 0.606072
0.632526 0.632526 0.632526
0.653609 0.653609 0.653609
0.548014 0.548014 0.548014
0.568513 0.568513 0.568513
0.593210 0.593210 0.593210
0.620840 0.620840 0.620840
0.650947 0.650947 0.650947
0.682675 0.682675 0.682675
0.712787 0.712787 0.712787
0.739322 0.739322 0.739322
0.760470 0.760470 0.760470
0.649020 0.649020 0.649020
0.669579 0.669579 0.669579
0.694348 0.694348 0.694348
0.722060 0.722060 0.722060
0.752254 0.752254 0.752254
0.784076 0.784076 0.784076
0.814275 0.814275 0.814275
0.840888 0.840888 0.840888
0.862098 0.862098 0.862098
0.738202 0.738202 0.738202
0.758815 0.758815 0.758815
0.783647 0.783647 0.783647
0.811430 0.811430 0.811430
0.841702 0.841702 0.841702
0.873605 0.873605 0.873605
0.903882 0.903882 0.903882
0.930563 0.930563 0.930563
0.951827 0.951827 0.951827
0.809395 0.809395 0.809395
0.830050 0.830050 0.830050
0.854933 0.854933 0.854933
0.882772 0.882772 0.882772
0.913107 0.913107 0.913107
0.945075 0.945075 0.945075
0.975413 0.975413 0.975413
1.000000 1.000000 1.000000
1.000000 1.000000 1.000000
0.105910 0.105910 0.105910
0.126144 0.126144 0.126144
0.150521 0.150521 0.150521
0.177794 0.177794 0.177794
0.207512 0.207512 0.207512
0.238831 0.238831 0.238831
0.268554 0.268554 0.268554
0.294748 0.294748 0.294748
0.315624 0.315624 0.315624
0.174027 0.174027 0.174027
0.194302 0.194302 0.194302
0.218728 0.218728 0.218728
0.246056 0.246056 0.246056
0.275835 0.275835 0.275835
0.307217 0.307217 0.307217
0.337001 0.337001 0.337001
0.363247 0.363247 0.363247
0.384165 0.384165 0.384165
0.256220 0.256220 0.256220
0.276545 0.276545 0.276545
0.301031 0.301031 0.301031
0.328426 0.328426 0.328426
0.358276 0.358276 0.358276
0.389735 0.389735 0.389735
0.419591 0.419591 0.419591
0.445901 0.445901 0.445901
0.466870 0.466870 0.466870
0.348344 0.348344 0.348344
0.368724 0.368724 0.368724
0.393277 0.393277 0.393277
0.420746 0.420746 0.420746
0.450678 0.450678 0.450678
0.482223 0.482223 0.482223
0.512159 0.512159 0.512159
0.538540 0.538540 0.538540
0.559566 0.559566 0.559566
0.448927 0.448927 0.448927
0.469367 0.469367 0.469367
0.493993 0.493993 0.493993
0.521543 0.521543 0.521543
0.551563 0.551563 0.551563
0.583200 0.583200 0.583200
0.613225 0.613225 0.613225
0.639684 0.639684 0.639684
0.660772 0.660772 0.660772
0.555155 0.555155 0.555155
0.575659 0.575659 0.575659
0.600360 0.600360 0.600360
0.627996 0.627996 0.627996
0.658109 0.658109 0.658109
0.689844 0.689844 0.689844
0.719962 0.719962 0.719962
0.746502 0.746502 0.746502
0.767655 0.767655 0.767655
0.656182 0.656182 0.656182
0.676746 0.676746 0.676746
0.701520 0.701520 0.701520
0.729237 0.729237 0.729237
0.759438 0.759438 0.759438
0.791266 0.791266 0.791266
0.821471 0.821471 0.821471
0.848089 0.848089 0.848089
0.869304 0.869304 0.869304
0.745383 0.745383 0.745383
0.765999 0.765999 0.765999
0.790837 0.790837 0.790837
0.818625 0.818625 0.818625
0.848904 0.848904 0.848904
0.880814 0.880814 0.880814
0.911097 0.911097 0.911097
0.937783 0.937783 0.937783
0.959052 0.959052 0.959052
0.816590 0.816590 0.816590
0.837249 0.837249 0.837249
0.862138 0.862138 0.862138
0.889982 0.889982 0.889982
0.920323 0.920323 0.920323
0.952298 0.952298 0.952298
0.982643 0.982643 0.982643
1.000000 1.000000 1.000000
1.000000 1.000000 1.000000
