waxal-templates/luts/waxal-teranga.cube
TITLE "Waxal Teranga"
# Original Waxal look — generated color math, no third-party data
LUT_3D_SIZE 33
0.011077 0.000000 0.000000
0.038906 0.000000 0.000000
0.068391 0.000000 0.000000
0.099417 0.000000 0.000000
0.131869 0.000000 0.000000
0.165630 0.000000 0.000000
0.200584 0.000000 0.000000
0.236617 0.000000 0.000000
0.273612 0.000000 0.000000
0.311453 0.000000 0.000000
0.350025 0.000000 0.000000
0.389212 0.000000 0.000000
0.428897 0.000000 0.000000
0.468964 0.000000 0.000000
0.509297 0.000000 0.000000
0.549781 0.000000 0.000000
0.590298 0.000000 0.000000
0.630732 0.000000 0.000000
0.670968 0.000000 0.000000
0.710887 0.000000 0.000000
0.750375 0.000000 0.000000
0.789313 0.000000 0.000000
0.827587 0.000000 0.000000
0.865077 0.000000 0.000000
0.901669 0.000000 0.000000
0.937245 0.000000 0.000000
0.971688 0.000000 0.000000
1.000000 0.000000 0.000000
1.000000 0.000000 0.000000
1.000000 0.000000 0.000000
1.000000 0.000000 0.000000
1.000000 0.000000 0.000000
1.000000 0.000000 0.000000
0.008947 0.025206 0.000000
0.036784 0.024660 0.000000
0.066279 0.024082 0.000000
0.097316 0.023476 0.000000
0.129778 0.022842 0.000000
0.163550 0.022185 0.000000
0.198516 0.021506 0.000000
0.234560 0.020807 0.000000
0.271567 0.020092 0.000000
0.309421 0.019361 0.000000
0.348006 0.018619 0.000000
0.387205 0.017866 0.000000
0.426902 0.017106 0.000000
0.466983 0.016340 0.000000
0.507329 0.015571 0.000000
0.547826 0.014801 0.000000
0.588356 0.014032 0.000000
0.628804 0.013267 0.000000
0.669052 0.012508 0.000000
0.708985 0.011757 0.000000
0.748485 0.011015 0.000000
0.787437 0.010286 0.000000
0.825722 0.009571 0.000000
0.863225 0.008872 0.000000
0.899829 0.008192 0.000000
0.935416 0.007532 0.000000
0.969870 0.006894 0.000000
1.000000 0.006281 0.000000
1.000000 0.005694 0.000000
1.000000 0.005136 0.000000
1.000000 0.004608 0.000000
1.000000 0.004109 0.000000
1.000000 0.003613 0.000000
0.006727 0.052005 0.000000
0.034574 0.051462 0.000000
0.064079 0.050888 0.000000
0.095126 0.050285 0.000000
0.127600 0.049655 0.000000
0.161383 0.049001 0.000000
0.196361 0.048326 0.000000
0.232418 0.047631 0.000000
0.269438 0.046919 0.000000
0.307305 0.046193 0.000000
0.345902 0.045454 0.000000
0.385115 0.044706 0.000000
0.424826 0.043950 0.000000
0.464921 0.043188 0.000000
0.505281 0.042423 0.000000
0.545792 0.041658 0.000000
0.586336 0.040894 0.000000
0.626797 0.040133 0.000000
0.667059 0.039378 0.000000
0.707006 0.038631 0.000000
0.746520 0.037893 0.000000
0.785485 0.037168 0.000000
0.823783 0.036457 0.000000
0.861299 0.035762 0.000000
0.897915 0.035086 0.000000
0.933515 0.034429 0.000000
0.967981 0.033796 0.000000
1.000000 0.033186 0.000000
1.000000 0.032603 0.000000
1.000000 0.032048 0.000000
1.000000 0.031523 0.000000
1.000000 0.031026 0.000000
1.000000 0.030534 0.000000
0.004430 0.080162 0.000000
0.032288 0.079622 0.000000
0.061804 0.079050 0.000000
0.092862 0.078451 0.000000
0.125347 0.077825 0.000000
0.159143 0.077175 0.000000
0.194133 0.076503 0.000000
0.230203 0.075812 0.000000
0.267237 0.075105 0.000000
0.305117 0.074382 0.000000
0.343729 0.073648 0.000000
0.382955 0.072904 0.000000
0.422681 0.072152 0.000000
0.462790 0.071395 0.000000
0.503165 0.070635 0.000000
0.543690 0.069874 0.000000
0.584249 0.069114 0.000000
0.624725 0.068358 0.000000
0.665002 0.067607 0.000000
0.704962 0.066865 0.000000
0.744491 0.066132 0.000000
0.783469 0.065411 0.000000
0.821782 0.064704 0.000000
0.859311 0.064013 0.000000
0.895941 0.063341 0.000000
0.931553 0.062689 0.000000
0.966032 0.062059 0.000000
0.999259 0.061453 0.000000
1.000000 0.060873 0.000000
1.000000 0.060321 0.000000
1.000000 0.059800 0.000000
1.000000 0.059306 0.000000
1.000000 0.058817 0.000000
0.002070 0.109579 0.000000
0.029938 0.109043 0.000000
0.059465 0.108475 0.000000
0.090535 0.107879 0.000000
0.123032 0.107256 0.000000
0.156841 0.106610 0.000000
0.191845 0.105943 0.000000
0.227928 0.105256 0.000000
0.264976 0.104553 0.000000
0.302870 0.103835 0.000000
0.341497 0.103105 0.000000
0.380738 0.102366 0.000000
0.420479 0.101619 0.000000
0.460603 0.100866 0.000000
0.500993 0.100111 0.000000
0.541533 0.099354 0.000000
0.582107 0.098599 0.000000
0.622599 0.097848 0.000000
0.662891 0.097102 0.000000
0.702867 0.096364 0.000000
0.742410 0.095636 0.000000
0.781403 0.094919 0.000000
0.819730 0.094217 0.000000
0.857274 0.093531 0.000000
0.893917 0.092862 0.000000
0.929543 0.092214 0.000000
0.964034 0.091588 0.000000
0.997274 0.090986 0.000000
1.000000 0.090410 0.000000
1.000000 0.089862 0.000000
1.000000 0.089344 0.000000
1.000000 0.088853 0.000000
1.000000 0.088367 0.000000
0.000000 0.140164 0.000000
0.027538 0.139631 0.000000
0.057076 0.139067 0.000000
0.088158 0.138474 0.000000
0.120668 0.137856 0.000000
0.154490 0.137214 0.000000
0.189508 0.136551 0.000000
0.225606 0.135868 0.000000
0.262667 0.135170 0.000000
0.300577 0.134456 0.000000
0.339218 0.133731 0.000000
0.378475 0.132996 0.000000
0.418231 0.132254 0.000000
0.458371 0.131506 0.000000
0.498777 0.130756 0.000000
0.539333 0.130004 0.000000
0.579923 0.129254 0.000000
0.620430 0.128508 0.000000
0.660738 0.127767 0.000000
0.700730 0.127033 0.000000
0.740288 0.126310 0.000000
0.779297 0.125598 0.000000
0.817639 0.124900 0.000000
0.855197 0.124219 0.000000
0.891855 0.123555 0.000000
0.927494 0.122911 0.000000
0.961999 0.122289 0.000000
0.995252 0.121691 0.000000
1.000000 0.121119 0.000000
1.000000 0.120574 0.000000
1.000000 0.120060 0.000000
1.000000 0.119572 0.000000
1.000000 0.119089 0.000000
0.000000 0.171821 0.000000
0.025099 0.171291 0.000000
0.054649 0.170731 0.000000
0.085744 0.170142 0.000000
0.118267 0.169528 0.000000
0.152102 0.168890 0.000000
0.187134 0.168231 0.000000
0.223247 0.167554 0.000000
0.260323 0.166859 0.000000
0.298248 0.166151 0.000000
0.336905 0.165431 0.000000
0.376178 0.164701 0.000000
0.415951 0.163963 0.000000
0.456106 0.163221 0.000000
0.496529 0.162475 0.000000
0.537101 0.161729 0.000000
0.577708 0.160984 0.000000
0.618231 0.160242 0.000000
0.658556 0.159506 0.000000
0.698563 0.158778 0.000000
0.738138 0.158059 0.000000
0.777162 0.157352 0.000000
0.815520 0.156659 0.000000
0.853093 0.155982 0.000000
0.889766 0.155323 0.000000
0.925420 0.154684 0.000000
0.959939 0.154066 0.000000
0.993205 0.153472 0.000000
1.000000 0.152904 0.000000
1.000000 0.152363 0.000000
1.000000 0.151852 0.000000
1.000000 0.151368 0.000000
1.000000 0.150889 0.000000
0.000000 0.204455 0.000000
0.022632 0.203929 0.000000
0.052195 0.203373 0.000000
0.083303 0.202788 0.000000
0.115840 0.202178 0.000000
0.149689 0.201544 0.000000
0.184736 0.200890 0.000000
0.220863 0.200217 0.000000
0.257955 0.199527 0.000000
0.295896 0.198824 0.000000
0.334569 0.198109 0.000000
0.373859 0.197384 0.000000
0.413648 0.196651 0.000000
0.453820 0.195914 0.000000
0.494259 0.195174 0.000000
0.534849 0.194432 0.000000
0.575472 0.193693 0.000000
0.616013 0.192956 0.000000
0.656354 0.192225 0.000000
0.696378 0.191502 0.000000
0.735969 0.190789 0.000000
0.775010 0.190087 0.000000
0.813383 0.189399 0.000000
0.850972 0.188727 0.000000
0.887660 0.188072 0.000000
0.923329 0.187437 0.000000
0.957862 0.186824 0.000000
0.991142 0.186234 0.000000
1.000000 0.185670 0.000000
1.000000 0.185133 0.000000
1.000000 0.184626 0.000000
1.000000 0.184146 0.000000
1.000000 0.183669 0.000000
0.000000 0.237972 0.000000
0.020150 0.237449 0.000000
0.049726 0.236897 0.000000
0.080847 0.236316 0.000000
0.113398 0.235710 0.000000
0.147262 0.235081 0.000000
0.182323 0.234431 0.000000
0.218466 0.233763 0.000000
0.255574 0.233079 0.000000
0.293531 0.232380 0.000000
0.332221 0.231670 0.000000
0.371527 0.230950 0.000000
0.411333 0.230223 0.000000
0.451523 0.229491 0.000000
0.491979 0.228756 0.000000
0.532586 0.228020 0.000000
0.573227 0.227286 0.000000
0.613785 0.226555 0.000000
0.654143 0.225829 0.000000
0.694185 0.225111 0.000000
0.733793 0.224403 0.000000
0.772850 0.223706 0.000000
0.811240 0.223023 0.000000
0.848845 0.222356 0.000000
0.885549 0.221706 0.000000
0.921233 0.221076 0.000000
0.955781 0.220467 0.000000
0.989075 0.219882 0.000000
1.000000 0.219322 0.000000
1.000000 0.218789 0.000000
1.000000 0.218286 0.000000
1.000000 0.217809 0.000000
1.000000 0.217336 0.000000
0.000000 0.272275 0.000000
0.017664 0.271756 0.000000
0.047252 0.271208 0.000000
0.078387 0.270631 0.000000
0.110952 0.270030 0.000000
0.144831 0.269406 0.000000
0.179908 0.268760 0.000000
0.216066 0.268097 0.000000
0.253191 0.267418 0.000000
0.291164 0.266724 0.000000
0.329871 0.266019 0.000000
0.369194 0.265305 0.000000
0.409018 0.264583 0.000000
0.449225 0.263856 0.000000
0.489699 0.263127 0.000000
0.530324 0.262396 0.000000
0.570983 0.261667 0.000000
0.611558 0.260942 0.000000
0.651934 0.260222 0.000000
0.691993 0.259509 0.000000
0.731618 0.258806 0.000000
0.770693 0.258115 0.000000
0.809100 0.257437 0.000000
0.846721 0.256775 0.000000
0.883441 0.256130 0.000000
0.919140 0.255505 0.000000
0.953703 0.254901 0.000000
0.987012 0.254320 0.000000
1.000000 0.253764 0.000000
1.000000 0.253236 0.000000
1.000000 0.252736 0.000000
1.000000 0.252263 0.000000
1.000000 0.251794 0.000000
0.000000 0.307270 0.000000
0.015182 0.306755 0.000000
0.044784 0.306211 0.000000
0.075933 0.305639 0.000000
0.108512 0.305042 0.000000
0.142406 0.304422 0.000000
0.177499 0.303782 0.000000
0.213674 0.303123 0.000000
0.250815 0.302449 0.000000
0.288805 0.301761 0.000000
0.327529 0.301061 0.000000
0.366870 0.300352 0.000000
0.406711 0.299636 0.000000
0.446936 0.298914 0.000000
0.487429 0.298190 0.000000
0.528072 0.297466 0.000000
0.568748 0.296742 0.000000
0.609342 0.296022 0.000000
0.649736 0.295308 0.000000
0.689813 0.294601 0.000000
0.729456 0.293903 0.000000
0.768548 0.293217 0.000000
0.806971 0.292545 0.000000
0.844610 0.291887 0.000000
0.881346 0.291248 0.000000
0.917061 0.290627 0.000000
0.951640 0.290028 0.000000
0.984963 0.289452 0.000000
1.000000 0.288900 0.000000
1.000000 0.288376 0.000000
1.000000 0.287880 0.000000
1.000000 0.287411 0.000000
1.000000 0.286946 0.000000
0.000000 0.342861 0.000000
0.012716 0.342350 0.000000
0.042331 0.341810 0.000000
0.073494 0.341242 0.000000
0.106088 0.340649 0.000000
0.139998 0.340034 0.000000
0.175106 0.339399 0.000000
0.211298 0.338746 0.000000
0.248455 0.338076 0.000000
0.286463 0.337394 0.000000
0.325205 0.336699 0.000000
0.364563 0.335996 0.000000
0.404423 0.335285 0.000000
0.444666 0.334570 0.000000
0.485177 0.333851 0.000000
0.525838 0.333132 0.000000
0.566533 0.332414 0.000000
0.607145 0.331700 0.000000
0.647558 0.330991 0.000000
0.687653 0.330290 0.000000
0.727313 0.329598 0.000000
0.766423 0.328917 0.000000
0.804864 0.328250 0.000000
0.842520 0.327598 0.000000
0.879272 0.326963 0.000000
0.915004 0.326348 0.000000
0.949598 0.325754 0.000000
0.982937 0.325182 0.000000
1.000000 0.324635 0.000000
1.000000 0.324115 0.000000
1.000000 0.323623 0.000000
1.000000 0.323158 0.000000
1.000000 0.322696 0.000000
0.000000 0.378952 0.000000
0.010275 0.378445 0.000000
0.039903 0.377909 0.000000
0.071080 0.377346 0.000000
0.103690 0.376758 0.000000
0.137615 0.376148 0.000000
0.172739 0.375517 0.000000
0.208947 0.374869 0.000000
0.246122 0.374205 0.000000
0.284148 0.373528 0.000000
0.322907 0.372839 0.000000
0.362284 0.372141 0.000000
0.402161 0.371436 0.000000
0.442423 0.370726 0.000000
0.482952 0.370013 0.000000
0.523632 0.369300 0.000000
0.564346 0.368588 0.000000
0.604977 0.367879 0.000000
0.645408 0.367176 0.000000
0.685521 0.366480 0.000000
0.725200 0.365794 0.000000
0.764328 0.365119 0.000000
0.802787 0.364457 0.000000
0.840459 0.363811 0.000000
0.877228 0.363181 0.000000
0.912977 0.362571 0.000000
0.947587 0.361981 0.000000
0.980941 0.361414 0.000000
1.000000 0.360872 0.000000
1.000000 0.360356 0.000000
1.000000 0.359869 0.000000
1.000000 0.359407 0.000000
1.000000 0.358949 0.000000
0.000000 0.415448 0.000000
0.007866 0.414945 0.000000
0.037509 0.414413 0.000000
0.068700 0.413854 0.000000
0.101325 0.413271 0.000000
0.135265 0.412666 0.000000
0.170406 0.412040 0.000000
0.206631 0.411397 0.000000
0.243823 0.410739 0.000000
0.281866 0.410066 0.000000
0.320644 0.409383 0.000000
0.360039 0.408691 0.000000
0.399935 0.407992 0.000000
0.440215 0.407288 0.000000
0.480763 0.406581 0.000000
0.521462 0.405873 0.000000
0.562195 0.405167 0.000000
0.602845 0.404464 0.000000
0.643294 0.403767 0.000000
0.683426 0.403077 0.000000
0.723123 0.402396 0.000000
0.762269 0.401726 0.000000
0.800746 0.401070 0.000000
0.838436 0.400429 0.000000
0.875222 0.399805 0.000000
0.910987 0.399199 0.000000
0.945613 0.398615 0.000000
0.978982 0.398053 0.000000
1.000000 0.397515 0.000000
1.000000 0.397003 0.000000
1.000000 0.396520 0.000000
1.000000 0.396062 0.000000
1.000000 0.395608 0.000000
0.000000 0.452252 0.000000
0.005499 0.451753 0.000000
0.035155 0.451225 0.000000
0.066361 0.450671 0.000000
0.099001 0.450092 0.000000
0.132958 0.449492 0.000000
0.168115 0.448872 0.000000
0.204357 0.448234 0.000000
0.241566 0.447581 0.000000
0.279627 0.446914 0.000000
0.318422 0.446236 0.000000
0.357836 0.445550 0.000000
0.397751 0.444856 0.000000
0.438050 0.444158 0.000000
0.478617 0.443457 0.000000
0.519335 0.442755 0.000000
0.560087 0.442055 0.000000
0.600755 0.441358 0.000000
0.641224 0.440666 0.000000
0.681374 0.439982 0.000000
0.721091 0.439307 0.000000
0.760255 0.438643 0.000000
0.798749 0.437992 0.000000
0.836457 0.437357 0.000000
0.873260 0.436738 0.000000
0.909042 0.436138 0.000000
0.943684 0.435558 0.000000
0.977069 0.435001 0.000000
1.000000 0.434467 0.000000
1.000000 0.433960 0.000000
1.000000 0.433481 0.000000
1.000000 0.433027 0.000000
1.000000 0.432577 0.000000
0.000000 0.489268 0.000000
0.003180 0.488773 0.000000
0.032850 0.488250 0.000000
0.064071 0.487700 0.000000
0.096726 0.487126 0.000000
0.130699 0.486531 0.000000
0.165873 0.485915 0.000000
0.202131 0.485283 0.000000
0.239358 0.484635 0.000000
0.277437 0.483974 0.000000
0.316251 0.483302 0.000000
0.355683 0.482621 0.000000
0.395616 0.481933 0.000000
0.435935 0.481241 0.000000
0.476521 0.480545 0.000000
0.517258 0.479850 0.000000
0.558029 0.479155 0.000000
0.598716 0.478464 0.000000
0.639204 0.477778 0.000000
0.679373 0.477100 0.000000
0.719108 0.476431 0.000000
0.758290 0.475772 0.000000
0.796803 0.475127 0.000000
0.834528 0.474497 0.000000
0.871349 0.473883 0.000000
0.907147 0.473288 0.000000
0.941806 0.472714 0.000000
0.975206 0.472161 0.000000
1.000000 0.471633 0.000000
1.000000 0.471130 0.000000
1.000000 0.470655 0.000000
1.000000 0.470205 0.000000
1.000000 0.469759 0.000000
0.000000 0.526400 0.000000
0.000916 0.525909 0.000000
0.030601 0.525390 0.000000
0.061836 0.524844 0.000000
0.094507 0.524275 0.000000
0.128495 0.523685 0.000000
0.163686 0.523075 0.000000
0.199962 0.522447 0.000000
0.237206 0.521805 0.000000
0.275303 0.521149 0.000000
0.314135 0.520483 0.000000
0.353585 0.519808 0.000000
0.393538 0.519126 0.000000
0.433875 0.518439 0.000000
0.474480 0.517750 0.000000
0.515236 0.517060 0.000000
0.556026 0.516371 0.000000
0.596733 0.515686 0.000000
0.637240 0.515006 0.000000
0.677428 0.514334 0.000000
0.717181 0.513670 0.000000
0.756382 0.513018 0.000000
0.794913 0.512378 0.000000
0.832656 0.511753 0.000000
0.869494 0.511145 0.000000
0.905309 0.510555 0.000000
0.939984 0.509985 0.000000
0.973400 0.509438 0.000000
1.000000 0.508914 0.000000
1.000000 0.508416 0.000000
1.000000 0.507945 0.000000
1.000000 0.507499 0.000000
1.000000 0.507057 0.000000
0.000000 0.563550 0.000000
0.000000 0.563063 0.000000
0.028413 0.562549 0.000000
0.059663 0.562008 0.000000
0.092349 0.561444 0.000000
0.126353 0.560858 0.000000
0.161560 0.560253 0.000000
0.197853 0.559631 0.000000
0.235115 0.558994 0.000000
0.273230 0.558344 0.000000
0.312080 0.557683 0.000000
0.351549 0.557014 0.000000
0.391520 0.556337 0.000000
0.431877 0.555657 0.000000
0.472501 0.554973 0.000000
0.513276 0.554289 0.000000
0.554086 0.553607 0.000000
0.594812 0.552927 0.000000
0.635337 0.552253 0.000000
0.675544 0.551586 0.000000
0.715316 0.550929 0.000000
0.754536 0.550282 0.000000
0.793084 0.549648 0.000000
0.830845 0.549028 0.000000
0.867701 0.548425 0.000000
0.903533 0.547841 0.000000
0.938224 0.547276 0.000000
0.971656 0.546733 0.000000
1.000000 0.546214 0.000000
1.000000 0.545720 0.000000
1.000000 0.545253 0.000000
1.000000 0.544811 0.000000
1.000000 0.544373 0.000000
0.000000 0.600623 0.000000
0.000000 0.600140 0.000000
0.026291 0.599630 0.000000
0.057556 0.599093 0.000000
0.090258 0.598534 0.000000
0.124278 0.597953 0.000000
0.159502 0.597353 0.000000
0.195812 0.596736 0.000000
0.233091 0.596105 0.000000
0.271224 0.595460 0.000000
0.310092 0.594805 0.000000
0.349580 0.594141 0.000000
0.389570 0.593471 0.000000
0.429945 0.592796 0.000000
0.470588 0.592118 0.000000
0.511383 0.591440 0.000000
0.552211 0.590763 0.000000
0.592956 0.590090 0.000000
0.633501 0.589422 0.000000
0.673727 0.588761 0.000000
0.713517 0.588109 0.000000
0.752755 0.587468 0.000000
0.791322 0.586839 0.000000
0.829101 0.586225 0.000000
0.865973 0.585628 0.000000
0.901822 0.585048 0.000000
0.936529 0.584489 0.000000
0.969977 0.583951 0.000000
1.000000 0.583436 0.000000
1.000000 0.582946 0.000000
1.000000 0.582484 0.000000
1.000000 0.582046 0.000000
1.000000 0.581612 0.000000
0.000000 0.637521 0.000000
0.000000 0.637042 0.000000
0.024242 0.636536 0.000000
0.055522 0.636004 0.000000
0.088238 0.635449 0.000000
0.122274 0.634873 0.000000
0.157515 0.634278 0.000000
0.193841 0.633667 0.000000
0.231138 0.633040 0.000000
0.269289 0.632401 0.000000
0.308175 0.631752 0.000000
0.347681 0.631094 0.000000
0.387690 0.630429 0.000000
0.428084 0.629760 0.000000
0.468746 0.629088 0.000000
0.509560 0.628416 0.000000
0.550407 0.627745 0.000000
0.591171 0.627077 0.000000
0.631734 0.626415 0.000000
0.671979 0.625760 0.000000
0.711789 0.625114 0.000000
0.751044 0.624478 0.000000
0.789629 0.623855 0.000000
0.827426 0.623247 0.000000
0.864315 0.622654 0.000000
0.900181 0.622080 0.000000
0.934904 0.621525 0.000000
0.968367 0.620992 0.000000
1.000000 0.620482 0.000000
1.000000 0.619997 0.000000
1.000000 0.619538 0.000000
1.000000 0.619104 0.000000
1.000000 0.618674 0.000000
0.000000 0.674146 0.000000
0.000000 0.673671 0.000000
0.022268 0.673169 0.000000
0.053562 0.672642 0.000000
0.086294 0.672092 0.000000
0.120346 0.671521 0.000000
0.155603 0.670931 0.000000
0.191946 0.670325 0.000000
0.229261 0.669704 0.000000
0.267428 0.669070 0.000000
0.306333 0.668426 0.000000
0.345857 0.667773 0.000000
0.385884 0.667114 0.000000
0.426297 0.666451 0.000000
0.466978 0.665785 0.000000
0.507811 0.665119 0.000000
0.548677 0.664454 0.000000
0.589460 0.663792 0.000000
0.630042 0.663135 0.000000
0.670305 0.662486 0.000000
0.710133 0.661845 0.000000
0.749407 0.661215 0.000000
0.788010 0.660598 0.000000
0.825823 0.659995 0.000000
0.862730 0.659408 0.000000
0.898612 0.658838 0.000000
0.933352 0.658289 0.000000
0.966830 0.657760 0.000000
0.998930 0.657255 0.000000
1.000000 0.656774 0.000000
1.000000 0.656320 0.000000
1.000000 0.655889 0.000000
1.000000 0.655463 0.000000
0.000000 0.710402 0.000000
0.000000 0.709931 0.000000
0.020374 0.709433 0.000000
0.051683 0.708910 0.000000
0.084429 0.708365 0.000000
0.118497 0.707799 0.000000
0.153770 0.707214 0.000000
0.190130 0.706612 0.000000
0.227461 0.705997 0.000000
0.265647 0.705368 0.000000
0.304569 0.704730 0.000000
0.344112 0.704083 0.000000
0.384157 0.703430 0.000000
0.424588 0.702772 0.000000
0.465288 0.702112 0.000000
0.506139 0.701451 0.000000
0.547024 0.700792 0.000000
0.587825 0.700136 0.000000
0.628426 0.699485 0.000000
0.668708 0.698841 0.000000
0.708554 0.698206 0.000000
0.747846 0.697582 0.000000
0.786466 0.696970 0.000000
0.824297 0.696372 0.000000
0.861221 0.695790 0.000000
0.897119 0.695226 0.000000
0.931874 0.694681 0.000000
0.965368 0.694157 0.000000
0.997483 0.693656 0.000000
1.000000 0.693180 0.000000
1.000000 0.692729 0.000000
1.000000 0.692303 0.000000
1.000000 0.691880 0.000000
0.000000 0.746190 0.000000
0.000000 0.745723 0.000000
0.018563 0.745229 0.000000
0.049885 0.744711 0.000000
0.082647 0.744170 0.000000
0.116730 0.743609 0.000000
0.152018 0.743029 0.000000
0.188395 0.742432 0.000000
0.225743 0.741822 0.000000
0.263946 0.741199 0.000000
0.302886 0.740566 0.000000
0.342446 0.739924 0.000000
0.382510 0.739277 0.000000
0.422959 0.738624 0.000000
0.463677 0.737970 0.000000
0.504547 0.737315 0.000000
0.545450 0.736661 0.000000
0.586270 0.736011 0.000000
0.626889 0.735366 0.000000
0.667189 0.734728 0.000000
0.707053 0.734098 0.000000
0.746362 0.733479 0.000000
0.785000 0.732872 0.000000
0.822848 0.732280 0.000000
0.859788 0.731703 0.000000
0.895703 0.731144 0.000000
0.930474 0.730604 0.000000
0.963983 0.730085 0.000000
0.996112 0.729588 0.000000
1.000000 0.729116 0.000000
1.000000 0.728670 0.000000
1.000000 0.728247 0.000000
1.000000 0.727828 0.000000
0.000000 0.781413 0.000000
0.000000 0.780950 0.000000
0.016836 0.780461 0.000000
0.048173 0.779947 0.000000
0.080948 0.779410 0.000000
0.115047 0.778853 0.000000
0.150351 0.778278 0.000000
0.186744 0.777687 0.000000
0.224109 0.777081 0.000000
0.262328 0.776464 0.000000
0.301285 0.775836 0.000000
0.340863 0.775200 0.000000
0.380944 0.774558 0.000000
0.421412 0.773911 0.000000
0.462148 0.773262 0.000000
0.503035 0.772613 0.000000
0.543957 0.771965 0.000000
0.584795 0.771320 0.000000
0.625432 0.770680 0.000000
0.665750 0.770047 0.000000
0.705631 0.769423 0.000000
0.744958 0.768810 0.000000
0.783613 0.768208 0.000000
0.821478 0.767621 0.000000
0.858435 0.767049 0.000000
0.894365 0.766495 0.000000
0.929151 0.765960 0.000000
0.962675 0.765445 0.000000
0.994818 0.764953 0.000000
1.000000 0.764485 0.000000
1.000000 0.764042 0.000000
1.000000 0.763624 0.000000
1.000000 0.763209 0.000000
0.000000 0.815973 0.000000
0.000000 0.815514 0.000000
0.015196 0.815029 0.000000
0.046546 0.814519 0.000000
0.079336 0.813987 0.000000
0.113449 0.813434 0.000000
0.148769 0.812864 0.000000
0.185178 0.812278 0.000000
0.222559 0.811677 0.000000
0.260795 0.811064 0.000000
0.299769 0.810442 0.000000
0.339364 0.809811 0.000000
0.379463 0.809174 0.000000
0.419948 0.808533 0.000000
0.460701 0.807890 0.000000
0.501607 0.807246 0.000000
0.542546 0.806603 0.000000
0.583402 0.805964 0.000000
0.624056 0.805329 0.000000
0.664392 0.804702 0.000000
0.704291 0.804083 0.000000
0.743635 0.803475 0.000000
0.782306 0.802879 0.000000
0.820188 0.802296 0.000000
0.857160 0.801730 0.000000
0.893106 0.801180 0.000000
0.927908 0.800650 0.000000
0.961446 0.800140 0.000000
0.993603 0.799652 0.000000
1.000000 0.799188 0.000000
1.000000 0.798749 0.000000
1.000000 0.798334 0.000000
1.000000 0.797923 0.000000
0.000000 0.849772 0.000000
0.000000 0.849317 0.000000
0.013644 0.848835 0.000000
0.045007 0.848329 0.000000
0.077811 0.847801 0.000000
0.111939 0.847254 0.000000
0.147274 0.846688 0.000000
0.183698 0.846106 0.000000
0.221095 0.845511 0.000000
0.259347 0.844903 0.000000
0.298338 0.844286 0.000000
0.337950 0.843660 0.000000
0.378065 0.843028 0.000000
0.418567 0.842392 0.000000
0.459339 0.841754 0.000000
0.500261 0.841116 0.000000
0.541218 0.840479 0.000000
0.582091 0.839845 0.000000
0.622763 0.839216 0.000000
0.663116 0.838593 0.000000
0.703031 0.837980 0.000000
0.742392 0.837377 0.000000
0.781080 0.836786 0.000000
0.818977 0.836208 0.000000
0.855966 0.835646 0.000000
0.891927 0.835101 0.000000
0.926743 0.834575 0.000000
0.960296 0.834070 0.000000
0.992467 0.833586 0.000000
1.000000 0.833126 0.000000
1.000000 0.832691 0.000000
1.000000 0.832280 0.000000
1.000000 0.831872 0.000000
0.000000 0.882712 0.000000
0.000000 0.882260 0.000000
0.012180 0.881782 0.000000
0.043557 0.881280 0.000000
0.076374 0.880756 0.000000
0.110516 0.880213 0.000000
0.145865 0.879652 0.000000
0.182305 0.879075 0.000000
0.219717 0.878484 0.000000
0.257985 0.877881 0.000000
0.296992 0.877269 0.000000
0.336620 0.876648 0.000000
0.376753 0.876021 0.000000
0.417272 0.875391 0.000000
0.458060 0.874758 0.000000
0.498999 0.874124 0.000000
0.539973 0.873492 0.000000
0.580863 0.872864 0.000000
0.621551 0.872240 0.000000
0.661921 0.871623 0.000000
0.701853 0.871014 0.000000
0.741230 0.870416 0.000000
0.779934 0.869830 0.000000
0.817847 0.869257 0.000000
0.854851 0.868700 0.000000
0.890827 0.868160 0.000000
0.925657 0.867638 0.000000
