waxal-templates/luts/waxal-harmattan.cube
TITLE "Waxal Harmattan"
# Original Waxal look — generated color math, no third-party data
LUT_3D_SIZE 33
0.158445 0.153576 0.147960
0.181451 0.154171 0.148603
0.203847 0.154751 0.149230
0.225730 0.155319 0.149842
0.247196 0.155876 0.150443
0.268343 0.156427 0.151035
0.289268 0.156972 0.151621
0.310068 0.157516 0.152203
0.330838 0.158059 0.152784
0.351678 0.158605 0.153368
0.372682 0.159156 0.153956
0.393950 0.159715 0.154552
0.415577 0.160285 0.155158
0.437660 0.160867 0.155777
0.460298 0.161466 0.156411
0.483586 0.162082 0.157064
0.507623 0.162720 0.157737
0.532506 0.163381 0.158435
0.558128 0.164063 0.159153
0.583815 0.164748 0.159874
0.609505 0.165435 0.160594
0.635197 0.166123 0.161315
0.660892 0.166812 0.162036
0.686589 0.167503 0.162757
0.712288 0.168196 0.163479
0.737990 0.168889 0.164200
0.763694 0.169585 0.164922
0.789400 0.170281 0.165644
0.815109 0.170979 0.166366
0.840820 0.171679 0.167088
0.866533 0.172380 0.167810
0.892249 0.173082 0.168533
0.917967 0.173786 0.169256
0.160244 0.177336 0.150063
0.183256 0.177934 0.150707
0.205658 0.178518 0.151334
0.227547 0.179089 0.151947
0.249019 0.179650 0.152548
0.270172 0.180204 0.153140
0.291102 0.180753 0.153727
0.311907 0.181300 0.154309
0.332684 0.181846 0.154891
0.353529 0.182396 0.155475
0.374539 0.182950 0.156064
0.395812 0.183513 0.156660
0.417445 0.184086 0.157266
0.439534 0.184672 0.157886
0.462178 0.185274 0.158521
0.485473 0.185894 0.159174
0.509516 0.186536 0.159848
0.534405 0.187201 0.160546
0.560034 0.187887 0.161265
0.585729 0.188577 0.161986
0.611425 0.189267 0.162707
0.637124 0.189960 0.163428
0.662826 0.190653 0.164150
0.688530 0.191348 0.164872
0.714236 0.192045 0.165593
0.739944 0.192743 0.166315
0.765655 0.193442 0.167038
0.791369 0.194143 0.167760
0.817084 0.194845 0.168483
0.842802 0.195549 0.169205
0.868522 0.196254 0.169928
0.894245 0.196960 0.170652
0.919970 0.197668 0.171375
0.162016 0.200491 0.152113
0.185034 0.201093 0.152758
0.207442 0.201680 0.153385
0.229336 0.202255 0.153998
0.250814 0.202819 0.154600
0.271973 0.203377 0.155193
0.292908 0.203929 0.155779
0.313719 0.204479 0.156363
0.334501 0.205029 0.156945
0.355351 0.205582 0.157529
0.376367 0.206140 0.158119
0.397645 0.206706 0.158715
0.419284 0.207282 0.159322
0.441379 0.207872 0.159942
0.464028 0.208477 0.160577
0.487329 0.209101 0.161231
0.511379 0.209746 0.161905
0.536275 0.210415 0.162604
0.561910 0.211106 0.163323
0.587612 0.211799 0.164045
0.613315 0.212494 0.164767
0.639021 0.213190 0.165488
0.664729 0.213888 0.166210
0.690440 0.214587 0.166933
0.716152 0.215288 0.167655
0.741868 0.215990 0.168378
0.767585 0.216693 0.169100
0.793305 0.217398 0.169823
0.819028 0.218104 0.170546
0.844752 0.218812 0.171270
0.870479 0.219521 0.171993
0.896209 0.220232 0.172717
0.921940 0.220944 0.173441
0.163766 0.223135 0.154119
0.186790 0.223741 0.154764
0.209204 0.224332 0.155392
0.231104 0.224910 0.156005
0.252587 0.225478 0.156607
0.273751 0.226038 0.157201
0.294692 0.226594 0.157788
0.315508 0.227147 0.158371
0.336295 0.227700 0.158954
0.357151 0.228256 0.159539
0.378172 0.228817 0.160128
0.399456 0.229386 0.160725
0.421100 0.229966 0.161333
0.443201 0.230559 0.161953
0.465856 0.231168 0.162588
0.489163 0.231796 0.163243
0.513219 0.232445 0.163918
0.538121 0.233118 0.164617
0.563763 0.233812 0.165337
0.589471 0.234509 0.166059
0.615181 0.235208 0.166781
0.640893 0.235909 0.167503
0.666608 0.236610 0.168226
0.692325 0.237313 0.168949
0.718044 0.238018 0.169672
0.743766 0.238724 0.170395
0.769490 0.239431 0.171118
0.795217 0.240140 0.171841
0.820946 0.240850 0.172565
0.846677 0.241562 0.173289
0.872410 0.242275 0.174013
0.898146 0.242990 0.174737
0.923885 0.243706 0.175461
0.165501 0.245363 0.156088
0.188531 0.245972 0.156733
0.210950 0.246566 0.157362
0.232856 0.247148 0.157976
0.254344 0.247719 0.158578
0.275514 0.248283 0.159172
0.296460 0.248841 0.159759
0.317281 0.249397 0.160343
0.338073 0.249954 0.160926
0.358934 0.250513 0.161512
0.379961 0.251077 0.162102
0.401250 0.251650 0.162699
0.422899 0.252233 0.163307
0.445006 0.252829 0.163927
0.467667 0.253442 0.164563
0.490980 0.254073 0.165218
0.515041 0.254725 0.165894
0.539950 0.255402 0.166593
0.565598 0.256100 0.167314
0.591312 0.256802 0.168036
0.617029 0.257504 0.168759
0.642748 0.258208 0.169482
0.668469 0.258914 0.170205
0.694192 0.259621 0.170928
0.719918 0.260330 0.171651
0.745647 0.261039 0.172375
0.771377 0.261751 0.173099
0.797110 0.262463 0.173823
0.822845 0.263178 0.174547
0.848583 0.263893 0.175271
0.874323 0.264610 0.175996
0.900065 0.265328 0.176720
0.925810 0.266048 0.177445
0.167228 0.267268 0.158029
0.190263 0.267880 0.158674
0.212688 0.268478 0.159303
0.234599 0.269062 0.159918
0.256093 0.269637 0.160521
0.277267 0.270204 0.161115
0.298219 0.270765 0.161702
0.319045 0.271325 0.162287
0.339842 0.271884 0.162870
0.360708 0.272446 0.163456
0.381740 0.273014 0.164046
0.403034 0.273590 0.164644
0.424689 0.274176 0.165252
0.446801 0.274776 0.165873
0.469468 0.275391 0.166510
0.492786 0.276026 0.167165
0.516854 0.276682 0.167841
0.541768 0.277362 0.168541
0.567423 0.278065 0.169262
0.593144 0.278770 0.169985
0.618867 0.279476 0.170708
0.644592 0.280184 0.171432
0.670319 0.280894 0.172155
0.696049 0.281605 0.172879
0.721781 0.282317 0.173603
0.747516 0.283031 0.174327
0.773253 0.283746 0.175051
0.798992 0.284462 0.175776
0.824734 0.285180 0.176500
0.850478 0.285900 0.177225
0.876224 0.286620 0.177950
0.901973 0.287343 0.178675
0.927724 0.288066 0.179400
0.168952 0.288943 0.159949
0.191993 0.289559 0.160596
0.214423 0.290160 0.161225
0.236339 0.290748 0.161840
0.257839 0.291326 0.162443
0.279018 0.291896 0.163038
0.299975 0.292460 0.163626
0.320806 0.293023 0.164211
0.341609 0.293585 0.164795
0.362480 0.294151 0.165381
0.383517 0.294721 0.165971
0.404816 0.295300 0.166570
0.426476 0.295890 0.167178
0.448594 0.296493 0.167800
0.471266 0.297112 0.168437
0.494590 0.297750 0.169092
0.518663 0.298409 0.169769
0.543584 0.299093 0.170469
0.569245 0.299799 0.171191
0.594972 0.300508 0.171914
0.620701 0.301219 0.172638
0.646432 0.301930 0.173362
0.672166 0.302644 0.174086
0.697902 0.303358 0.174810
0.723641 0.304074 0.175534
0.749382 0.304792 0.176259
0.775125 0.305511 0.176984
0.800870 0.306231 0.177709
0.826618 0.306953 0.178434
0.852369 0.307676 0.179159
0.878121 0.308401 0.179884
0.903876 0.309127 0.180610
0.929634 0.309854 0.181336
0.170681 0.310485 0.161859
0.193728 0.311104 0.162506
0.216163 0.311708 0.163135
0.238085 0.312299 0.163751
0.259590 0.312880 0.164354
0.280774 0.313453 0.164949
0.301736 0.314021 0.165538
0.322572 0.314586 0.166123
0.343380 0.315152 0.166707
0.364256 0.315720 0.167294
0.385298 0.316294 0.167885
0.406603 0.316876 0.168484
0.428268 0.317469 0.169092
0.450391 0.318075 0.169714
0.473068 0.318697 0.170352
0.496398 0.319339 0.171008
0.520478 0.320002 0.171685
0.545404 0.320690 0.172386
0.571071 0.321399 0.173108
0.596804 0.322112 0.173832
0.622540 0.322826 0.174556
0.648277 0.323542 0.175280
0.674017 0.324259 0.176005
0.699760 0.324977 0.176729
0.725505 0.325697 0.177454
0.751252 0.326418 0.178179
0.777001 0.327141 0.178904
0.802753 0.327865 0.179630
0.828507 0.328590 0.180355
0.854263 0.329317 0.181081
0.880022 0.330046 0.181807
0.905783 0.330775 0.182533
0.931547 0.331507 0.183260
0.172423 0.331986 0.163765
0.195475 0.332608 0.164412
0.217916 0.333215 0.165042
0.239843 0.333810 0.165658
0.261353 0.334394 0.166262
0.282543 0.334970 0.166857
0.303510 0.335541 0.167446
0.324351 0.336109 0.168032
0.345163 0.336678 0.168617
0.366045 0.337250 0.169204
0.387091 0.337826 0.169795
0.408402 0.338411 0.170394
0.430072 0.339007 0.171004
0.452200 0.339617 0.171626
0.474883 0.340242 0.172264
0.498219 0.340887 0.172920
0.522304 0.341554 0.173598
0.547236 0.342245 0.174299
0.572910 0.342959 0.175022
0.598649 0.343675 0.175746
0.624391 0.344393 0.176471
0.650135 0.345112 0.177195
0.675881 0.345833 0.177920
0.701629 0.346555 0.178646
0.727380 0.347279 0.179371
0.753134 0.348004 0.180096
0.778889 0.348730 0.180822
0.804647 0.349458 0.181548
0.830408 0.350187 0.182274
0.856170 0.350918 0.183000
0.881935 0.351650 0.183727
0.907703 0.352384 0.184453
0.933473 0.353119 0.185180
0.174185 0.353541 0.165677
0.197242 0.354167 0.166324
0.219689 0.354778 0.166955
0.241621 0.355375 0.167571
0.263136 0.355962 0.168175
0.284331 0.356542 0.168771
0.305303 0.357116 0.169360
0.326149 0.357687 0.169946
0.346967 0.358259 0.170532
0.367853 0.358833 0.171119
0.388905 0.359413 0.171711
0.410221 0.360001 0.172310
0.431896 0.360600 0.172920
0.454030 0.361213 0.173543
0.476718 0.361842 0.174181
0.500059 0.362490 0.174838
0.524150 0.363161 0.175516
0.549089 0.363856 0.176218
0.574769 0.364573 0.176941
0.600514 0.365293 0.177666
0.626262 0.366015 0.178391
0.652012 0.366738 0.179116
0.677765 0.367462 0.179841
0.703519 0.368188 0.180567
0.729277 0.368916 0.181293
0.755036 0.369644 0.182019
0.780798 0.370375 0.182745
0.806562 0.371106 0.183472
0.832329 0.371839 0.184198
0.858098 0.372574 0.184925
0.883869 0.373310 0.185652
0.909643 0.374047 0.186379
0.935418 0.374786 0.187106
0.175975 0.375246 0.167602
0.199038 0.375875 0.168250
0.221490 0.376489 0.168881
0.243427 0.377090 0.169497
0.264948 0.377680 0.170102
0.286148 0.378263 0.170698
0.307125 0.378840 0.171288
0.327976 0.379414 0.171874
0.348799 0.379989 0.172460
0.369690 0.380567 0.173048
0.390748 0.381150 0.173640
0.412068 0.381741 0.174240
0.433749 0.382343 0.174850
0.455888 0.382959 0.175473
0.478582 0.383591 0.176112
0.501929 0.384243 0.176769
0.526025 0.384917 0.177448
0.550970 0.385616 0.178150
0.576656 0.386337 0.178873
0.602408 0.387061 0.179599
0.628162 0.387786 0.180324
0.653918 0.388513 0.181050
0.679677 0.389241 0.181776
0.705438 0.389971 0.182502
0.731202 0.390702 0.183229
0.756967 0.391435 0.183955
0.782736 0.392169 0.184682
0.808506 0.392904 0.185409
0.834279 0.393641 0.186136
0.860054 0.394379 0.186863
0.885832 0.395119 0.187590
0.911611 0.395860 0.188318
0.937394 0.396603 0.189046
0.177801 0.397195 0.169549
0.200870 0.397828 0.170197
0.223327 0.398445 0.170829
0.245270 0.399049 0.171446
0.266796 0.399642 0.172051
0.288001 0.400228 0.172648
0.308983 0.400808 0.173238
0.329840 0.401386 0.173825
0.350668 0.401964 0.174411
0.371564 0.402545 0.174999
0.392627 0.403131 0.175591
0.413952 0.403725 0.176192
0.435638 0.404331 0.176802
0.457783 0.404950 0.177426
0.480482 0.405586 0.178065
0.503835 0.406241 0.178723
0.527938 0.406918 0.179402
0.552889 0.407621 0.180104
0.578581 0.408345 0.180828
0.604339 0.409073 0.181554
0.630099 0.409803 0.182280
0.655862 0.410533 0.183007
0.681627 0.411265 0.183733
0.707395 0.411999 0.184460
0.733164 0.412734 0.185186
0.758936 0.413470 0.185913
0.784711 0.414208 0.186641
0.810488 0.414947 0.187368
0.836267 0.415688 0.188096
0.862048 0.416430 0.188823
0.887832 0.417174 0.189551
0.913619 0.417919 0.190279
0.939407 0.418665 0.191008
0.179672 0.419484 0.171527
0.202747 0.420120 0.172176
0.225210 0.420740 0.172807
0.247158 0.421348 0.173425
0.268689 0.421945 0.174031
0.289900 0.422533 0.174627
0.310887 0.423117 0.175218
0.331749 0.423698 0.175805
0.352582 0.424279 0.176392
0.373484 0.424863 0.176980
0.394551 0.425452 0.177573
0.415882 0.426050 0.178174
0.437574 0.426658 0.178785
0.459724 0.427281 0.179409
0.482429 0.427920 0.180049
0.505787 0.428579 0.180707
0.529896 0.429260 0.181386
0.554853 0.429966 0.182090
0.580552 0.430695 0.182814
0.606317 0.431426 0.183540
0.632083 0.432159 0.184267
0.657852 0.432894 0.184994
0.683624 0.433630 0.185721
0.709398 0.434368 0.186448
0.735174 0.435106 0.187175
0.760953 0.435847 0.187903
0.786733 0.436588 0.188630
0.812517 0.437332 0.189358
0.838302 0.438076 0.190086
0.864090 0.438822 0.190814
0.889881 0.439570 0.191543
0.915673 0.440318 0.192271
0.941468 0.441069 0.193000
0.181596 0.442207 0.173544
0.204677 0.442847 0.174193
0.227146 0.443471 0.174825
0.249100 0.444082 0.175443
0.270636 0.444682 0.176049
0.291852 0.445274 0.176646
0.312845 0.445861 0.177238
0.333712 0.446445 0.177825
0.354550 0.447029 0.178412
0.375458 0.447616 0.179001
0.396531 0.448209 0.179594
0.417867 0.448809 0.180196
0.439564 0.449421 0.180807
0.461720 0.450047 0.181431
0.484431 0.450690 0.182071
0.507795 0.451352 0.182730
0.531910 0.452037 0.183410
0.556873 0.452747 0.184114
0.582579 0.453480 0.184839
0.608350 0.454215 0.185566
0.634123 0.454953 0.186293
0.659899 0.455691 0.187020
0.685677 0.456431 0.187747
0.711457 0.457173 0.188475
0.737240 0.457915 0.189203
0.763025 0.458660 0.189931
0.788813 0.459405 0.190659
0.814602 0.460152 0.191388
0.840395 0.460901 0.192116
0.866189 0.461651 0.192845
0.891986 0.462402 0.193574
0.917785 0.463155 0.194303
0.943587 0.463909 0.195032
0.183584 0.465461 0.175608
0.206671 0.466105 0.176258
0.229145 0.466732 0.176890
0.251105 0.467346 0.177509
0.272647 0.467950 0.178115
0.293869 0.468545 0.178713
0.314867 0.469135 0.179305
0.335739 0.469723 0.179893
0.356583 0.470310 0.180480
0.377495 0.470900 0.181069
0.398574 0.471496 0.181663
0.419916 0.472101 0.182265
0.441619 0.472716 0.182876
0.463780 0.473345 0.183501
0.486497 0.473992 0.184142
0.509867 0.474658 0.184801
0.533989 0.475346 0.185481
0.558958 0.476060 0.186186
0.584671 0.476797 0.186911
0.610448 0.477537 0.187639
0.636228 0.478278 0.188366
0.662011 0.479020 0.189094
0.687795 0.479764 0.189822
0.713583 0.480510 0.190550
0.739372 0.481257 0.191279
0.765164 0.482005 0.192007
0.790958 0.482755 0.192736
0.816755 0.483506 0.193465
0.842553 0.484259 0.194194
0.868355 0.485013 0.194923
0.894158 0.485768 0.195653
0.919964 0.486525 0.196382
0.945772 0.487283 0.197112
0.185644 0.489341 0.177728
0.208737 0.489988 0.178379
0.231217 0.490620 0.179012
0.253183 0.491237 0.179631
0.274731 0.491844 0.180238
0.295958 0.492443 0.180836
0.316962 0.493036 0.181428
0.337840 0.493627 0.182016
0.358689 0.494218 0.182604
0.379607 0.494812 0.183194
0.400691 0.495411 0.183788
0.422039 0.496019 0.184390
0.443748 0.496638 0.185002
0.465915 0.497271 0.185628
0.488638 0.497921 0.186269
0.512014 0.498591 0.186928
0.536142 0.499283 0.187609
0.561119 0.500001 0.188314
0.586838 0.500742 0.189040
0.612622 0.501486 0.189768
0.638409 0.502231 0.190496
0.664198 0.502978 0.191224
0.689990 0.503726 0.191953
0.715784 0.504476 0.192682
0.741580 0.505227 0.193411
0.767379 0.505979 0.194140
0.793180 0.506733 0.194869
0.818983 0.507488 0.195598
0.844789 0.508245 0.196328
0.870597 0.509003 0.197058
0.896408 0.509763 0.197788
0.922220 0.510524 0.198518
0.948036 0.511286 0.199248
0.187786 0.513943 0.179913
0.210885 0.514594 0.180564
0.233372 0.515229 0.181198
0.255343 0.515851 0.181817
0.276897 0.516461 0.182425
0.298130 0.517064 0.183023
0.319140 0.517661 0.183616
0.340024 0.518255 0.184204
0.360879 0.518849 0.184793
0.381803 0.519446 0.185383
0.402892 0.520049 0.185978
0.424246 0.520660 0.186580
0.445961 0.521283 0.187193
0.468134 0.521920 0.187819
0.490863 0.522573 0.188460
0.514246 0.523247 0.189120
0.538381 0.523943 0.189802
0.563364 0.524666 0.190507
0.589090 0.525411 0.191234
0.614882 0.526159 0.191962
0.640676 0.526909 0.192691
0.666472 0.527660 0.193420
0.692271 0.528412 0.194149
0.718072 0.529166 0.194878
0.743875 0.529921 0.195608
0.769681 0.530678 0.196337
0.795489 0.531436 0.197067
0.821299 0.532196 0.197797
0.847112 0.532957 0.198527
0.872927 0.533719 0.199257
0.898745 0.534483 0.199988
0.924565 0.535249 0.200719
0.950387 0.536015 0.201450
0.190020 0.539364 0.182172
0.213126 0.540019 0.182823
0.235619 0.540658 0.183457
0.257597 0.541283 0.184077
0.279157 0.541897 0.184685
0.300396 0.542503 0.185284
0.321412 0.543104 0.185877
0.342301 0.543702 0.186466
0.363162 0.544300 0.187055
0.384092 0.544900 0.187645
0.405188 0.545507 0.188241
0.426548 0.546122 0.188844
0.448268 0.546748 0.189457
0.470448 0.547388 0.190083
0.493184 0.548046 0.190725
0.516573 0.548724 0.191386
0.540715 0.549424 0.192068
0.565705 0.550151 0.192774
0.591438 0.550900 0.193501
0.617237 0.551653 0.194230
0.643039 0.552407 0.194959
0.668842 0.553162 0.195689
0.694648 0.553919 0.196418
0.720457 0.554678 0.197148
0.746267 0.555437 0.197878
0.772081 0.556199 0.198608
0.797896 0.556961 0.199339
0.823714 0.557725 0.200069
0.849534 0.558491 0.200800
0.875356 0.559258 0.201531
0.901181 0.560026 0.202262
0.927008 0.560796 0.202993
0.952838 0.561567 0.203725
0.192357 0.565693 0.184511
0.215470 0.566352 0.185163
0.237970 0.566995 0.185798
0.259954 0.567624 0.186418
0.281520 0.568242 0.187026
0.302766 0.568851 0.187626
0.323787 0.569456 0.188219
0.344683 0.570057 0.188809
0.365550 0.570659 0.189398
0.386486 0.571263 0.189989
0.407588 0.571874 0.190585
0.428954 0.572492 0.191189
0.450681 0.573122 0.191802
0.472867 0.573767 0.192429
0.495610 0.574429 0.193072
0.519006 0.575110 0.193733
0.543155 0.575815 0.194415
0.568152 0.576546 0.195122
0.593893 0.577300 0.195850
0.619700 0.578057 0.196579
0.645509 0.578816 0.197309
0.671320 0.579576 0.198039
0.697134 0.580338 0.198769
0.722950 0.581100 0.199500
0.748768 0.581865 0.200230
0.774588 0.582631 0.200961
0.800411 0.583398 0.201692
0.826237 0.584166 0.202423
0.852065 0.584936 0.203155
0.877895 0.585708 0.203886
0.903727 0.586481 0.204618
0.929562 0.587255 0.205350
0.955399 0.588031 0.206082
0.194752 0.592409 0.186886
0.217872 0.593072 0.187538
0.240378 0.593719 0.188173
0.262369 0.594352 0.188794
0.283942 0.594974 0.189403
0.305194 0.595587 0.190003
0.326222 0.596196 0.190597
0.347124 0.596801 0.191187
0.367997 0.597406 0.191777
0.388939 0.598014 0.192368
0.410047 0.598628 0.192965
0.431420 0.599251 0.193569
0.453153 0.599885 0.194183
0.475346 0.600534 0.194810
0.498095 0.601199 0.195453
0.521499 0.601885 0.196115
0.545654 0.602595 0.196798
0.570659 0.603330 0.197505
0.596408 0.604089 0.198233
0.622222 0.604850 0.198964
0.648039 0.605614 0.199694
0.673858 0.606378 0.200425
0.699679 0.607145 0.201156
0.725503 0.607912 0.201887
0.751328 0.608681 0.202618
0.777157 0.609452 0.203349
0.802988 0.610223 0.204081
0.828821 0.610997 0.204813
0.854656 0.611771 0.205545
0.880494 0.612547 0.206277
0.906334 0.613325 0.207009
0.932176 0.614104 0.207741
0.958021 0.614884 0.208474
0.197172 0.619140 0.189262
0.220299 0.619808 0.189915
0.242812 0.620458 0.190551
0.264809 0.621095 0.191172
0.286389 0.621721 0.191782
0.307647 0.622339 0.192382
0.328681 0.622951 0.192976
0.349589 0.623560 0.193567
0.370469 0.624169 0.194157
0.391417 0.624781 0.194749
0.412532 0.625399 0.195346
0.433910 0.626025 0.195951
0.455650 0.626663 0.196565
0.477850 0.627315 0.197193
0.500606 0.627985 0.197837
0.524016 0.628675 0.198499
0.548179 0.629389 0.199183
0.573191 0.630129 0.199890
0.598948 0.630892 0.200619
0.624769 0.631659 0.201350
0.650594 0.632427 0.202081
0.676420 0.633196 0.202812
0.702249 0.633967 0.203544
0.728081 0.634739 0.204276
0.753914 0.635513 0.205007
0.779750 0.636288 0.205739
0.805589 0.637064 0.206472
0.831429 0.637842 0.207204
0.857272 0.638621 0.207936
0.883118 0.639402 0.208669
0.908966 0.640184 0.209402
0.934816 0.640968 0.210135
0.960668 0.641753 0.210868
0.199618 0.645886 0.191641
0.222751 0.646558 0.192294
0.245271 0.647213 0.192930
0.267275 0.647854 0.193552
0.288860 0.648484 0.194162
0.310125 0.649105 0.194763
0.331165 0.649721 0.195358
0.352080 0.650334 0.195949
0.372965 0.650946 0.196540
0.393920 0.651562 0.197132
0.415041 0.652184 0.197730
0.436426 0.652814 0.198335
0.458172 0.653456 0.198950
0.480378 0.654112 0.199578
0.503141 0.654786 0.200222
0.526558 0.655481 0.200885
0.550728 0.656199 0.201569
0.575748 0.656943 0.202278
0.601512 0.657711 0.203007
0.627342 0.658482 0.203739
0.653174 0.659255 0.204470
0.679008 0.660029 0.205202
0.704845 0.660804 0.205934
0.730684 0.661581 0.206666
0.756525 0.662359 0.207399
0.782369 0.663139 0.208131
0.808215 0.663920 0.208864
0.834063 0.664703 0.209597
0.859914 0.665487 0.210330
0.885767 0.666272 0.211064
0.911622 0.667059 0.211797
0.937480 0.667847 0.212531
0.963340 0.668637 0.213265
0.202088 0.672648 0.194021
0.225228 0.673324 0.194675
0.247755 0.673983 0.195312
0.269765 0.674628 0.195934
0.291357 0.675261 0.196545
0.312628 0.675887 0.197146
0.333675 0.676506 0.197741
0.354595 0.677123 0.198333
0.375487 0.677739 0.198924
0.396448 0.678359 0.199517
0.417575 0.678984 0.200115
0.438967 0.679618 0.200721
0.460720 0.680264 0.201336
0.482932 0.680925 0.201965
0.505702 0.681603 0.202610
0.529126 0.682301 0.203273
0.553303 0.683024 0.203958
0.578331 0.683772 0.204667
0.604102 0.684545 0.205397
0.629939 0.685321 0.206129
0.655779 0.686098 0.206861
0.681621 0.686877 0.207594
0.707465 0.687657 0.208326
0.733312 0.688438 0.209059
0.759161 0.689221 0.209792
0.785012 0.690005 0.210525
0.810866 0.690791 0.211259
0.836722 0.691578 0.211992
0.862581 0.692367 0.212726
0.888441 0.693157 0.213460
0.914304 0.693949 0.214194
0.940170 0.694741 0.214928
0.966038 0.695536 0.215663
0.204583 0.699425 0.196403
0.227730 0.700105 0.197058
0.250264 0.700768 0.197695
0.272281 0.701417 0.198318
0.293879 0.702054 0.198929
0.315156 0.702683 0.199531
0.336209 0.703306 0.200127
0.357136 0.703927 0.200719
0.378034 0.704547 0.201311
0.399001 0.705171 0.201904
0.420135 0.705800 0.202503
0.441532 0.706438 0.203108
0.463292 0.707087 0.203725
0.485511 0.707752 0.204354
0.508287 0.708434 0.204999
0.531719 0.709137 0.205663
0.555903 0.709863 0.206348
0.580938 0.710617 0.207058
0.606717 0.711394 0.207789
0.632562 0.712174 0.208521
0.658409 0.712956 0.209254
0.684259 0.713740 0.209987
0.710111 0.714524 0.210720
0.735965 0.715311 0.211454
0.761822 0.716098 0.212187
0.787681 0.716887 0.212921
0.813542 0.717678 0.213655
0.839406 0.718469 0.214389
0.865272 0.719263 0.215124
0.891141 0.720057 0.215858
0.917011 0.720853 0.216593
0.942885 0.721651 0.217328
0.968760 0.722450 0.218063
0.207104 0.726217 0.198788
0.230258 0.726901 0.199443
0.252798 0.727568 0.200081
0.274821 0.728221 0.200704
0.296426 0.728862 0.201316
0.317709 0.729495 0.201918
0.338769 0.730122 0.202514
0.359702 0.730746 0.203107
0.380606 0.731370 0.203699
0.401579 0.731998 0.204293
0.422719 0.732631 0.204892
0.444123 0.733272 0.205498
0.465889 0.733926 0.206115
0.488115 0.734594 0.206745
0.510898 0.735281 0.207391
0.534336 0.735988 0.208055
0.558528 0.736719 0.208741
0.583570 0.737477 0.209451
0.609357 0.738258 0.210182
0.635210 0.739043 0.210916
0.661065 0.739830 0.211649
0.686922 0.740618 0.212383
0.712782 0.741407 0.213117
0.738644 0.742198 0.213851
0.764508 0.742990 0.214585
0.790375 0.743784 0.215319
0.816244 0.744579 0.216054
0.842115 0.745375 0.216788
0.867989 0.746173 0.217523
0.893865 0.746973 0.218259
0.919744 0.747773 0.218994
0.945624 0.748576 0.219729
0.971508 0.749379 0.220465
0.209649 0.753024 0.201174
0.232810 0.753712 0.201830
0.255357 0.754384 0.202468
0.277387 0.755040 0.203092
0.298998 0.755686 0.203704
0.320288 0.756322 0.204307
0.341353 0.756953 0.204904
0.362293 0.757581 0.205497
0.383203 0.758209 0.206089
0.404183 0.758840 0.206684
0.425329 0.759476 0.207283
0.446739 0.760122 0.207890
0.468512 0.760780 0.208507
0.490744 0.761452 0.209138
0.513534 0.762142 0.209784
0.536979 0.762854 0.210449
0.561178 0.763589 0.211135
0.586228 0.764351 0.211846
0.612022 0.765138 0.212578
0.637882 0.765928 0.213312
0.663745 0.766719 0.214046
0.689610 0.767511 0.214780
0.715477 0.768305 0.215515
0.741347 0.769101 0.216249
0.767219 0.769898 0.216984
0.793094 0.770696 0.217719
0.818970 0.771496 0.218454
0.844849 0.772297 0.219190
0.870731 0.773099 0.219925
0.896615 0.773903 0.220661
0.922501 0.774709 0.221397
0.948389 0.775515 0.222133
0.974280 0.776324 0.222869
0.212220 0.779846 0.203562
0.235387 0.780539 0.204219
0.257941 0.781214 0.204857
0.279978 0.781875 0.205482
0.301595 0.782524 0.206094
0.322891 0.783164 0.206698
0.343963 0.783799 0.207295
0.364909 0.784431 0.207889
0.385825 0.785062 0.208482
0.406811 0.785697 0.209077
0.427964 0.786338 0.209677
0.449380 0.786987 0.210284
0.471159 0.787649 0.210902
0.493398 0.788325 0.211533
0.516195 0.789019 0.212179
0.539647 0.789735 0.212845
0.563853 0.790475 0.213532
0.588910 0.791241 0.214243
0.614712 0.792032 0.214976
0.640580 0.792827 0.215710
0.666451 0.793623 0.216445
0.692323 0.794420 0.217180
0.718198 0.795219 0.217915
0.744076 0.796019 0.218650
0.769955 0.796820 0.219385
0.795837 0.797623 0.220121
0.821722 0.798427 0.220857
