waxal-templates/luts/waxal-teranga.cube
TITLE "Waxal Teranga"
# Original Waxal look — generated color math, no third-party data
LUT_3D_SIZE 9
0.011077 0.000000 0.000000
0.131869 0.000000 0.000000
0.273612 0.000000 0.000000
0.428897 0.000000 0.000000
0.590298 0.000000 0.000000
0.750375 0.000000 0.000000
0.901669 0.000000 0.000000
1.000000 0.000000 0.000000
1.000000 0.000000 0.000000
0.002070 0.109579 0.000000
0.123032 0.107256 0.000000
0.264976 0.104553 0.000000
0.420479 0.101619 0.000000
0.582107 0.098599 0.000000
0.742410 0.095636 0.000000
0.893917 0.092862 0.000000
1.000000 0.090410 0.000000
1.000000 0.088367 0.000000
0.000000 0.237972 0.000000
0.113398 0.235710 0.000000
0.255574 0.233079 0.000000
0.411333 0.230223 0.000000
0.573227 0.227286 0.000000
0.733793 0.224403 0.000000
0.885549 0.221706 0.000000
1.000000 0.219322 0.000000
1.000000 0.217336 0.000000
0.000000 0.378952 0.000000
0.103690 0.376758 0.000000
0.246122 0.374205 0.000000
0.402161 0.371436 0.000000
0.564346 0.368588 0.000000
0.725200 0.365794 0.000000
0.877228 0.363181 0.000000
1.000000 0.360872 0.000000
1.000000 0.358949 0.000000
0.000000 0.526400 0.000000
0.094507 0.524275 0.000000
0.237206 0.521805 0.000000
0.393538 0.519126 0.000000
0.556026 0.516371 0.000000
0.717181 0.513670 0.000000
0.869494 0.511145 0.000000
1.000000 0.508914 0.000000
1.000000 0.507057 0.000000
0.000000 0.674146 0.000000
0.086294 0.672092 0.000000
0.229261 0.669704 0.000000
0.385884 0.667114 0.000000
0.548677 0.664454 0.000000
0.710133 0.661845 0.000000
0.862730 0.659408 0.000000
0.998930 0.657255 0.000000
1.000000 0.655463 0.000000
0.000000 0.815973 0.000000
0.079336 0.813987 0.000000
0.222559 0.811677 0.000000
0.379463 0.809174 0.000000
0.542546 0.806603 0.000000
0.704291 0.804083 0.000000
0.857160 0.801730 0.000000
0.993603 0.799652 0.000000
1.000000 0.797923 0.000000
0.000000 0.945617 0.000000
0.073765 0.943692 0.000000
0.217221 0.941454 0.000000
0.374380 0.939030 0.000000
0.537729 0.936541 0.000000
0.699737 0.934102 0.000000
0.852855 0.931825 0.000000
0.989520 0.929815 0.000000
1.000000 0.928144 0.000000
0.000000 1.000000 0.000000
0.069585 1.000000 0.000000
0.213241 1.000000 0.000000
0.370619 1.000000 0.000000
0.534195 1.000000 0.000000
0.696428 1.000000 0.000000
0.849759 1.000000 0.000000
0.986614 1.000000 0.000000
1.000000 1.000000 0.000000
0.010214 0.000000 0.096398
0.131022 0.000000 0.094509
0.272784 0.000000 0.092244
0.428089 0.000000 0.089702
0.589511 0.000000 0.086994
0.749609 0.000000 0.084241
0.900923 0.000000 0.081578
1.000000 0.000000 0.079150
1.000000 0.000000 0.077075
0.001258 0.108887 0.090238
0.122236 0.106569 0.088225
0.264198 0.103871 0.085814
0.419721 0.100943 0.083112
0.581371 0.097930 0.080238
0.741694 0.094973 0.077321
0.893222 0.092206 0.074502
1.000000 0.089759 0.071936
1.000000 0.087720 0.069745
0.000000 0.237297 0.082540
0.112660 0.235041 0.080381
0.254856 0.232415 0.077800
0.410635 0.229566 0.074912
0.572550 0.226635 0.071844
0.733137 0.223758 0.068734
0.884912 0.221068 0.065734
1.000000 0.218689 0.063007
1.000000 0.216708 0.060679
0.000000 0.378298 0.073481
0.103017 0.376108 0.071163
0.245469 0.373561 0.068395
0.401528 0.370798 0.065302
0.563734 0.367957 0.062022
0.724609 0.365170 0.058702
0.876657 0.362563 0.055503
1.000000 0.360259 0.052598
1.000000 0.358341 0.050121
0.000000 0.525766 0.063332
0.093902 0.523647 0.060848
0.236620 0.521182 0.057885
0.392972 0.518509 0.054579
0.555482 0.515761 0.051076
0.716658 0.513067 0.047536
0.868991 0.510547 0.044130
1.000000 0.508322 0.041039
1.000000 0.506469 0.038408
0.000000 0.673533 0.052474
0.085757 0.671484 0.049824
0.228742 0.669102 0.046666
0.385387 0.666519 0.043146
0.548200 0.663864 0.039422
0.709677 0.661262 0.035662
0.862294 0.658831 0.032048
0.998512 0.656684 0.028773
1.000000 0.654896 0.025985
0.000000 0.815381 0.041407
0.078864 0.813399 0.038598
0.222105 0.811095 0.035253
0.379030 0.808598 0.031529
0.542134 0.806034 0.027593
0.703900 0.803521 0.023622
0.856789 0.801173 0.019809
0.993250 0.799100 0.016356
1.000000 0.797376 0.013420
0.000000 0.945043 0.030743
0.073352 0.943122 0.027788
0.216827 0.940890 0.024273
0.374007 0.938473 0.020362
0.537377 0.935990 0.016232
0.699406 0.933558 0.012069
0.852544 0.931287 0.008075
0.989226 0.929282 0.004460
1.000000 0.927615 0.001388
0.000000 1.000000 0.021184
0.069223 1.000000 0.018105
0.212897 1.000000 0.014444
0.370296 1.000000 0.010373
0.533893 1.000000 0.006077
0.696147 1.000000 0.001750
0.849498 1.000000 0.000000
0.986371 1.000000 0.000000
1.000000 1.000000 0.000000
0.009218 0.000000 0.221521
0.130044 0.000000 0.219619
0.271828 0.000000 0.217338
0.427156 0.000000 0.214779
0.588603 0.000000 0.212053
0.748726 0.000000 0.209282
0.900063 0.000000 0.206602
1.000000 0.000000 0.204160
1.000000 0.000000 0.202072
0.000320 0.108084 0.215318
0.121317 0.105772 0.213292
0.263301 0.103081 0.210865
0.418848 0.100160 0.208146
0.580522 0.097155 0.205254
0.740870 0.094205 0.202319
0.892420 0.091445 0.199483
1.000000 0.089005 0.196903
1.000000 0.086971 0.194699
0.000000 0.236516 0.207570
0.111810 0.234265 0.205398
0.254027 0.231646 0.202801
0.409830 0.228804 0.199896
0.571770 0.225881 0.196810
0.732381 0.223012 0.193682
0.884180 0.220328 0.190665
1.000000 0.217956 0.187923
1.000000 0.215980 0.185583
0.000000 0.377540 0.198456
0.102243 0.375356 0.196125
0.244715 0.372816 0.193341
0.400799 0.370060 0.190231
0.563029 0.367226 0.186933
0.723929 0.364446 0.183595
0.876000 0.361847 0.180379
1.000000 0.359549 0.177459
1.000000 0.357636 0.174970
0.000000 0.525032 0.188249
0.093206 0.522919 0.185752
0.235946 0.520461 0.182773
0.392321 0.517795 0.179450
0.554856 0.515055 0.175930
0.716056 0.512367 0.172372
0.868412 0.509855 0.168948
1.000000 0.507636 0.165843
1.000000 0.505789 0.163199
0.000000 0.672824 0.177334
0.085140 0.670780 0.174671
0.228147 0.668404 0.171497
0.384814 0.665829 0.167960
0.547653 0.663182 0.164218
0.709154 0.660588 0.160440
0.861794 0.658163 0.156809
0.998033 0.656022 0.153519
1.000000 0.654240 0.150719
0.000000 0.814694 0.166213
0.078322 0.812718 0.163390
0.221585 0.810421 0.160029
0.378533 0.807932 0.156288
0.541662 0.805375 0.152333
0.703452 0.802869 0.148345
0.856365 0.800528 0.144515
0.992846 0.798462 0.141047
1.000000 0.796743 0.138098
0.000000 0.944378 0.155498
0.072879 0.942463 0.152530
0.216375 0.940237 0.148999
0.373578 0.937827 0.145071
0.536973 0.935352 0.140923
0.699026 0.932927 0.136742
0.852188 0.930663 0.132731
0.988891 0.928665 0.129101
1.000000 0.927004 0.126016
0.000000 1.000000 0.145896
0.068808 1.000000 0.142804
0.212504 1.000000 0.139127
0.369927 1.000000 0.135039
0.533549 1.000000 0.130725
0.695827 1.000000 0.126380
0.849201 1.000000 0.122213
0.986094 1.000000 0.118445
1.000000 1.000000 0.115244
0.008132 0.000000 0.358744
0.128979 0.000000 0.356827
0.270786 0.000000 0.354529
0.426141 0.000000 0.351951
0.587615 0.000000 0.349205
0.747764 0.000000 0.346415
0.899127 0.000000 0.343716
1.000000 0.000000 0.341258
1.000000 0.000000 0.339156
0.000000 0.107207 0.352495
0.120317 0.104900 0.350453
0.262324 0.102217 0.348009
0.417897 0.099304 0.345272
0.579599 0.096307 0.342360
0.739973 0.093366 0.339405
0.891548 0.090613 0.336551
1.000000 0.088180 0.333954
1.000000 0.086152 0.331736
0.000000 0.235662 0.344691
0.110885 0.233417 0.342505
0.253126 0.230805 0.339890
0.408955 0.227971 0.336966
0.570922 0.225056 0.333860
0.731559 0.222195 0.330713
0.883383 0.219520 0.327678
1.000000 0.217154 0.324919
1.000000 0.215184 0.322565
0.000000 0.376711 0.335517
0.101400 0.374533 0.333171
0.243897 0.372000 0.330370
0.400006 0.369252 0.327241
0.562264 0.366427 0.323923
0.723190 0.363655 0.320565
0.875286 0.361063 0.317331
1.000000 0.358773 0.314395
1.000000 0.356866 0.311892
0.000000 0.524230 0.325247
0.092450 0.522122 0.322735
0.235213 0.519672 0.319739
0.391615 0.517014 0.316397
0.554176 0.514282 0.312857
0.715404 0.511603 0.309279
0.867784 0.509099 0.305838
1.000000 0.506887 0.302716
1.000000 0.505045 0.300058
0.000000 0.672048 0.314269
0.084470 0.670010 0.311591
0.227500 0.667642 0.308400
0.384194 0.665074 0.304844
0.547060 0.662436 0.301082
0.708588 0.659850 0.297285
0.861253 0.657433 0.293636
0.997514 0.655299 0.290329
1.000000 0.653523 0.287515
0.000000 0.813944 0.303087
0.077735 0.811974 0.300250
0.221021 0.809684 0.296872
0.377995 0.807203 0.293112
0.541152 0.804654 0.289137
0.702968 0.802156 0.285130
0.855906 0.799824 0.281281
0.992410 0.797765 0.277797
1.000000 0.796051 0.274834
0.000000 0.943650 0.292318
0.072367 0.941742 0.289335
0.215887 0.939524 0.285786
0.373116 0.937121 0.281840
0.536538 0.934654 0.277672
0.698618 0.932238 0.273472
0.851804 0.929982 0.269442
0.988530 0.927991 0.265796
1.000000 0.926335 0.262697
0.000000 1.000000 0.282669
0.068361 1.000000 0.279561
0.212080 1.000000 0.275867
0.369529 1.000000 0.271761
0.533178 1.000000 0.267427
0.695483 1.000000 0.263062
0.848882 1.000000 0.258877
0.985798 1.000000 0.255092
1.000000 1.000000 0.251877
0.007001 0.000000 0.502806
0.127869 0.000000 0.500874
0.269701 0.000000 0.498557
0.425083 0.000000 0.495960
0.586586 0.000000 0.493193
0.746763 0.000000 0.490382
0.898152 0.000000 0.487664
1.000000 0.000000 0.485188
1.000000 0.000000 0.483072
0.000000 0.106288 0.496507
0.119275 0.103988 0.494450
0.261307 0.101312 0.491988
0.416907 0.098408 0.489230
0.578637 0.095420 0.486298
0.739040 0.092487 0.483322
0.890642 0.089742 0.480449
1.000000 0.087316 0.477835
1.000000 0.085295 0.475602
0.000000 0.234767 0.488646
0.109922 0.232529 0.486444
0.252188 0.229925 0.483811
0.408044 0.227099 0.480867
0.570039 0.224193 0.477740
0.730705 0.221341 0.474573
0.882556 0.218673 0.471518
1.000000 0.216315 0.468742
1.000000 0.214351 0.466374
0.000000 0.375843 0.479408
0.100524 0.373672 0.477047
0.243045 0.371146 0.474227
0.399182 0.368407 0.471079
0.561468 0.365590 0.467740
0.722422 0.362827 0.464362
0.874545 0.360244 0.461108
1.000000 0.357961 0.458154
1.000000 0.356060 0.455637
0.000000 0.523390 0.469073
0.091664 0.521289 0.466545
0.234453 0.518846 0.463530
0.390881 0.516197 0.460168
0.553471 0.513473 0.456608
0.714727 0.510803 0.453010
0.867134 0.508307 0.449549
1.000000 0.506102 0.446410
1.000000 0.504266 0.443737
0.000000 0.671236 0.458028
0.083775 0.669205 0.455334
0.226830 0.666844 0.452125
0.383551 0.664285 0.448550
0.546445 0.661655 0.444767
0.708001 0.659077 0.440949
0.860693 0.656669 0.437281
0.996978 0.654542 0.433956
1.000000 0.652772 0.431128
0.000000 0.813158 0.446783
0.077126 0.811195 0.443930
0.220438 0.808913 0.440534
0.377439 0.806440 0.436754
0.540624 0.803900 0.432759
0.702469 0.801411 0.428731
0.855433 0.799087 0.424863
0.991960 0.797035 0.421361
1.000000 0.795328 0.418384
0.000000 0.942889 0.435956
0.071837 0.940987 0.432957
0.215382 0.938777 0.429391
0.372639 0.936383 0.425424
0.536090 0.933925 0.421235
0.698197 0.931517 0.417015
0.851410 0.929269 0.412966
0.988160 0.927285 0.409302
1.000000 0.925635 0.406189
0.000000 1.000000 0.426257
0.067899 1.000000 0.423134
0.211644 1.000000 0.419422
0.369120 1.000000 0.415295
0.532797 1.000000 0.410941
0.695130 1.000000 0.406556
0.848556 1.000000 0.402351
0.985495 1.000000 0.398549
1.000000 1.000000 0.395320
0.005867 0.000000 0.648446
0.126756 0.000000 0.646497
0.268613 0.000000 0.644163
0.424023 0.000000 0.641545
0.585554 0.000000 0.638757
0.745759 0.000000 0.635925
0.897175 0.000000 0.633188
1.000000 0.000000 0.630695
1.000000 0.000000 0.628564
0.000000 0.105361 0.642096
0.118230 0.103068 0.640024
0.260287 0.100400 0.637543
0.415915 0.097504 0.634765
0.577674 0.094525 0.631812
0.738104 0.091600 0.628816
0.889733 0.088865 0.625923
1.000000 0.086446 0.623291
1.000000 0.084431 0.621044
0.000000 0.233865 0.634177
0.108957 0.231634 0.631959
0.251248 0.229037 0.629308
0.407132 0.226220 0.626344
0.569156 0.223323 0.623196
0.729850 0.220479 0.620008
0.881727 0.217820 0.616934
1.000000 0.215469 0.614140
1.000000 0.213512 0.611757
0.000000 0.374968 0.624875
0.099647 0.372804 0.622498
0.242193 0.370286 0.619660
0.398357 0.367555 0.616491
0.560672 0.364747 0.613132
0.721655 0.361993 0.609733
0.873805 0.359418 0.606460
1.000000 0.357142 0.603488
1.000000 0.355247 0.600956
0.000000 0.522543 0.614473
0.090878 0.520449 0.611929
0.233692 0.518013 0.608896
0.390149 0.515373 0.605514
0.552767 0.512658 0.601933
0.714051 0.509997 0.598314
0.866485 0.507509 0.594833
1.000000 0.505311 0.591677
1.000000 0.503482 0.588989
0.000000 0.670417 0.603362
0.083080 0.668393 0.600652
0.226161 0.666040 0.597424
0.382910 0.663489 0.593829
0.545832 0.660868 0.590025
0.707417 0.658300 0.586187
0.860136 0.655899 0.582498
0.996444 0.653780 0.579157
1.000000 0.652016 0.576314
0.000000 0.812367 0.592052
0.076520 0.810410 0.589183
0.219857 0.808136 0.585769
0.376885 0.805671 0.581969
0.540099 0.803140 0.577953
0.701972 0.800660 0.573904
0.854963 0.798344 0.570017
0.991515 0.796299 0.566497
1.000000 0.794598 0.563505
0.000000 0.942123 0.581166
0.071311 0.940227 0.578152
0.214881 0.938024 0.574567
0.372166 0.935639 0.570580
0.535645 0.933189 0.566371
0.697781 0.930790 0.562130
0.851021 0.928551 0.558061
0.987794 0.926574 0.554380
1.000000 0.924931 0.551252
0.000000 1.000000 0.571418
0.067441 1.000000 0.568279
0.211211 1.000000 0.564549
0.368715 1.000000 0.560402
0.532421 1.000000 0.556027
0.694782 1.000000 0.551621
0.848235 1.000000 0.547397
0.985198 1.000000 0.543577
1.000000 1.000000 0.540333
0.004769 0.000000 0.790402
0.125679 0.000000 0.788439
0.267561 0.000000 0.786086
0.422997 0.000000 0.783449
0.584556 0.000000 0.780641
0.744789 0.000000 0.777789
0.896231 0.000000 0.775032
1.000000 0.000000 0.772522
1.000000 0.000000 0.770377
0.000000 0.104461 0.784005
0.117219 0.102174 0.781917
0.259301 0.099513 0.779418
0.414956 0.096626 0.776621
0.576743 0.093655 0.773647
0.737201 0.090739 0.770630
0.888856 0.088012 0.767719
1.000000 0.085600 0.765070
1.000000 0.083591 0.762808
0.000000 0.232989 0.776028
0.108025 0.230764 0.773795
0.250341 0.228175 0.771126
0.406251 0.225366 0.768142
0.568303 0.222477 0.764974
0.729025 0.219642 0.761766
0.880928 0.216991 0.758672
1.000000 0.214648 0.755861
1.000000 0.212696 0.753464
0.000000 0.374118 0.766664
0.098800 0.371960 0.764271
0.241371 0.369450 0.761416
0.397562 0.366727 0.758227
0.559905 0.363928 0.754847
0.720915 0.361182 0.751428
0.873091 0.358615 0.748136
1.000000 0.356346 0.745147
1.000000 0.354457 0.742601
0.000000 0.521720 0.756196
0.090121 0.519633 0.753638
0.232959 0.517205 0.750587
0.389442 0.514572 0.747185
0.552089 0.511867 0.743583
0.713400 0.509213 0.739944
0.865861 0.506734 0.736444
1.000000 0.504543 0.733271
1.000000 0.502720 0.730569
0.000000 0.669622 0.745020
0.082412 0.667604 0.742295
0.225517 0.665259 0.739049
0.382293 0.662716 0.735434
0.545243 0.660104 0.731610
0.706856 0.657544 0.727752
0.859601 0.655152 0.724044
0.995932 0.653039 0.720686
1.000000 0.651282 0.717828
0.000000 0.811598 0.733648
0.075937 0.809648 0.730764
0.219298 0.807381 0.727332
0.376354 0.804925 0.723512
0.539595 0.802402 0.719476
0.701496 0.799931 0.715407
0.854513 0.797622 0.711500
0.991088 0.795585 0.707964
1.000000 0.793890 0.704958
0.000000 0.941378 0.722705
0.070806 0.939488 0.719676
0.214401 0.937294 0.716073
0.371712 0.934916 0.712067
0.535219 0.932475 0.707837
0.697383 0.930085 0.703575
0.850649 0.927853 0.699487
0.987446 0.925884 0.695789
1.000000 0.924247 0.692647
0.000000 1.000000 0.712908
0.067003 1.000000 0.709755
0.210798 1.000000 0.706006
0.368328 1.000000 0.701840
0.532062 1.000000 0.697444
0.694451 1.000000 0.693018
0.847930 1.000000 0.688775
0.984916 1.000000 0.684938
1.000000 1.000000 0.681679
0.003747 0.000000 0.923418
0.124677 0.000000 0.921440
0.266582 0.000000 0.919070
0.422044 0.000000 0.916414
0.583629 0.000000 0.913587
0.743888 0.000000 0.910716
0.895355 0.000000 0.907942
1.000000 0.000000 0.905416
1.000000 0.000000 0.903257
0.000000 0.103619 0.916974
0.116280 0.101339 0.914872
0.258385 0.098685 0.912356
0.414065 0.095805 0.909541
0.575878 0.092842 0.906548
0.736362 0.089935 0.903512
0.888042 0.087215 0.900583
1.000000 0.084810 0.897918
1.000000 0.082806 0.895643
0.000000 0.232170 0.908944
0.107159 0.229951 0.906697
0.249497 0.227369 0.904011
0.405433 0.224568 0.901009
0.567511 0.221687 0.897822
0.728259 0.218860 0.894594
0.880187 0.216217 0.891483
1.000000 0.213880 0.888656
1.000000 0.211934 0.886245
0.000000 0.373323 0.899522
0.098014 0.371172 0.897115
0.240608 0.368669 0.894242
0.396824 0.365954 0.891035
0.559193 0.363163 0.887636
0.720229 0.360425 0.884198
0.872430 0.357865 0.880888
1.000000 0.355603 0.877884
1.000000 0.353720 0.875324
0.000000 0.520952 0.888993
0.089418 0.518870 0.886420
0.232280 0.516449 0.883352
0.388788 0.513825 0.879932
0.551461 0.511127 0.876311
0.712798 0.508482 0.872653
0.865283 0.506010 0.869135
1.000000 0.503826 0.865946
1.000000 0.502008 0.863231
0.000000 0.668879 0.877756
0.081793 0.666867 0.875016
0.224922 0.664529 0.871754
0.381723 0.661994 0.868120
0.544699 0.659390 0.864277
0.706337 0.656838 0.860400
0.859107 0.654453 0.856674
0.995460 0.652348 0.853300
1.000000 0.650596 0.850429
0.000000 0.810880 0.866326
0.075398 0.808935 0.863427
0.218783 0.806676 0.859978
0.375864 0.804227 0.856140
0.539131 0.801713 0.852084
0.701058 0.799249 0.847996
0.854100 0.796949 0.844072
0.990696 0.794918 0.840520
1.000000 0.793229 0.837500
0.000000 0.940682 0.855329
0.070341 0.938799 0.852286
0.213958 0.936611 0.848666
0.371295 0.934241 0.844641
0.534828 0.931809 0.840392
0.697018 0.929426 0.836112
0.850308 0.927202 0.832006
0.987127 0.925240 0.828292
1.000000 0.923608 0.825136
0.000000 1.000000 0.845486
0.066600 1.000000 0.842318
0.210418 1.000000 0.838553
0.367973 1.000000 0.834368
0.531733 1.000000 0.829953
0.694149 1.000000 0.825508
0.847652 1.000000 0.821247
0.984660 1.000000 0.817395
1.000000 1.000000 0.814123
0.002841 0.000000 1.000000
0.123788 0.000000 1.000000
0.265714 0.000000 1.000000
0.421198 0.000000 1.000000
0.582806 0.000000 1.000000
0.743089 0.000000 1.000000
0.894577 0.000000 1.000000
1.000000 0.000000 1.000000
1.000000 0.000000 1.000000
0.000000 0.102869 1.000000
0.115447 0.100594 1.000000
0.257573 0.097947 1.000000
0.413276 0.095074 1.000000
0.575111 0.092118 1.000000
0.735619 0.089218 1.000000
0.887320 0.086504 1.000000
1.000000 0.084105 1.000000
1.000000 0.082107 1.000000
0.000000 0.231440 1.000000
0.106391 0.229226 1.000000
0.248750 0.226651 1.000000
0.404709 0.223857 1.000000
0.566810 0.220983 1.000000
0.727581 0.218163 1.000000
0.879531 0.215526 1.000000
1.000000 0.213196 1.000000
1.000000 0.211255 1.000000
0.000000 0.372616 1.000000
0.097318 0.370469 1.000000
0.239933 0.367973 1.000000
0.396171 0.365265 1.000000
0.558564 0.362481 1.000000
0.719623 0.359750 1.000000
0.871845 0.357197 0.999468
1.000000 0.354941 0.996450
1.000000 0.353063 0.993878
0.000000 0.520267 1.000000
0.088797 0.518191 1.000000
0.231679 0.515776 1.000000
0.388210 0.513159 0.998508
0.550906 0.510468 0.994870
0.712266 0.507830 0.991195
0.864773 0.505365 0.987661
1.000000 0.503187 0.984458
1.000000 0.501374 0.981730
0.000000 0.668217 0.996321
0.081247 0.666211 0.993569
0.224396 0.663879 0.990292
0.381219 0.661351 0.986642
0.544219 0.658754 0.982782
0.705880 0.656209 0.978887
0.858672 0.653831 0.975146
0.995045 0.651732 0.971757
1.000000 0.649985 0.968874
0.000000 0.810240 0.984839
0.074923 0.808301 0.981928
0.218328 0.806048 0.978463
0.375432 0.803606 0.974609
0.538722 0.801099 0.970536
0.700672 0.798643 0.966431
0.853736 0.796349 0.962491
0.990352 0.794324 0.958925
1.000000 0.792640 0.955893
0.000000 0.940062 0.973795
0.069931 0.938185 0.970738
0.213569 0.936003 0.967104
0.370928 0.933641 0.963062
0.534484 0.931215 0.958796
0.696698 0.928840 0.954499
0.850010 0.926622 0.950377
0.986848 0.924666 0.946649
1.000000 0.923039 0.943481
0.000000 1.000000 0.963911
0.066246 1.000000 0.960730
0.210084 1.000000 0.956950
0.367662 1.000000 0.952749
0.531446 1.000000 0.948317
0.693884 1.000000 0.943855
0.847409 1.000000 0.939578
0.984437 1.000000 0.935711
1.000000 1.000000 0.932617
