waxal-templates/luts/waxal-nit.cube
TITLE "Waxal Nit"
# Original Waxal look — generated color math, no third-party data
LUT_3D_SIZE 33
0.034987 0.034987 0.034987
0.039544 0.039544 0.039544
0.044451 0.044451 0.044451
0.049673 0.049673 0.049673
0.055178 0.055178 0.055178
0.060937 0.060937 0.060937
0.066924 0.066924 0.066924
0.073119 0.073119 0.073119
0.079504 0.079504 0.079504
0.086065 0.086065 0.086065
0.092792 0.092792 0.092792
0.099679 0.099679 0.099679
0.106719 0.106719 0.106719
0.113910 0.113910 0.113910
0.121251 0.121251 0.121251
0.128739 0.128739 0.128739
0.136374 0.136374 0.136374
0.144152 0.144152 0.144152
0.152032 0.152032 0.152032
0.159870 0.159870 0.159870
0.167627 0.167627 0.167627
0.175275 0.175275 0.175275
0.182786 0.182786 0.182786
0.190133 0.190133 0.190133
0.197288 0.197288 0.197288
0.204222 0.204222 0.204222
0.210908 0.210908 0.210908
0.217319 0.217319 0.217319
0.223426 0.223426 0.223426
0.229201 0.229201 0.229201
0.234616 0.234616 0.234616
0.239645 0.239645 0.239645
0.244257 0.244257 0.244257
0.050318 0.050318 0.050318
0.054877 0.054877 0.054877
0.059786 0.059786 0.059786
0.065011 0.065011 0.065011
0.070519 0.070519 0.070519
0.076280 0.076280 0.076280
0.082270 0.082270 0.082270
0.088467 0.088467 0.088467
0.094855 0.094855 0.094855
0.101419 0.101419 0.101419
0.108150 0.108150 0.108150
0.115039 0.115039 0.115039
0.122083 0.122083 0.122083
0.129278 0.129278 0.129278
0.136622 0.136622 0.136622
0.144113 0.144113 0.144113
0.151752 0.151752 0.151752
0.159533 0.159533 0.159533
0.167417 0.167417 0.167417
0.175259 0.175259 0.175259
0.183019 0.183019 0.183019
0.190670 0.190670 0.190670
0.198185 0.198185 0.198185
0.205535 0.205535 0.205535
0.212693 0.212693 0.212693
0.219630 0.219630 0.219630
0.226320 0.226320 0.226320
0.232733 0.232733 0.232733
0.238843 0.238843 0.238843
0.244621 0.244621 0.244621
0.250039 0.250039 0.250039
0.255069 0.255069 0.255069
0.259684 0.259684 0.259684
0.066835 0.066835 0.066835
0.071396 0.071396 0.071396
0.076308 0.076308 0.076308
0.081535 0.081535 0.081535
0.087045 0.087045 0.087045
0.092809 0.092809 0.092809
0.098802 0.098802 0.098802
0.105003 0.105003 0.105003
0.111394 0.111394 0.111394
0.117961 0.117961 0.117961
0.124695 0.124695 0.124695
0.131588 0.131588 0.131588
0.138635 0.138635 0.138635
0.145833 0.145833 0.145833
0.153181 0.153181 0.153181
0.160676 0.160676 0.160676
0.168318 0.168318 0.168318
0.176103 0.176103 0.176103
0.183991 0.183991 0.183991
0.191837 0.191837 0.191837
0.199601 0.199601 0.199601
0.207256 0.207256 0.207256
0.214774 0.214774 0.214774
0.222128 0.222128 0.222128
0.229289 0.229289 0.229289
0.236230 0.236230 0.236230
0.242923 0.242923 0.242923
0.249340 0.249340 0.249340
0.255452 0.255452 0.255452
0.261233 0.261233 0.261233
0.266654 0.266654 0.266654
0.271687 0.271687 0.271687
0.276304 0.276304 0.276304
0.084418 0.084418 0.084418
0.088981 0.088981 0.088981
0.093896 0.093896 0.093896
0.099126 0.099126 0.099126
0.104639 0.104639 0.104639
0.110406 0.110406 0.110406
0.116402 0.116402 0.116402
0.122606 0.122606 0.122606
0.129000 0.129000 0.129000
0.135571 0.135571 0.135571
0.142308 0.142308 0.142308
0.149205 0.149205 0.149205
0.156256 0.156256 0.156256
0.163458 0.163458 0.163458
0.170809 0.170809 0.170809
0.178309 0.178309 0.178309
0.185954 0.185954 0.185954
0.193744 0.193744 0.193744
0.201636 0.201636 0.201636
0.209485 0.209485 0.209485
0.217254 0.217254 0.217254
0.224913 0.224913 0.224913
0.232435 0.232435 0.232435
0.239793 0.239793 0.239793
0.246958 0.246958 0.246958
0.253902 0.253902 0.253902
0.260599 0.260599 0.260599
0.267019 0.267019 0.267019
0.273134 0.273134 0.273134
0.278918 0.278918 0.278918
0.284342 0.284342 0.284342
0.289377 0.289377 0.289377
0.293997 0.293997 0.293997
0.102960 0.102960 0.102960
0.107525 0.107525 0.107525
0.112443 0.112443 0.112443
0.117676 0.117676 0.117676
0.123192 0.123192 0.123192
0.128962 0.128962 0.128962
0.134961 0.134961 0.134961
0.141169 0.141169 0.141169
0.147567 0.147567 0.147567
0.154141 0.154141 0.154141
0.160882 0.160882 0.160882
0.167782 0.167782 0.167782
0.174837 0.174837 0.174837
0.182043 0.182043 0.182043
0.189399 0.189399 0.189399
0.196902 0.196902 0.196902
0.204552 0.204552 0.204552
0.212346 0.212346 0.212346
0.220242 0.220242 0.220242
0.228096 0.228096 0.228096
0.235869 0.235869 0.235869
0.243532 0.243532 0.243532
0.251059 0.251059 0.251059
0.258420 0.258420 0.258420
0.265589 0.265589 0.265589
0.272538 0.272538 0.272538
0.279238 0.279238 0.279238
0.285661 0.285661 0.285661
0.291780 0.291780 0.291780
0.297567 0.297567 0.297567
0.302994 0.302994 0.302994
0.308032 0.308032 0.308032
0.312655 0.312655 0.312655
0.122364 0.122364 0.122364
0.126932 0.126932 0.126932
0.131852 0.131852 0.131852
0.137088 0.137088 0.137088
0.142607 0.142607 0.142607
0.148381 0.148381 0.148381
0.154384 0.154384 0.154384
0.160595 0.160595 0.160595
0.166996 0.166996 0.166996
0.173575 0.173575 0.173575
0.180320 0.180320 0.180320
0.187224 0.187224 0.187224
0.194283 0.194283 0.194283
0.201493 0.201493 0.201493
0.208853 0.208853 0.208853
0.216361 0.216361 0.216361
0.224015 0.224015 0.224015
0.231813 0.231813 0.231813
0.239714 0.239714 0.239714
0.247573 0.247573 0.247573
0.255350 0.255350 0.255350
0.263018 0.263018 0.263018
0.270549 0.270549 0.270549
0.277914 0.277914 0.277914
0.285088 0.285088 0.285088
0.292040 0.292040 0.292040
0.298744 0.298744 0.298744
0.305171 0.305171 0.305171
0.311294 0.311294 0.311294
0.317084 0.317084 0.317084
0.322514 0.322514 0.322514
0.327555 0.327555 0.327555
0.332180 0.332180 0.332180
0.142547 0.142547 0.142547
0.147118 0.147118 0.147118
0.152041 0.152041 0.152041
0.157280 0.157280 0.157280
0.162802 0.162802 0.162802
0.168580 0.168580 0.168580
0.174586 0.174586 0.174586
0.180801 0.180801 0.180801
0.187206 0.187206 0.187206
0.193789 0.193789 0.193789
0.200538 0.200538 0.200538
0.207446 0.207446 0.207446
0.214509 0.214509 0.214509
0.221723 0.221723 0.221723
0.229088 0.229088 0.229088
0.236600 0.236600 0.236600
0.244259 0.244259 0.244259
0.252062 0.252062 0.252062
0.259968 0.259968 0.259968
0.267831 0.267831 0.267831
0.275613 0.275613 0.275613
0.283285 0.283285 0.283285
0.290820 0.290820 0.290820
0.298191 0.298191 0.298191
0.305368 0.305368 0.305368
0.312325 0.312325 0.312325
0.319032 0.319032 0.319032
0.325463 0.325463 0.325463
0.331590 0.331590 0.331590
0.337384 0.337384 0.337384
0.342817 0.342817 0.342817
0.347861 0.347861 0.347861
0.352489 0.352489 0.352489
0.163438 0.163438 0.163438
0.168012 0.168012 0.168012
0.172938 0.172938 0.172938
0.178180 0.178180 0.178180
0.183706 0.183706 0.183706
0.189487 0.189487 0.189487
0.195497 0.195497 0.195497
0.201716 0.201716 0.201716
0.208125 0.208125 0.208125
0.214711 0.214711 0.214711
0.221465 0.221465 0.221465
0.228377 0.228377 0.228377
0.235445 0.235445 0.235445
0.242664 0.242664 0.242664
0.250032 0.250032 0.250032
0.257550 0.257550 0.257550
0.265214 0.265214 0.265214
0.273021 0.273021 0.273021
0.280932 0.280932 0.280932
0.288800 0.288800 0.288800
0.296586 0.296586 0.296586
0.304264 0.304264 0.304264
0.311804 0.311804 0.311804
0.319178 0.319178 0.319178
0.326360 0.326360 0.326360
0.333321 0.333321 0.333321
0.340033 0.340033 0.340033
0.346468 0.346468 0.346468
0.352598 0.352598 0.352598
0.358396 0.358396 0.358396
0.363832 0.363832 0.363832
0.368879 0.368879 0.368879
0.373510 0.373510 0.373510
0.184979 0.184979 0.184979
0.189556 0.189556 0.189556
0.194486 0.194486 0.194486
0.199731 0.199731 0.199731
0.205261 0.205261 0.205261
0.211045 0.211045 0.211045
0.217059 0.217059 0.217059
0.223282 0.223282 0.223282
0.229695 0.229695 0.229695
0.236286 0.236286 0.236286
0.243044 0.243044 0.243044
0.249961 0.249961 0.249961
0.257033 0.257033 0.257033
0.264256 0.264256 0.264256
0.271630 0.271630 0.271630
0.279152 0.279152 0.279152
0.286820 0.286820 0.286820
0.294633 0.294633 0.294633
0.302549 0.302549 0.302549
0.310422 0.310422 0.310422
0.318213 0.318213 0.318213
0.325895 0.325895 0.325895
0.333440 0.333440 0.333440
0.340820 0.340820 0.340820
0.348006 0.348006 0.348006
0.354971 0.354971 0.354971
0.361688 0.361688 0.361688
0.368127 0.368127 0.368127
0.374261 0.374261 0.374261
0.380062 0.380062 0.380062
0.385502 0.385502 0.385502
0.390552 0.390552 0.390552
0.395186 0.395186 0.395186
0.207126 0.207126 0.207126
0.211706 0.211706 0.211706
0.216639 0.216639 0.216639
0.221888 0.221888 0.221888
0.227421 0.227421 0.227421
0.233210 0.233210 0.233210
0.239228 0.239228 0.239228
0.245454 0.245454 0.245454
0.251872 0.251872 0.251872
0.258467 0.258467 0.258467
0.265229 0.265229 0.265229
0.272150 0.272150 0.272150
0.279227 0.279227 0.279227
0.286455 0.286455 0.286455
0.293834 0.293834 0.293834
0.301361 0.301361 0.301361
0.309034 0.309034 0.309034
0.316852 0.316852 0.316852
0.324773 0.324773 0.324773
0.332651 0.332651 0.332651
0.340448 0.340448 0.340448
0.348135 0.348135 0.348135
0.355685 0.355685 0.355685
0.363069 0.363069 0.363069
0.370260 0.370260 0.370260
0.377230 0.377230 0.377230
0.383951 0.383951 0.383951
0.390394 0.390394 0.390394
0.396532 0.396532 0.396532
0.402337 0.402337 0.402337
0.407780 0.407780 0.407780
0.412834 0.412834 0.412834
0.417471 0.417471 0.417471
0.229845 0.229845 0.229845
0.234428 0.234428 0.234428
0.239364 0.239364 0.239364
0.244617 0.244617 0.244617
0.250154 0.250154 0.250154
0.255946 0.255946 0.255946
0.261968 0.261968 0.261968
0.268199 0.268199 0.268199
0.274621 0.274621 0.274621
0.281220 0.281220 0.281220
0.287987 0.287987 0.287987
0.294913 0.294913 0.294913
0.301994 0.301994 0.301994
0.309227 0.309227 0.309227
0.316611 0.316611 0.316611
0.324143 0.324143 0.324143
0.331822 0.331822 0.331822
0.339644 0.339644 0.339644
0.347571 0.347571 0.347571
0.355454 0.355454 0.355454
0.363256 0.363256 0.363256
0.370948 0.370948 0.370948
0.378503 0.378503 0.378503
0.385893 0.385893 0.385893
0.393089 0.393089 0.393089
0.400063 0.400063 0.400063
0.406788 0.406788 0.406788
0.413236 0.413236 0.413236
0.419378 0.419378 0.419378
0.425187 0.425187 0.425187
0.430634 0.430634 0.430634
0.435691 0.435691 0.435691
0.440331 0.440331 0.440331
0.253111 0.253111 0.253111
0.257697 0.257697 0.257697
0.262637 0.262637 0.262637
0.267893 0.267893 0.267893
0.273434 0.273434 0.273434
0.279230 0.279230 0.279230
0.285256 0.285256 0.285256
0.291491 0.291491 0.291491
0.297918 0.297918 0.297918
0.304522 0.304522 0.304522
0.311293 0.311293 0.311293
0.318224 0.318224 0.318224
0.325310 0.325310 0.325310
0.332548 0.332548 0.332548
0.339937 0.339937 0.339937
0.347474 0.347474 0.347474
0.355158 0.355158 0.355158
0.362986 0.362986 0.362986
0.370918 0.370918 0.370918
0.378807 0.378807 0.378807
0.386614 0.386614 0.386614
0.394312 0.394312 0.394312
0.401872 0.401872 0.401872
0.409266 0.409266 0.409266
0.416467 0.416467 0.416467
0.423446 0.423446 0.423446
0.430176 0.430176 0.430176
0.436628 0.436628 0.436628
0.442775 0.442775 0.442775
0.448587 0.448587 0.448587
0.454038 0.454038 0.454038
0.459099 0.459099 0.459099
0.463742 0.463742 0.463742
0.276909 0.276909 0.276909
0.281499 0.281499 0.281499
0.286442 0.286442 0.286442
0.291702 0.291702 0.291702
0.297246 0.297246 0.297246
0.303046 0.303046 0.303046
0.309077 0.309077 0.309077
0.315316 0.315316 0.315316
0.321747 0.321747 0.321747
0.328356 0.328356 0.328356
0.335132 0.335132 0.335132
0.342068 0.342068 0.342068
0.349159 0.349159 0.349159
0.356402 0.356402 0.356402
0.363796 0.363796 0.363796
0.371338 0.371338 0.371338
0.379028 0.379028 0.379028
0.386862 0.386862 0.386862
0.394799 0.394799 0.394799
0.402693 0.402693 0.402693
0.410506 0.410506 0.410506
0.418209 0.418209 0.418209
0.425775 0.425775 0.425775
0.433174 0.433174 0.433174
0.440380 0.440380 0.440380
0.447364 0.447364 0.447364
0.454099 0.454099 0.454099
0.460555 0.460555 0.460555
0.466706 0.466706 0.466706
0.472523 0.472523 0.472523
0.477977 0.477977 0.477977
0.483042 0.483042 0.483042
0.487688 0.487688 0.487688
0.301230 0.301230 0.301230
0.305823 0.305823 0.305823
0.310769 0.310769 0.310769
0.316033 0.316033 0.316033
0.321582 0.321582 0.321582
0.327386 0.327386 0.327386
0.333421 0.333421 0.333421
0.339665 0.339665 0.339665
0.346101 0.346101 0.346101
0.352714 0.352714 0.352714
0.359495 0.359495 0.359495
0.366436 0.366436 0.366436
0.373532 0.373532 0.373532
0.380780 0.380780 0.380780
0.388179 0.388179 0.388179
0.395727 0.395727 0.395727
0.403422 0.403422 0.403422
0.411262 0.411262 0.411262
0.419205 0.419205 0.419205
0.427105 0.427105 0.427105
0.434923 0.434923 0.434923
0.442632 0.442632 0.442632
0.450202 0.450202 0.450202
0.457607 0.457607 0.457607
0.464818 0.464818 0.464818
0.471808 0.471808 0.471808
0.478547 0.478547 0.478547
0.485008 0.485008 0.485008
0.491163 0.491163 0.491163
0.496984 0.496984 0.496984
0.502442 0.502442 0.502442
0.507510 0.507510 0.507510
0.512160 0.512160 0.512160
0.326069 0.326069 0.326069
0.330665 0.330665 0.330665
0.335615 0.335615 0.335615
0.340882 0.340882 0.340882
0.346435 0.346435 0.346435
0.352244 0.352244 0.352244
0.358283 0.358283 0.358283
0.364532 0.364532 0.364532
0.370972 0.370972 0.370972
0.377590 0.377590 0.377590
0.384376 0.384376 0.384376
0.391322 0.391322 0.391322
0.398423 0.398423 0.398423
0.405677 0.405677 0.405677
0.413081 0.413081 0.413081
0.420635 0.420635 0.420635
0.428335 0.428335 0.428335
0.436181 0.436181 0.436181
0.444129 0.444129 0.444129
0.452035 0.452035 0.452035
0.459859 0.459859 0.459859
0.467573 0.467573 0.467573
0.475150 0.475150 0.475150
0.482560 0.482560 0.482560
0.489776 0.489776 0.489776
0.496771 0.496771 0.496771
0.503515 0.503515 0.503515
0.509981 0.509981 0.509981
0.516140 0.516140 0.516140
0.521965 0.521965 0.521965
0.527428 0.527428 0.527428
0.532500 0.532500 0.532500
0.537152 0.537152 0.537152
0.351421 0.351421 0.351421
0.356020 0.356020 0.356020
0.360974 0.360974 0.360974
0.366245 0.366245 0.366245
0.371802 0.371802 0.371802
0.377615 0.377615 0.377615
0.383659 0.383659 0.383659
0.389912 0.389912 0.389912
0.396357 0.396357 0.396357
0.402980 0.402980 0.402980
0.409771 0.409771 0.409771
0.416722 0.416722 0.416722
0.423829 0.423829 0.423829
0.431088 0.431088 0.431088
0.438498 0.438498 0.438498
0.446057 0.446057 0.446057
0.453764 0.453764 0.453764
0.461615 0.461615 0.461615
0.469569 0.469569 0.469569
0.477481 0.477481 0.477481
0.485311 0.485311 0.485311
0.493031 0.493031 0.493031
0.500613 0.500613 0.500613
0.508028 0.508028 0.508028
0.515250 0.515250 0.515250
0.522250 0.522250 0.522250
0.528999 0.528999 0.528999
0.535470 0.535470 0.535470
0.541634 0.541634 0.541634
0.547463 0.547463 0.547463
0.552930 0.552930 0.552930
0.558005 0.558005 0.558005
0.562661 0.562661 0.562661
0.377281 0.377281 0.377281
0.381884 0.381884 0.381884
0.386841 0.386841 0.386841
0.392117 0.392117 0.392117
0.397678 0.397678 0.397678
0.403495 0.403495 0.403495
0.409544 0.409544 0.409544
0.415802 0.415802 0.415802
0.422252 0.422252 0.422252
0.428880 0.428880 0.428880
0.435676 0.435676 0.435676
0.442632 0.442632 0.442632
0.449744 0.449744 0.449744
0.457009 0.457009 0.457009
0.464424 0.464424 0.464424
0.471989 0.471989 0.471989
0.479701 0.479701 0.479701
0.487558 0.487558 0.487558
0.495519 0.495519 0.495519
0.503437 0.503437 0.503437
0.511273 0.511273 0.511273
0.518998 0.518998 0.518998
0.526586 0.526586 0.526586
0.534008 0.534008 0.534008
0.541235 0.541235 0.541235
0.548240 0.548240 0.548240
0.554994 0.554994 0.554994
0.561469 0.561469 0.561469
0.567638 0.567638 0.567638
0.573472 0.573472 0.573472
0.578943 0.578943 0.578943
0.584022 0.584022 0.584022
0.588682 0.588682 0.588682
0.403640 0.403640 0.403640
0.408247 0.408247 0.408247
0.413208 0.413208 0.413208
0.418488 0.418488 0.418488
0.424053 0.424053 0.424053
0.429875 0.429875 0.429875
0.435928 0.435928 0.435928
0.442191 0.442191 0.442191
0.448646 0.448646 0.448646
0.455279 0.455279 0.455279
0.462080 0.462080 0.462080
0.469042 0.469042 0.469042
0.476160 0.476160 0.476160
0.483430 0.483430 0.483430
0.490851 0.490851 0.490851
0.498422 0.498422 0.498422
0.506140 0.506140 0.506140
0.514003 0.514003 0.514003
0.521970 0.521970 0.521970
0.529894 0.529894 0.529894
0.537736 0.537736 0.537736
0.545467 0.545467 0.545467
0.553061 0.553061 0.553061
0.560488 0.560488 0.560488
0.567721 0.567721 0.567721
0.574731 0.574731 0.574731
0.581490 0.581490 0.581490
0.587971 0.587971 0.587971
0.594145 0.594145 0.594145
0.599983 0.599983 0.599983
0.605458 0.605458 0.605458
0.610541 0.610541 0.610541
0.615204 0.615204 0.615204
0.430362 0.430362 0.430362
0.434972 0.434972 0.434972
0.439937 0.439937 0.439937
0.445221 0.445221 0.445221
0.450791 0.450791 0.450791
0.456617 0.456617 0.456617
0.462675 0.462675 0.462675
0.468943 0.468943 0.468943
0.475403 0.475403 0.475403
0.482041 0.482041 0.482041
0.488848 0.488848 0.488848
0.495815 0.495815 0.495815
0.502938 0.502938 0.502938
0.510214 0.510214 0.510214
0.517641 0.517641 0.517641
0.525218 0.525218 0.525218
0.532942 0.532942 0.532942
0.540811 0.540811 0.540811
0.548784 0.548784 0.548784
0.556714 0.556714 0.556714
0.564562 0.564562 0.564562
0.572300 0.572300 0.572300
0.579899 0.579899 0.579899
0.587332 0.587332 0.587332
0.594571 0.594571 0.594571
0.601586 0.601586 0.601586
0.608351 0.608351 0.608351
0.614837 0.614837 0.614837
0.621015 0.621015 0.621015
0.626858 0.626858 0.626858
0.632337 0.632337 0.632337
0.637424 0.637424 0.637424
0.642091 0.642091 0.642091
0.456955 0.456955 0.456955
0.461568 0.461568 0.461568
0.466537 0.466537 0.466537
0.471825 0.471825 0.471825
0.477399 0.477399 0.477399
0.483230 0.483230 0.483230
0.489293 0.489293 0.489293
0.495565 0.495565 0.495565
0.502030 0.502030 0.502030
0.508674 0.508674 0.508674
0.515486 0.515486 0.515486
0.522459 0.522459 0.522459
0.529587 0.529587 0.529587
0.536869 0.536869 0.536869
0.544302 0.544302 0.544302
0.551884 0.551884 0.551884
0.559614 0.559614 0.559614
0.567490 0.567490 0.567490
0.575469 0.575469 0.575469
0.583405 0.583405 0.583405
0.591259 0.591259 0.591259
0.599003 0.599003 0.599003
0.606608 0.606608 0.606608
0.614047 0.614047 0.614047
0.621291 0.621291 0.621291
0.628312 0.628312 0.628312
0.635082 0.635082 0.635082
0.641573 0.641573 0.641573
0.647756 0.647756 0.647756
0.653603 0.653603 0.653603
0.659087 0.659087 0.659087
0.664178 0.664178 0.664178
0.668848 0.668848 0.668848
0.483286 0.483286 0.483286
0.487903 0.487903 0.487903
0.492876 0.492876 0.492876
0.498168 0.498168 0.498168
0.503747 0.503747 0.503747
0.509582 0.509582 0.509582
0.515649 0.515649 0.515649
0.521927 0.521927 0.521927
0.528397 0.528397 0.528397
0.535045 0.535045 0.535045
0.541862 0.541862 0.541862
0.548841 0.548841 0.548841
0.555975 0.555975 0.555975
0.563262 0.563262 0.563262
0.570700 0.570700 0.570700
0.578289 0.578289 0.578289
0.586025 0.586025 0.586025
0.593906 0.593906 0.593906
0.601891 0.601891 0.601891
0.609834 0.609834 0.609834
0.617694 0.617694 0.617694
0.625444 0.625444 0.625444
0.633055 0.633055 0.633055
0.640499 0.640499 0.640499
0.647749 0.647749 0.647749
0.654775 0.654775 0.654775
0.661550 0.661550 0.661550
0.668046 0.668046 0.668046
0.674234 0.674234 0.674234
0.680086 0.680086 0.680086
0.685574 0.685574 0.685574
0.690669 0.690669 0.690669
0.695343 0.695343 0.695343
0.509262 0.509262 0.509262
0.513882 0.513882 0.513882
0.518859 0.518859 0.518859
0.524155 0.524155 0.524155
0.529738 0.529738 0.529738
0.535578 0.535578 0.535578
0.541649 0.541649 0.541649
0.547931 0.547931 0.547931
0.554406 0.554406 0.554406
0.561060 0.561060 0.561060
0.567882 0.567882 0.567882
0.574866 0.574866 0.574866
0.582005 0.582005 0.582005
0.589298 0.589298 0.589298
0.596742 0.596742 0.596742
0.604336 0.604336 0.604336
0.612078 0.612078 0.612078
0.619966 0.619966 0.619966
0.627957 0.627957 0.627957
0.635905 0.635905 0.635905
0.643771 0.643771 0.643771
0.651527 0.651527 0.651527
0.659144 0.659144 0.659144
0.666594 0.666594 0.666594
0.673849 0.673849 0.673849
0.680881 0.680881 0.680881
0.687661 0.687661 0.687661
0.694161 0.694161 0.694161
0.700354 0.700354 0.700354
0.706210 0.706210 0.706210
0.711702 0.711702 0.711702
0.716801 0.716801 0.716801
0.721479 0.721479 0.721479
0.534786 0.534786 0.534786
0.539411 0.539411 0.539411
0.544391 0.544391 0.544391
0.549691 0.549691 0.549691
0.555278 0.555278 0.555278
0.561122 0.561122 0.561122
0.567198 0.567198 0.567198
0.573485 0.573485 0.573485
0.579965 0.579965 0.579965
0.586623 0.586623 0.586623
0.593451 0.593451 0.593451
0.600439 0.600439 0.600439
0.607584 0.607584 0.607584
0.614882 0.614882 0.614882
0.622332 0.622332 0.622332
0.629931 0.629931 0.629931
0.637679 0.637679 0.637679
0.645573 0.645573 0.645573
0.653570 0.653570 0.653570
0.661524 0.661524 0.661524
0.669396 0.669396 0.669396
0.677157 0.677157 0.677157
0.684780 0.684780 0.684780
0.692235 0.692235 0.692235
0.699496 0.699496 0.699496
0.706533 0.706533 0.706533
0.713318 0.713318 0.713318
0.719823 0.719823 0.719823
0.726021 0.726021 0.726021
0.731881 0.731881 0.731881
0.737377 0.737377 0.737377
0.742480 0.742480 0.742480
0.747161 0.747161 0.747161
0.559765 0.559765 0.559765
0.564393 0.564393 0.564393
0.569376 0.569376 0.569376
0.574680 0.574680 0.574680
0.580271 0.580271 0.580271
0.586120 0.586120 0.586120
0.592200 0.592200 0.592200
0.598492 0.598492 0.598492
0.604976 0.604976 0.604976
0.611640 0.611640 0.611640
0.618472 0.618472 0.618472
0.625466 0.625466 0.625466
0.632616 0.632616 0.632616
0.639919 0.639919 0.639919
0.647374 0.647374 0.647374
0.654979 0.654979 0.654979
0.662733 0.662733 0.662733
0.670632 0.670632 0.670632
0.678635 0.678635 0.678635
0.686595 0.686595 0.686595
0.694472 0.694472 0.694472
0.702239 0.702239 0.702239
0.709867 0.709867 0.709867
0.717328 0.717328 0.717328
0.724594 0.724594 0.724594
0.731636 0.731636 0.731636
0.738426 0.738426 0.738426
0.744936 0.744936 0.744936
0.751138 0.751138 0.751138
0.757003 0.757003 0.757003
0.762502 0.762502 0.762502
0.767609 0.767609 0.767609
0.772293 0.772293 0.772293
0.584102 0.584102 0.584102
0.588733 0.588733 0.588733
0.593720 0.593720 0.593720
0.599028 0.599028 0.599028
0.604623 0.604623 0.604623
0.610475 0.610475 0.610475
0.616560 0.616560 0.616560
0.622856 0.622856 0.622856
0.629345 0.629345 0.629345
0.636013 0.636013 0.636013
0.642850 0.642850 0.642850
0.649849 0.649849 0.649849
0.657004 0.657004 0.657004
0.664313 0.664313 0.664313
0.671773 0.671773 0.671773
0.679383 0.679383 0.679383
0.687142 0.687142 0.687142
0.695047 0.695047 0.695047
0.703056 0.703056 0.703056
0.711021 0.711021 0.711021
0.718904 0.718904 0.718904
0.726677 0.726677 0.726677
0.734310 0.734310 0.734310
0.741776 0.741776 0.741776
0.749047 0.749047 0.749047
0.756094 0.756094 0.756094
0.762889 0.762889 0.762889
0.769404 0.769404 0.769404
0.775610 0.775610 0.775610
0.781479 0.781479 0.781479
0.786982 0.786982 0.786982
0.792092 0.792092 0.792092
0.796780 0.796780 0.796780
0.607702 0.607702 0.607702
0.612336 0.612336 0.612336
0.617327 0.617327 0.617327
0.622638 0.622638 0.622638
0.628236 0.628236 0.628236
0.634093 0.634093 0.634093
0.640182 0.640182 0.640182
0.646482 0.646482 0.646482
0.652976 0.652976 0.652976
0.659649 0.659649 0.659649
0.666490 0.666490 0.666490
0.673494 0.673494 0.673494
0.680654 0.680654 0.680654
0.687967 0.687967 0.687967
0.695433 0.695433 0.695433
0.703048 0.703048 0.703048
0.710813 0.710813 0.710813
0.718722 0.718722 0.718722
0.726737 0.726737 0.726737
0.734708 0.734708 0.734708
0.742596 0.742596 0.742596
0.750374 0.750374 0.750374
0.758012 0.758012 0.758012
0.765484 0.765484 0.765484
0.772760 0.772760 0.772760
0.779811 0.779811 0.779811
0.786611 0.786611 0.786611
0.793130 0.793130 0.793130
0.799340 0.799340 0.799340
0.805213 0.805213 0.805213
0.810721 0.810721 0.810721
0.815834 0.815834 0.815834
0.820525 0.820525 0.820525
0.630468 0.630468 0.630468
0.635105 0.635105 0.635105
0.640099 0.640099 0.640099
0.645414 0.645414 0.645414
0.651016 0.651016 0.651016
0.656877 0.656877 0.656877
0.662970 0.662970 0.662970
0.669274 0.669274 0.669274
0.675772 0.675772 0.675772
0.682449 0.682449 0.682449
0.689296 0.689296 0.689296
0.696304 0.696304 0.696304
0.703468 0.703468 0.703468
0.710787 0.710787 0.710787
0.718257 0.718257 0.718257
0.725878 0.725878 0.725878
0.733647 0.733647 0.733647
0.741562 0.741562 0.741562
0.749581 0.749581 0.749581
0.757558 0.757558 0.757558
0.765451 0.765451 0.765451
0.773234 0.773234 0.773234
0.780878 0.780878 0.780878
0.788354 0.788354 0.788354
0.795635 0.795635 0.795635
0.802691 0.802691 0.802691
0.809495 0.809495 0.809495
